;FLAVOR:Repetier
;TIME:2074
;Generated with Cura_SteamEngine 2.5.0
M190 S50
M104 S185
M109 S185
G28 ;Home
G1 Z15.0 F6000 ;Move the platform down 15mm
;Prime the extruder
G92 E0
G1 F200 E3
G92 E0
;LAYER_COUNT:108
;LAYER:0
M107
G0 F5400 X-2.265 Y-18.593 Z0.3
;TYPE:SKIRT
G1 F1800 X3.159 Y-18.617 E0.33826
G1 X8.555 Y-18.944 E0.67539
G1 X13.942 Y-19.579 E1.01366
G1 X19.299 Y-20.52 E1.35285
G1 X21.877 Y-21.087 E1.51747
G1 X27.908 Y-22.684 E1.90654
G1 X28.565 Y-22.804 E1.94819
G1 X29.683 Y-22.918 E2.01827
G1 X30.555 Y-22.917 E2.07265
G1 X31.409 Y-22.828 E2.1262
G1 X32.225 Y-22.661 E2.17814
G1 X33.313 Y-22.324 E2.24917
G1 X33.857 Y-22.114 E2.28554
G1 X34.367 Y-21.831 E2.32191
G1 X35.041 Y-21.29 E2.37581
G1 X35.262 Y-21.072 E2.39517
G1 X35.647 Y-20.635 E2.43149
G1 X35.97 Y-20.15 E2.46783
G1 X36.223 Y-19.625 E2.50417
G1 X36.43 Y-18.95 E2.5482
G1 X37.735 Y-12.955 E2.93082
G1 X38.018 Y-11.809 E3.00444
G1 X38.119 Y-11.235 E3.04078
G1 X38.134 Y-10.532 E3.08463
G1 X37.814 Y-5.315 E3.41059
G1 X37.774 Y0.109 E3.74886
G1 X38.039 Y5.512 E4.08621
G1 X38.774 Y12.479 E4.5231
G1 X38.795 Y13.061 E4.55942
G1 X38.684 Y13.898 E4.61207
G1 X37.821 Y17.57 E4.84731
G1 X37.135 Y20.998 E5.06533
G1 X36.982 Y21.56 E5.10165
G1 X36.753 Y22.096 E5.138
G1 X36.47 Y22.572 E5.17253
G1 X36.283 Y22.844 E5.19312
G1 X35.921 Y23.3 E5.22943
G1 X35.5 Y23.703 E5.26577
G1 X35.027 Y24.044 E5.30214
G1 X34.343 Y24.389 E5.34991
G1 X33.632 Y24.67 E5.39759
G1 X32.983 Y24.868 E5.4399
G1 X32.351 Y25.007 E5.48026
G1 X31.786 Y25.092 E5.51589
G1 X31.117 Y25.147 E5.55775
G1 X30.467 Y25.15 E5.59829
G1 X29.625 Y25.09 E5.65093
G1 X28.822 Y24.955 E5.70171
G1 X24.738 Y23.855 E5.96548
G1 X19.358 Y22.622 E6.30969
G1 X16.779 Y22.148 E6.47321
G1 X11.394 Y21.387 E6.81237
G1 X5.989 Y20.934 E7.15063
G1 X0.586 Y20.787 E7.4877
G1 X-4.834 Y20.948 E7.82585
G1 X-10.223 Y21.412 E8.16317
G1 X-15.588 Y22.182 E8.50117
G1 X-20.91 Y23.256 E8.83976
G1 X-27.664 Y24.992 E9.27465
G1 X-28.237 Y25.098 E9.31099
G1 X-28.61 Y25.125 E9.33431
G1 X-29.486 Y25.148 E9.38896
G1 X-30.069 Y25.123 E9.42535
G1 X-30.39 Y25.075 E9.44559
G1 X-31.666 Y24.833 E9.52658
G1 X-32.23 Y24.685 E9.56295
G1 X-32.757 Y24.467 E9.59851
G1 X-33.37 Y24.164 E9.64116
G1 X-33.874 Y23.871 E9.67751
G1 X-34.332 Y23.511 E9.71384
G1 X-34.737 Y23.092 E9.75018
G1 X-35.081 Y22.622 E9.78651
G1 X-35.358 Y22.109 E9.82286
G1 X-35.631 Y21.297 E9.87629
G1 X-37.293 Y13.992 E10.34349
G1 X-37.383 Y13.416 E10.37985
G1 X-37.392 Y12.812 E10.41752
G1 X-37.061 Y6.893 E10.78722
G1 X-37.051 Y1.473 E11.12523
G1 X-37.349 Y-3.955 E11.46424
G1 X-38.033 Y-10.341 E11.86477
G1 X-38.055 Y-10.924 E11.90115
G1 X-37.941 Y-11.78 E11.955
G1 X-37.094 Y-15.329 E12.18255
G1 X-36.319 Y-18.985 E12.41561
G1 X-36.16 Y-19.545 E12.45191
G1 X-35.925 Y-20.079 E12.4883
G1 X-35.619 Y-20.575 E12.52464
G1 X-35.249 Y-21.025 E12.56097
G1 X-34.82 Y-21.419 E12.5973
G1 X-34.31 Y-21.77 E12.63591
G1 X-33.873 Y-22.026 E12.66749
G1 X-33.351 Y-22.285 E12.70383
G1 X-32.734 Y-22.487 E12.74432
G1 X-31.527 Y-22.782 E12.82181
G1 X-30.953 Y-22.882 E12.85814
G1 X-30.533 Y-22.904 E12.88437
G1 X-29.406 Y-22.908 E12.95465
G1 X-28.825 Y-22.87 E12.99096
G1 X-28.311 Y-22.768 E13.02364
G1 X-23.743 Y-21.568 E13.31818
G1 X-18.389 Y-20.358 E13.66049
G1 X-13.056 Y-19.467 E13.99768
G1 X-7.66 Y-18.876 E14.33621
G1 X-2.265 Y-18.593 E14.67312
G0 F5400 X-2.271 Y-18.093
G1 F1800 X3.174 Y-18.117 E15.01268
G1 X8.606 Y-18.447 E15.35206
G1 X14.001 Y-19.082 E15.69083
G1 X19.4 Y-20.03 E16.03268
G1 X21.992 Y-20.6 E16.19819
G1 X28.036 Y-22.201 E16.58811
G1 X28.616 Y-22.307 E16.62488
G1 X29.734 Y-22.421 E16.69496
G1 X30.503 Y-22.42 E16.74292
G1 X31.357 Y-22.331 E16.79646
G1 X32.078 Y-22.183 E16.84236
G1 X33.166 Y-21.846 E16.91339
G1 X33.675 Y-21.646 E16.9475
G1 X34.15 Y-21.375 E16.9816
G1 X34.689 Y-20.934 E17.02503
G1 X34.91 Y-20.716 E17.04439
G1 X35.271 Y-20.304 E17.07855
G1 X35.568 Y-19.844 E17.1127
G1 X35.795 Y-19.346 E17.14683
G1 X35.941 Y-18.844 E17.17944
G1 X37.24 Y-12.876 E17.56033
G1 X37.533 Y-11.69 E17.63652
G1 X37.625 Y-11.15 E17.67068
G1 X37.635 Y-10.563 E17.70729
G1 X37.314 Y-5.331 E18.03419
G1 X37.274 Y0.129 E18.3747
G1 X37.54 Y5.553 E18.71336
G1 X38.276 Y12.531 E19.15094
G1 X38.294 Y13.079 E19.18513
G1 X38.197 Y13.783 E19.22945
G1 X37.336 Y17.444 E19.46399
G1 X36.645 Y20.9 E19.68378
G1 X36.499 Y21.427 E19.71788
G1 X36.277 Y21.928 E19.75206
G1 X36.058 Y22.288 E19.77834
G1 X35.871 Y22.56 E19.79892
G1 X35.529 Y22.988 E19.83309
G1 X35.128 Y23.361 E19.86724
G1 X34.678 Y23.671 E19.90132
G1 X34.159 Y23.924 E19.93732
G1 X33.448 Y24.205 E19.985
G1 X32.876 Y24.379 E20.02229
G1 X32.244 Y24.518 E20.06264
G1 X31.745 Y24.593 E20.09411
G1 X31.076 Y24.648 E20.13597
G1 X30.502 Y24.652 E20.17177
G1 X29.66 Y24.592 E20.22441
G1 X28.952 Y24.472 E20.26919
G1 X24.852 Y23.367 E20.53401
G1 X19.466 Y22.133 E20.87859
G1 X16.865 Y21.655 E21.04352
G1 X11.454 Y20.891 E21.38431
G1 X6.026 Y20.435 E21.72401
G1 X0.568 Y20.288 E22.0645
G1 X-4.857 Y20.448 E22.40297
G1 X-10.284 Y20.916 E22.74267
G1 X-15.67 Y21.688 E23.08199
G1 X-21.017 Y22.767 E23.42216
G1 X-27.788 Y24.508 E23.85816
G1 X-28.327 Y24.605 E23.89231
G1 X-28.624 Y24.625 E23.91087
G1 X-29.5 Y24.648 E23.96552
G1 X-30.297 Y24.583 E24.01539
G1 X-31.573 Y24.341 E24.09638
G1 X-32.102 Y24.2 E24.13052
G1 X-32.536 Y24.019 E24.15985
G1 X-33.149 Y23.716 E24.20249
G1 X-33.62 Y23.438 E24.2366
G1 X-34.047 Y23.095 E24.27076
G1 X-34.418 Y22.693 E24.30487
G1 X-34.728 Y22.241 E24.33905
G1 X-34.968 Y21.749 E24.37319
G1 X-35.144 Y21.186 E24.40998
G1 X-36.806 Y13.881 E24.87718
G1 X-36.888 Y13.34 E24.9113
G1 X-36.893 Y12.84 E24.94248
G1 X-36.561 Y6.903 E25.31331
G1 X-36.551 Y1.446 E25.65362
G1 X-36.849 Y-3.98 E25.99251
G1 X-37.536 Y-10.395 E26.39486
G1 X-37.554 Y-10.942 E26.42899
G1 X-37.455 Y-11.664 E26.47444
G1 X-36.6 Y-15.249 E26.70428
G1 X-35.83 Y-18.881 E26.93581
G1 X-35.678 Y-19.407 E26.96996
G1 X-35.451 Y-19.905 E27.00409
G1 X-35.153 Y-20.364 E27.03822
G1 X-34.792 Y-20.776 E27.07238
G1 X-34.375 Y-21.13 E27.10649
G1 X-34.057 Y-21.339 E27.13022
G1 X-33.62 Y-21.595 E27.16181
G1 X-33.129 Y-21.836 E27.19592
G1 X-32.615 Y-22.002 E27.2296
G1 X-31.408 Y-22.297 E27.30709
G1 X-30.869 Y-22.388 E27.34118
G1 X-30.531 Y-22.404 E27.36228
G1 X-29.404 Y-22.408 E27.43256
G1 X-28.858 Y-22.37 E27.4667
G1 X-28.438 Y-22.285 E27.49342
G1 X-23.839 Y-21.076 E27.78997
G1 X-18.493 Y-19.869 E28.13175
G1 X-13.12 Y-18.971 E28.47148
G1 X-7.707 Y-18.378 E28.81106
G1 X-2.271 Y-18.093 E29.15053
G0 F5400 X-2.277 Y-17.593
G1 F1800 X3.188 Y-17.617 E29.49135
G1 X8.644 Y-17.948 E29.83223
G1 X14.09 Y-18.59 E30.17421
G1 X19.5 Y-19.54 E30.51675
G1 X22.089 Y-20.109 E30.68206
G1 X28.164 Y-21.718 E31.07398
G1 X28.666 Y-21.809 E31.10579
G1 X29.784 Y-21.923 E31.17588
G1 X30.451 Y-21.922 E31.21747
G1 X31.305 Y-21.833 E31.27102
G1 X31.93 Y-21.705 E31.31081
G1 X33.018 Y-21.368 E31.38184
G1 X33.491 Y-21.18 E31.41358
G1 X33.929 Y-20.92 E31.44534
G1 X34.338 Y-20.578 E31.47859
G1 X34.559 Y-20.36 E31.49795
G1 X34.893 Y-19.975 E31.52974
G1 X35.162 Y-19.542 E31.56153
G1 X35.361 Y-19.073 E31.5933
G1 X35.453 Y-18.738 E31.61496
G1 X36.756 Y-12.755 E31.99683
G1 X37.048 Y-11.57 E32.07294
G1 X37.13 Y-11.067 E32.10472
G1 X37.136 Y-10.593 E32.13428
G1 X36.814 Y-5.346 E32.46211
G1 X36.774 Y0.133 E32.80381
G1 X37.041 Y5.595 E33.14484
G1 X37.779 Y12.584 E33.58312
G1 X37.793 Y13.093 E33.61487
G1 X37.711 Y13.669 E33.65115
G1 X36.845 Y17.353 E33.88716
G1 X36.155 Y20.802 E34.10651
G1 X36.016 Y21.292 E34.13828
G1 X35.802 Y21.754 E34.17003
G1 X35.646 Y22.005 E34.18846
G1 X35.459 Y22.277 E34.20904
G1 X35.138 Y22.673 E34.24083
G1 X34.76 Y23.014 E34.27258
G1 X34.333 Y23.292 E34.30436
G1 X33.976 Y23.459 E34.32894
G1 X33.265 Y23.74 E34.37661
G1 X32.768 Y23.891 E34.40901
G1 X32.136 Y24.03 E34.44936
G1 X31.704 Y24.095 E34.4766
G1 X31.035 Y24.15 E34.51847
G1 X30.538 Y24.153 E34.54946
G1 X29.696 Y24.093 E34.6021
G1 X29.082 Y23.989 E34.64094
G1 X24.985 Y22.885 E34.90555
G1 X19.557 Y21.641 E35.25283
G1 X16.954 Y21.163 E35.41788
G1 X11.51 Y20.394 E35.76075
G1 X6.046 Y19.935 E36.1027
G1 X0.584 Y19.788 E36.44345
G1 X-4.897 Y19.95 E36.78541
G1 X-10.345 Y20.419 E37.12642
G1 X-15.752 Y21.195 E37.46707
G1 X-21.128 Y22.28 E37.80909
G1 X-27.913 Y24.024 E38.24598
G1 X-28.637 Y24.125 E38.29157
G1 X-29.513 Y24.148 E38.34621
G1 X-30.204 Y24.092 E38.38945
G1 X-31.48 Y23.85 E38.47044
G1 X-31.971 Y23.716 E38.50218
G1 X-32.314 Y23.571 E38.5254
G1 X-32.927 Y23.268 E38.56805
G1 X-33.365 Y23.007 E38.59984
G1 X-33.756 Y22.681 E38.63159
G1 X-34.092 Y22.297 E38.66341
G1 X-34.364 Y21.866 E38.6952
G1 X-34.565 Y21.398 E38.72696
G1 X-34.656 Y21.075 E38.74789
G1 X-36.318 Y13.77 E39.21509
G1 X-36.392 Y13.266 E39.24686
G1 X-36.394 Y12.867 E39.27174
G1 X-36.061 Y6.913 E39.64363
G1 X-36.051 Y1.437 E39.98513
G1 X-36.351 Y-4.021 E40.32602
G1 X-37.039 Y-10.448 E40.72911
G1 X-37.053 Y-10.957 E40.76087
G1 X-36.968 Y-11.548 E40.7981
G1 X-36.122 Y-15.094 E41.02545
G1 X-35.341 Y-18.777 E41.26024
G1 X-35.197 Y-19.266 E41.29203
G1 X-34.978 Y-19.726 E41.3238
G1 X-34.689 Y-20.146 E41.35559
G1 X-34.339 Y-20.516 E41.38735
G1 X-33.805 Y-20.907 E41.42863
G1 X-33.368 Y-21.163 E41.46021
G1 X-32.909 Y-21.386 E41.49204
G1 X-32.497 Y-21.516 E41.51898
G1 X-31.29 Y-21.811 E41.59647
G1 X-30.787 Y-21.893 E41.62825
G1 X-30.53 Y-21.904 E41.64429
G1 X-29.403 Y-21.908 E41.71457
G1 X-28.894 Y-21.87 E41.74641
G1 X-28.565 Y-21.801 E41.76737
G1 X-23.961 Y-20.591 E42.06424
G1 X-18.598 Y-19.38 E42.40711
G1 X-13.186 Y-18.476 E42.74929
G1 X-7.752 Y-17.88 E43.0902
G1 X-2.277 Y-17.593 E43.43211
G0 F5400 X-25.594 Y-11.402
;TYPE:WALL-INNER
G1 F1800 X-25.558 Y-10.996 E43.45753
G1 X-25.531 Y-10.693 E43.4765
G1 X-25.312 Y-9.202 E43.57048
G1 X-25.026 Y-7.82 E43.65849
G1 X-25.026 Y-5.15 E43.825
G1 X32.028 Y-5.15 E47.38304
G1 X32.042 Y-5.15 E47.38392
G1 X32.165 Y-5.15 E47.39159
G1 X32.042 Y-4.67 E47.40751
G1 X32.038 Y-4.657 E47.40834
G1 X31.903 Y-4.287 E47.43291
G1 X31.71 Y-3.926 E47.45844
G1 X31.485 Y-3.621 E47.48207
G1 X31.201 Y-3.333 E47.5073
G1 X30.889 Y-3.097 E47.53169
G1 X30.537 Y-2.902 E47.55679
G1 X30.167 Y-2.764 E47.58141
G1 X29.788 Y-2.681 E47.60561
G1 X29.365 Y-2.65 E47.63206
G1 X-24.783 Y-2.65 E51.00888
G1 X-25.602 Y-2.691 E51.06002
G1 X-26.391 Y-2.806 E51.10974
G1 X-27.174 Y-3.001 E51.16006
G1 X-27.925 Y-3.267 E51.20975
G1 X-28.66 Y-3.61 E51.26033
G1 X-29.337 Y-4.011 E51.3094
G1 X-29.995 Y-4.493 E51.36027
G1 X-30.587 Y-5.022 E51.40978
G1 X-31.131 Y-5.612 E51.45982
G1 X-31.62 Y-6.26 E51.51045
G1 X-32.033 Y-6.934 E51.55975
G1 X-32.387 Y-7.662 E51.61023
G1 X-32.664 Y-8.409 E51.65991
G1 X-32.867 Y-9.178 E51.70951
G1 X-32.928 Y-9.566 E51.73401
G1 X-32.93 Y-9.578 E51.73477
G1 X-33.005 Y-10.055 E51.76488
G1 X-32.449 Y-9.654 E51.78961
G1 X-32.438 Y-9.648 E51.79038
G1 X-31.832 Y-9.333 E51.83297
G1 X-31.172 Y-9.106 E51.8765
G1 X-30.489 Y-8.978 E51.91983
G1 X-29.793 Y-8.951 E51.96327
G1 X-29.101 Y-9.026 E52.00668
G1 X-28.426 Y-9.201 E52.05016
G1 X-27.787 Y-9.473 E52.09347
G1 X-27.191 Y-9.835 E52.13696
G1 X-26.657 Y-10.281 E52.18035
G1 X-26.192 Y-10.8 E52.22381
G1 X-26.033 Y-11.041 E52.24181
G1 X-25.809 Y-11.382 E52.2604
G1 X-25.626 Y-11.774 E52.28738
G1 X-25.594 Y-11.402
G0 F5400 X27.878 Y-9.474
G1 F1800 X28.335 Y-9.278 E52.31839
G1 X28.495 Y-9.209 E52.32925
G1 X28.868 Y-9.111 E52.3533
G1 X29.168 Y-9.032 E52.37265
G1 X29.409 Y-9.005 E52.38777
G1 X29.857 Y-8.955 E52.41589
G1 X29.944 Y-8.957 E52.42131
G1 X30.532 Y-8.974 E52.458
G1 X30.551 Y-8.975 E52.45918
G1 X31.239 Y-9.101 E52.5028
G1 X31.279 Y-9.114 E52.50543
G1 X31.296 Y-9.12 E52.50655
G1 X31.898 Y-9.326 E52.54623
G1 X32.517 Y-9.644 E52.58963
G1 X32.626 Y-9.722 E52.59799
G1 X33.082 Y-10.048 E52.63294
G1 X33.02 Y-9.491 E52.65193
G1 X32.988 Y-9.215 E52.66926
G1 X32.838 Y-8.275 E52.72862
G1 X32.821 Y-8.165 E52.73556
G1 X32.779 Y-7.908 E52.7518
G1 X32.761 Y-7.801 E52.75857
G1 X32.707 Y-7.919
G1 X32.462 Y-8.223 E52.76018
G1 X32.372 Y-8.289 E52.76632
G1 X32.147 Y-8.456 E52.7838
G1 X31.782 Y-8.605 E52.80838
G1 X31.457 Y-8.647 E52.82882
G1 X31.439 Y-8.649 E52.82994
G1 X31.239 Y-8.649 E52.84138
G1 X30.551 Y-8.65 E52.87448
G1 X30.541 Y-8.651 E52.87478
G1 X29.952 Y-8.689 E52.89657
G1 X29.813 Y-8.715
G1 X29.386 Y-8.795 E52.89733
G1 X29.12 Y-8.879
G1 X28.832 Y-8.971
G1 X28.464 Y-9.139
G1 X28.306 Y-9.211
G1 X27.878 Y-9.474
G0 F5400 X28.086 Y-9.928
;TYPE:WALL-OUTER
G1 F1800 X28.658 Y-9.683 E52.93613
G1 X29.26 Y-9.525 E52.97495
G1 X29.878 Y-9.456 E53.01373
G1 X30.499 Y-9.474 E53.05247
G1 X31.113 Y-9.586 E53.09139
G1 X31.702 Y-9.787 E53.1302
G1 X32.256 Y-10.072 E53.16906
G1 X32.763 Y-10.435 E53.20794
G1 X33.196 Y-10.855 E53.24556
G1 X33.208 Y-10.867 E53.24662
G1 X33.27 Y-10.92 E53.25171
G1 X33.33 Y-10.949 E53.25586
G1 X33.389 Y-10.961 E53.25962
G1 X33.454 Y-10.957 E53.26368
G1 X33.509 Y-10.941 E53.26725
G1 X33.558 Y-10.912 E53.2708
G1 X33.604 Y-10.866 E53.27486
G1 X33.637 Y-10.812 E53.2788
G1 X33.653 Y-10.755 E53.2825
G1 X33.656 Y-10.675 E53.28749
G1 X33.654 Y-10.658 E53.28856
G1 X33.482 Y-9.136 E53.38408
G1 X33.233 Y-7.583 E53.48216
G1 X32.909 Y-6.033 E53.58092
G1 X32.52 Y-4.523 E53.67816
G1 X32.36 Y-4.081 E53.70747
G1 X32.135 Y-3.66 E53.73724
G1 X31.864 Y-3.293 E53.76569
G1 X31.529 Y-2.954 E53.79541
G1 X31.162 Y-2.676 E53.82413
G1 X30.749 Y-2.448 E53.85355
G1 X30.312 Y-2.284 E53.88265
G1 X29.855 Y-2.184 E53.91183
G1 X29.387 Y-2.15 E53.94109
G1 X-24.788 Y-2.15 E57.31959
G1 X-25.657 Y-2.193 E57.37385
G1 X-26.484 Y-2.314 E57.42598
G1 X-27.317 Y-2.521 E57.4795
G1 X-28.115 Y-2.804 E57.53231
G1 X-28.895 Y-3.168 E57.58599
G1 X-29.614 Y-3.594 E57.6381
G1 X-30.31 Y-4.104 E57.69191
G1 X-30.941 Y-4.668 E57.74469
G1 X-31.512 Y-5.287 E57.79721
G1 X-32.032 Y-5.976 E57.85104
G1 X-32.474 Y-6.697 E57.90378
G1 X-32.847 Y-7.465 E57.95703
G1 X-33.139 Y-8.252 E58.00938
G1 X-33.358 Y-9.082 E58.06291
G1 X-33.496 Y-9.932 E58.11661
G1 X-33.565 Y-10.618 E58.15961
G1 X-33.571 Y-10.68 E58.16349
G1 X-33.569 Y-10.754 E58.16811
G1 X-33.553 Y-10.811 E58.1718
G1 X-33.52 Y-10.865 E58.17575
G1 X-33.477 Y-10.909 E58.17958
G1 X-33.42 Y-10.942 E58.18369
G1 X-33.363 Y-10.959 E58.1874
G1 X-33.299 Y-10.961 E58.19139
G1 X-33.238 Y-10.948 E58.19528
G1 X-33.187 Y-10.921 E58.19888
G1 X-33.142 Y-10.878 E58.20276
G1 X-32.691 Y-10.445 E58.24175
G1 X-32.186 Y-10.081 E58.28058
G1 X-31.634 Y-9.794 E58.31937
G1 X-31.044 Y-9.591 E58.35829
G1 X-30.433 Y-9.476 E58.39706
G1 X-29.81 Y-9.452 E58.43594
G1 X-29.191 Y-9.519 E58.47477
G1 X-28.588 Y-9.676 E58.51363
G1 X-28.016 Y-9.919 E58.55238
G1 X-27.483 Y-10.243 E58.59128
G1 X-27.005 Y-10.642 E58.63011
G1 X-26.589 Y-11.106 E58.66897
G1 X-26.247 Y-11.626 E58.70779
G1 X-25.984 Y-12.19 E58.7466
G1 X-25.806 Y-12.787 E58.78545
G1 X-25.717 Y-13.403 E58.82426
G1 X-25.719 Y-13.814 E58.84989
G1 X-25.719 Y-14.026 E58.86311
G1 X-25.813 Y-14.643 E58.90203
G1 X-25.994 Y-15.238 E58.94082
G1 X-26.261 Y-15.8 E58.97962
G1 X-26.608 Y-16.317 E59.01845
G1 X-27.026 Y-16.779 E59.05731
G1 X-27.507 Y-17.174 E59.09612
G1 X-28.041 Y-17.495 E59.13498
G1 X-28.616 Y-17.734 E59.17381
G1 X-29.219 Y-17.887 E59.21261
G1 X-29.84 Y-17.95 E59.25153
G1 X-30.462 Y-17.921 E59.29036
G1 X-31.073 Y-17.802 E59.32918
G1 X-31.643 Y-17.601 E59.36688
G1 X-31.72 Y-17.579 E59.37187
G1 X-31.787 Y-17.576 E59.37605
G1 X-31.85 Y-17.592 E59.38011
G1 X-31.906 Y-17.623 E59.3841
G1 X-31.952 Y-17.667 E59.38807
G1 X-31.986 Y-17.722 E59.3921
G1 X-32.005 Y-17.785 E59.3962
G1 X-32.007 Y-17.854 E59.40051
G1 X-31.993 Y-17.91 E59.40411
G1 X-31.96 Y-17.97 E59.40838
G1 X-31.917 Y-18.015 E59.41226
G1 X-31.901 Y-18.024 E59.41332
G1 X-31.856 Y-18.052 E59.41663
G1 X-31.812 Y-18.067 E59.41945
G1 X-31.286 Y-18.258 E59.45435
G1 X-31.18 Y-18.281 E59.46111
G1 X-30.674 Y-18.393 E59.49343
G1 X-30.505 Y-18.407 E59.50401
G1 X-30.049 Y-18.447 E59.53255
G1 X-29.818 Y-18.437 E59.54697
G1 X-29.42 Y-18.419 E59.57182
G1 X-29.133 Y-18.367 E59.59001
G1 X-28.804 Y-18.307 E59.61086
G1 X-28.467 Y-18.199 E59.63293
G1 X-28.207 Y-18.115 E59.64997
G1 X-27.831 Y-17.937 E59.67592
G1 X-27.641 Y-17.846 E59.68905
G1 X-27.241 Y-17.586 E59.71881
G1 X-27.116 Y-17.505 E59.72809
G1 X-26.705 Y-17.153 E59.76184
G1 X-26.636 Y-17.094 E59.7675
G1 X-26.238 Y-16.65 E59.80469
G1 X-26.217 Y-16.627 E59.80663
