;FLAVOR:Repetier
;TIME:4276
;Generated with Cura_SteamEngine 2.5.0
M104 S220
M109 S220
G28 ;Home
G1 Z15.0 F6000 ;Move the platform down 15mm
;Prime the extruder
G92 E0
G1 F200 E3
G92 E0
;LAYER_COUNT:125
;LAYER:0
M106 S255
G0 F4950 X-1.482 Y-19.475 Z0.3
;TYPE:SKIRT
G1 F1800 X3.959 Y-19.552 E0.33935
G1 X9.411 Y-19.937 E0.6802
G1 X13.418 Y-20.413 E0.93184
G1 X13.859 Y-20.439 E0.95939
G1 X25.878 Y-20.441 E1.70893
G1 X26.424 Y-20.401 E1.74307
G1 X27.163 Y-20.214 E1.79061
G1 X34.701 Y-17.466 E2.29096
G1 X35.201 Y-17.242 E2.32513
G1 X35.662 Y-16.947 E2.35926
G1 X36.049 Y-16.614 E2.3911
G1 X36.252 Y-16.414 E2.40887
G1 X36.613 Y-16.003 E2.44299
G1 X36.91 Y-15.543 E2.47713
G1 X37.115 Y-15.101 E2.50752
G1 X37.19 Y-14.908 E2.52043
G1 X37.351 Y-14.385 E2.55456
G1 X37.433 Y-13.844 E2.58868
G1 X37.444 Y-13.481 E2.61133
G1 X37.313 Y-6.388 E3.05374
G1 X37.568 Y-.255 E3.43655
G1 X37.536 Y0.409 E3.478
G1 X37.211 Y2.784 E3.62749
G1 X37.098 Y3.32 E3.66166
G1 X36.83 Y3.992 E3.70677
G1 X36.653 Y4.336 E3.7309
G1 X36.368 Y4.803 E3.76502
G1 X36.018 Y5.223 E3.79911
G1 X35.61 Y5.589 E3.83329
G1 X35.154 Y5.891 E3.8674
G1 X34.852 Y6.043 E3.88849
G1 X33.664 Y6.575 E3.96966
G1 X32.932 Y6.815 E4.0177
G1 X31.629 Y7.1 E4.10088
G1 X31.016 Y7.182 E4.13945
G1 X29.758 Y7.245 E4.218
G1 X29.568 Y7.25 E4.22986
G1 X-30.563 Y7.214 E7.97979
G1 X-31.04 Y7.183 E8.0096
G1 X-31.684 Y7.1 E8.05009
G1 X-32.196 Y6.998 E8.08265
G1 X-33.473 Y6.648 E8.16523
G1 X-34 Y6.46 E8.20012
G1 X-34.707 Y6.147 E8.24834
G1 X-35.19 Y5.889 E8.28249
G1 X-35.722 Y5.484 E8.32418
G1 X-35.912 Y5.31 E8.34025
G1 X-36.287 Y4.911 E8.3744
G1 X-36.601 Y4.463 E8.40852
G1 X-36.823 Y4.029 E8.43892
G1 X-36.942 Y3.753 E8.45766
G1 X-37.121 Y3.236 E8.49178
G1 X-37.21 Y2.8 E8.51953
G1 X-37.495 Y0.812 E8.64478
G1 X-37.532 Y0.205 E8.6827
G1 X-37.425 Y-5.161 E9.01741
G1 X-37.539 Y-10.676 E9.36141
G1 X-37.678 Y-13.377 E9.53007
G1 X-37.666 Y-13.924 E9.56419
G1 X-37.575 Y-14.464 E9.59835
G1 X-37.368 Y-15.075 E9.63858
G1 X-37.276 Y-15.285 E9.65287
G1 X-37.02 Y-15.769 E9.68702
G1 X-36.697 Y-16.21 E9.72111
G1 X-36.313 Y-16.6 E9.75524
G1 X-36.066 Y-16.799 E9.77502
G1 X-35.777 Y-17.012 E9.79741
G1 X-35.314 Y-17.303 E9.83151
G1 X-34.733 Y-17.552 E9.87093
G1 X-32.707 Y-18.224 E10.00405
G1 X-27.424 Y-20.204 E10.35589
G1 X-26.899 Y-20.358 E10.39001
G1 X-26.108 Y-20.442 E10.43962
G1 X-14.127 Y-20.442 E11.18679
G1 X-13.736 Y-20.422 E11.2112
G1 X-6.912 Y-19.707 E11.6391
G1 X-1.482 Y-19.475 E11.97803
G0 F4950 X-1.497 Y-18.975
G1 F1800 X3.985 Y-19.052 E12.31994
G1 X9.462 Y-19.439 E12.66235
G1 X13.477 Y-19.916 E12.9145
G1 X13.859 Y-19.939 E12.93837
G1 X25.878 Y-19.941 E13.6879
G1 X26.386 Y-19.901 E13.71968
G1 X26.992 Y-19.744 E13.75872
G1 X34.53 Y-16.996 E14.25908
G1 X34.994 Y-16.785 E14.29086
G1 X35.418 Y-16.504 E14.32258
G1 X35.698 Y-16.258 E14.34583
G1 X35.901 Y-16.058 E14.3636
G1 X36.235 Y-15.673 E14.39538
G1 X36.504 Y-15.241 E14.42712
G1 X36.649 Y-14.92 E14.44909
G1 X36.724 Y-14.727 E14.462
G1 X36.871 Y-14.239 E14.49378
G1 X36.944 Y-13.49 E14.54072
G1 X36.813 Y-6.377 E14.98438
G1 X37.068 Y-.234 E15.3678
G1 X37.041 Y0.342 E15.40376
G1 X36.716 Y2.717 E15.55325
G1 X36.608 Y3.214 E15.58497
G1 X36.386 Y3.763 E15.6219
G1 X36.209 Y4.107 E15.64603
G1 X35.941 Y4.54 E15.67778
G1 X35.609 Y4.927 E15.70958
G1 X35.22 Y5.256 E15.74135
G1 X34.647 Y5.586 E15.78259
G1 X33.459 Y6.118 E15.86377
G1 X32.825 Y6.327 E15.9054
G1 X31.522 Y6.612 E15.98858
G1 X30.991 Y6.683 E16.02199
G1 X29.733 Y6.746 E16.10054
G1 X29.568 Y6.75 E16.11083
G1 X-30.563 Y6.714 E19.86077
G1 X-30.976 Y6.687 E19.88658
G1 X-31.62 Y6.604 E19.92707
G1 X-32.064 Y6.515 E19.95531
G1 X-33.341 Y6.165 E20.03788
G1 X-33.798 Y6.003 E20.06812
G1 X-34.505 Y5.69 E20.11634
G1 X-34.953 Y5.448 E20.14809
G1 X-35.384 Y5.115 E20.18206
G1 X-35.574 Y4.941 E20.19813
G1 X-35.922 Y4.568 E20.22994
G1 X-36.207 Y4.146 E20.2617
G1 X-36.363 Y3.831 E20.28362
G1 X-36.482 Y3.555 E20.30236
G1 X-36.647 Y3.073 E20.33413
G1 X-36.715 Y2.729 E20.356
G1 X-37 Y0.741 E20.48125
G1 X-37.032 Y0.215 E20.51411
G1 X-36.924 Y-5.161 E20.84944
G1 X-37.039 Y-10.68 E21.19369
G1 X-37.179 Y-13.403 E21.36373
G1 X-37.165 Y-13.912 E21.39549
G1 X-37.072 Y-14.413 E21.42726
G1 X-36.91 Y-14.874 E21.45774
G1 X-36.818 Y-15.084 E21.47204
G1 X-36.577 Y-15.533 E21.50381
G1 X-36.27 Y-15.94 E21.53561
G1 X-35.769 Y-16.396 E21.57785
G1 X-35.48 Y-16.609 E21.60024
G1 X-35.048 Y-16.878 E21.63198
G1 X-34.575 Y-17.078 E21.66401
G1 X-32.517 Y-17.761 E21.79923
G1 X-27.249 Y-19.735 E22.15007
G1 X-26.759 Y-19.876 E22.18186
G1 X-26.108 Y-19.942 E22.22267
G1 X-14.127 Y-19.942 E22.96984
G1 X-13.788 Y-19.924 E22.99101
G1 X-6.952 Y-19.208 E23.41965
G1 X-1.497 Y-18.975 E23.76015
G1 F6600 E20.76015
G0 F4950 X-14.607 Y-2.489
;TYPE:WALL-INNER
G1 F6600 E23.76015
G1 F1800 X-14.449 Y-2.018 E23.79113
G1 X-14.231 Y-1.571 E23.82215
G1 X-14.012 Y-1.221 E23.8479
G1 X-13.785 Y-.919 E23.87146
G1 X-13.533 Y-.634 E23.89518
G1 X-13.258 Y-.369 E23.919
G1 X-12.711 Y0.064 E23.9625
G1 X-12.114 Y0.445 E24.00667
G1 X-11.591 Y0.726 E24.0437
G1 X-11.046 Y0.98 E24.08119
G1 X-10.473 Y1.215 E24.11982
G1 X-9.873 Y1.427 E24.1595
G1 X-9.247 Y1.62 E24.20035
G1 X-8.598 Y1.797 E24.2423
G1 X-7.924 Y1.956 E24.28549
G1 X-7.255 Y2.098 E24.32814
G1 X-6.491 Y2.236 E24.37656
G1 X-6.396 Y2.251 E24.38256
G1 X-5.705 Y2.358 E24.42616
G1 X-4.898 Y2.464 E24.47692
G1 X-4.069 Y2.553 E24.52892
G1 X-2.357 Y2.68 E24.63597
G1 X-.665 Y2.738 E24.74155
G1 X1.091 Y2.731 E24.85106
G1 X2.769 Y2.658 E24.95581
G1 X4.445 Y2.518 E25.06069
G1 X5.249 Y2.422 E25.11119
G1 X6.046 Y2.309 E25.16139
G1 X6.399 Y2.251 E25.1837
G1 X6.813 Y2.182 E25.20987
G1 X7.557 Y2.038 E25.25713
G1 X8.278 Y1.877 E25.3032
G1 X8.975 Y1.698 E25.34808
G1 X9.645 Y1.5 E25.39165
G1 X10.289 Y1.282 E25.43405
G1 X10.902 Y1.04 E25.47515
G1 X11.496 Y0.772 E25.51579
G1 X12.063 Y0.476 E25.55568
G1 X12.622 Y0.128 E25.59674
G1 X13.144 Y-.274 E25.63783
G1 X13.649 Y-.768 E25.68188
G1 X14.003 Y-1.213 E25.71734
G1 X14.314 Y-1.724 E25.75465
G1 X14.55 Y-2.291 E25.79295
G1 X14.65 Y-2.637 E25.81541
G1 X14.671 Y-2.75 E25.82258
G1 X25.312 Y-2.75 E26.48618
G1 X25.451 Y-2.123 E26.52623
G1 X25.701 Y-1.471 E26.56978
G1 X26.045 Y-.862 E26.6134
G1 X26.475 Y-.311 E26.65698
G1 X26.98 Y0.171 E26.70052
G1 X27.551 Y0.574 E26.7441
G1 X28.175 Y0.887 E26.78764
G1 X28.837 Y1.106 E26.83113
G1 X29.525 Y1.227 E26.87469
G1 X30.222 Y1.246 E26.91817
G1 X30.915 Y1.163 E26.9617
G1 X31.588 Y0.977 E27.00524
G1 X32.227 Y0.698 E27.04872
G1 X32.636 Y0.44 E27.07888
G1 X32.818 Y0.326 E27.09227
G1 X33.049 Y0.128 E27.11125
G1 X33.024 Y0.349
G1 X33 Y0.562 E27.11919
G1 X32.972 Y0.775 E27.13014
G1 X32.893 Y1.359 E27.16689
G1 X32.773 Y2.095 E27.21339
G1 X32.304 Y2.307 E27.24549
G1 X31.746 Y2.5 E27.28231
G1 X31.174 Y2.637 E27.31899
G1 X30.587 Y2.721 E27.35597
G1 X29.985 Y2.75 E27.39356
G1 X6.404 Y2.75 E28.86413
G1 X6.046 Y2.75 E28.88515
G1 X5.249 Y2.75 E28.92334
G1 X4.445 Y2.75 E28.95139
G1 X2.769 Y2.75 E28.98521
G1 X1.091 Y2.75 E28.99683
G1 X-.665 Y2.75 E29.00023
G1 X-2.357 Y2.75 E29.00888
G1 X-4.069 Y2.75 E29.03734
G1 X-4.898 Y2.75 E29.06228
G1 X-5.705 Y2.75 E29.09637
G1 X-6.404 Y2.75 E29.13527
G1 X-29.986 Y2.75 E30.6059
G1 X-30.596 Y2.719 E30.64399
G1 X-31.177 Y2.636 E30.68059
G1 X-31.751 Y2.499 E30.7174
G1 X-32.308 Y2.306 E30.75416
G1 X-32.774 Y2.095 E30.78606
G1 X-32.893 Y1.36 E30.83249
G1 X-32.972 Y0.774 E30.86937
G1 X-33 Y0.562 E30.8827
G1 X-33.022 Y0.357 E30.89556
G1 X-33.048 Y0.13 E30.90981
G1 X-32.808 Y0.333
G1 X-32.627 Y0.446 E30.92068
G1 X-32.216 Y0.703 E30.95091
G1 X-31.577 Y0.981 E30.99437
G1 X-30.903 Y1.164 E31.03792
G1 X-30.21 Y1.246 E31.08144
G1 X-29.513 Y1.226 E31.12493
G1 X-28.825 Y1.104 E31.1685
G1 X-28.165 Y0.881 E31.21195
G1 X-27.542 Y0.567 E31.25546
G1 X-26.971 Y0.162 E31.29911
G1 X-26.468 Y-.321 E31.3426
G1 X-26.04 Y-.872 E31.38611
G1 X-25.698 Y-1.48 E31.42961
G1 X-25.449 Y-2.133 E31.4732
G1 X-25.312 Y-2.75 E31.51261
G1 X-14.661 Y-2.75 E32.17684
G1 X-14.607 Y-2.489 E32.19346
G0 F4950 X-14.123 Y-2.619
;TYPE:WALL-OUTER
G1 F1800 X-13.985 Y-2.208 E32.2205
G1 X-13.793 Y-1.814 E32.24783
G1 X-13.599 Y-1.504 E32.27064
G1 X-13.397 Y-1.235 E32.29162
G1 X-13.172 Y-.98 E32.31282
G1 X-12.929 Y-.746 E32.33386
G1 X-12.421 Y-.344 E32.37426
G1 X-11.861 Y0.013 E32.41568
G1 X-11.367 Y0.279 E32.45067
G1 X-10.845 Y0.522 E32.48657
G1 X-10.295 Y0.748 E32.52366
G1 X-9.716 Y0.952 E32.56194
G1 X-9.108 Y1.14 E32.60163
G1 X-8.475 Y1.312 E32.64253
G1 X-7.815 Y1.468 E32.68483
G1 X-7.159 Y1.607 E32.72665
G1 X-6.408 Y1.743 E32.77424
G1 X-5.634 Y1.863 E32.82309
G1 X-4.839 Y1.967 E32.87309
G1 X-4.024 Y2.055 E32.92421
G1 X-2.33 Y2.181 E33.03014
G1 X-.657 Y2.238 E33.13454
G1 X1.079 Y2.231 E33.2428
G1 X2.737 Y2.159 E33.3463
G1 X4.395 Y2.02 E33.45006
G1 X5.184 Y1.926 E33.49961
G1 X5.97 Y1.815 E33.54911
G1 X6.724 Y1.69 E33.59677
G1 X7.455 Y1.548 E33.64321
G1 X8.161 Y1.391 E33.68832
G1 X8.842 Y1.216 E33.73217
G1 X9.494 Y1.023 E33.77457
G1 X10.117 Y0.812 E33.81559
G1 X10.707 Y0.579 E33.85515
G1 X11.277 Y0.322 E33.89414
G1 X11.815 Y0.041 E33.93199
G1 X12.337 Y-.283 E33.97031
G1 X12.815 Y-.652 E34.00797
G1 X13.277 Y-1.104 E34.04827
G1 X13.592 Y-1.5 E34.07983
G1 X13.867 Y-1.952 E34.11283
G1 X14.078 Y-2.457 E34.14696
G1 X14.163 Y-2.752 E34.1661
G1 X14.22 Y-3.058 E34.18551
G1 X14.233 Y-3.25 E34.19751
G1 X25.768 Y-3.25 E34.91687
G1 X25.796 Y-2.876 E34.94026
G1 X25.931 Y-2.268 E34.9791
G1 X26.155 Y-1.685 E35.01805
G1 X26.462 Y-1.14 E35.05706
G1 X26.847 Y-.648 E35.09602
G1 X27.299 Y-.216 E35.13501
G1 X27.809 Y0.144 E35.17394
G1 X28.367 Y0.424 E35.21287
G1 X28.959 Y0.62 E35.25176
G1 X29.575 Y0.728 E35.29076
G1 X30.199 Y0.745 E35.32969
G1 X30.818 Y0.671 E35.36857
G1 X31.421 Y0.505 E35.40757
G1 X31.992 Y0.255 E35.44645
G1 X32.521 Y-0.078 E35.48543
G1 X32.97 Y-.462 E35.52227
G1 X33.052 Y-.524 E35.52868
G1 X33.067 Y-.536 E35.52988
G1 X33.142 Y-.567 E35.53494
G1 X33.228 Y-.581 E35.54038
G1 X33.304 Y-.574 E35.54514
G1 X33.317 Y-.573 E35.54595
G1 X33.389 Y-.549 E35.55068
G1 X33.46 Y-.504 E35.55592
G1 X33.521 Y-.439 E35.56148
G1 X33.53 Y-.422 E35.56268
G1 X33.56 Y-.369 E35.56648
G1 X33.584 Y-.281 E35.57217
G1 X33.587 Y-.183 E35.57828
G1 X33.586 Y-.171 E35.57903
G1 X33.497 Y0.618 E35.62855
G1 X33.386 Y1.439 E35.68022
G1 X33.256 Y2.246 E35.73119
G1 X33.226 Y2.342 E35.73746
G1 X33.188 Y2.409 E35.74227
G1 X33.136 Y2.464 E35.74699
G1 X33.059 Y2.515 E35.75275
G1 X32.49 Y2.772 E35.79168
G1 X31.89 Y2.979 E35.83127
G1 X31.266 Y3.129 E35.87129
G1 X30.64 Y3.219 E35.91073
G1 X29.988 Y3.25 E35.95144
G1 X-29.991 Y3.25 E39.69189
G1 X-30.649 Y3.217 E39.73298
G1 X-31.269 Y3.128 E39.77204
G1 X-31.895 Y2.978 E39.81218
G1 X-32.489 Y2.773 E39.85137
G1 X-33.066 Y2.511 E39.89089
G1 X-33.134 Y2.466 E39.89597
G1 X-33.188 Y2.409 E39.90087
G1 X-33.23 Y2.333 E39.90629
G1 X-33.256 Y2.248 E39.91183
G1 X-33.386 Y1.439 E39.96293
G1 X-33.497 Y0.618 E40.01459
G1 X-33.586 Y-.178 E40.06454
G1 X-33.587 Y-.186 E40.06505
G1 X-33.585 Y-.28 E40.07091
G1 X-33.561 Y-.368 E40.0766
G1 X-33.529 Y-.424 E40.08062
G1 X-33.522 Y-.438 E40.0816
G1 X-33.461 Y-.503 E40.08716
G1 X-33.391 Y-.547 E40.09231
G1 X-33.304 Y-.576 E40.09803
G1 X-33.295 Y-.576 E40.09859
G1 X-33.223 Y-.582 E40.1031
G1 X-33.14 Y-.567 E40.10836
G1 X-33.059 Y-.532 E40.11386
G1 X-33.047 Y-.522 E40.11483
G1 X-32.513 Y-0.072 E40.15838
G1 X-31.983 Y0.259 E40.19735
G1 X-31.411 Y0.508 E40.23626
G1 X-30.808 Y0.672 E40.27523
G1 X-30.188 Y0.745 E40.31416
G1 X-29.564 Y0.727 E40.35309
G1 X-28.949 Y0.618 E40.39204
G1 X-28.358 Y0.419 E40.43093
G1 X-27.801 Y0.138 E40.46984
G1 X-27.291 Y-.224 E40.50884
G1 X-26.841 Y-.656 E40.54774
G1 X-26.458 Y-1.149 E40.58667
G1 X-26.152 Y-1.693 E40.6256
G1 X-25.929 Y-2.277 E40.66458
G1 X-25.795 Y-2.883 E40.70329
G1 X-25.768 Y-3.25 E40.72624
G1 X-14.227 Y-3.25 E41.44597
G1 X-14.212 Y-3.051 E41.45841
G1 X-14.123 Y-2.619 E41.48592
G0 F4950 X-14.044 Y-2.382
G0 X-14.598 Y-1.87
;TYPE:SKIN
G1 F1800 X-15.277 Y-2.549 E41.5458
G0 F4950 X-15.984 Y-2.549
G1 F1800 X-10.885 Y2.549 E41.99546
G1 X-10.797 Y2.637
G0 F4950 X-11.592 Y2.549
G1 F1800 X-16.691 Y-2.549 E42.44512
G1 X-16.779 Y-2.637
G0 F4950 X-17.399 Y-2.549
G1 F1800 X-12.299 Y2.549 E42.89482
G1 X-12.211 Y2.637
G0 F4950 X-13.006 Y2.549
G1 F1800 X-18.106 Y-2.549 E43.34452
G1 X-18.194 Y-2.637
G0 F4950 X-18.813 Y-2.549
G1 F1800 X-13.713 Y2.549 E43.79423
G1 X-13.625 Y2.637
G0 F4950 X-14.42 Y2.549
G1 F1800 X-19.52 Y-2.549 E44.24393
G1 X-19.608 Y-2.637
G0 F4950 X-20.227 Y-2.549
G1 F1800 X-15.127 Y2.549 E44.69363
G1 X-15.039 Y2.637
G0 F4950 X-15.834 Y2.549
G1 F1800 X-20.934 Y-2.549 E45.14333
G1 X-21.022 Y-2.637
G0 F4950 X-21.641 Y-2.549
G1 F1800 X-16.542 Y2.549 E45.59299
G1 X-16.454 Y2.637
G0 F4950 X-17.249 Y2.549
G1 F1800 X-22.348 Y-2.549 E46.04265
G1 X-22.436 Y-2.637
G0 F4950 X-23.055 Y-2.549
G1 F1800 X-17.956 Y2.549 E46.49231
G1 X-17.868 Y2.637
G0 F4950 X-18.663 Y2.549
G1 F1800 X-23.763 Y-2.549 E46.94201
G1 X-23.851 Y-2.637
G0 F4950 X-24.47 Y-2.549
G1 F1800 X-19.37 Y2.549 E47.39171
G1 X-19.282 Y2.637
G0 F4950 X-20.077 Y2.549
G1 F1800 X-25.156 Y-2.529 E47.83961
G1 X-25.244 Y-2.617
G0 F4950 X-25.298 Y-1.964
G1 F1800 X-20.784 Y2.549 E48.23767
G1 X-20.696 Y2.637
G0 F4950 X-21.491 Y2.549
G1 F1800 X-25.494 Y-1.452 E48.59063
G1 X-25.582 Y-1.54
G0 F4950 X-25.742 Y-.993
G1 F1800 X-22.198 Y2.549 E48.9031
G1 X-22.11 Y2.637
G0 F4950 X-22.906 Y2.549
G1 F1800 X-26.022 Y-.567 E49.17791
G1 X-26.11 Y-.655
G0 F4950 X-26.334 Y-.171
G1 F1800 X-23.613 Y2.549 E49.41784
G1 X-23.525 Y2.637
G0 F4950 X-24.32 Y2.549
G1 F1800 X-26.694 Y0.175 E49.62722
G1 X-26.782 Y0.087
G0 F4950 X-27.087 Y0.49
G1 F1800 X-25.027 Y2.549 E49.80885
G1 X-24.939 Y2.637
G0 F4950 X-25.734 Y2.549
G1 F1800 X-27.509 Y0.774 E49.9654
G1 X-27.597 Y0.686
G0 F4950 X-27.979 Y1.011
G1 F1800 X-26.441 Y2.549 E50.10104
G1 X-26.353 Y2.637
G0 F4950 X-27.148 Y2.549
G1 F1800 X-28.494 Y1.204 E50.21971
G1 X-28.582 Y1.116
G0 F4950 X-29.057 Y1.348
G1 F1800 X-27.855 Y2.549 E50.32567
G1 X-27.767 Y2.637
G0 F4950 X-28.562 Y2.549
G1 F1800 X-29.682 Y1.43 E50.4244
G1 X-29.77 Y1.342
G0 F4950 X-30.394 Y1.425
G1 F1800 X-29.269 Y2.549 E50.52358
G1 X-29.181 Y2.637
G0 F4950 X-29.977 Y2.549
G1 F1800 X-31.249 Y1.277 E50.63576
G1 X-31.337 Y1.189
G0 F4950 X-31.615 Y2.325
G1 F1800 X-32.707 Y1.233 E50.73207
G1 X-32.795 Y1.145
G0 F4950 X-32.427 Y0.806
G1 F1800 X-30.737 Y2.496 E50.88112
G1 X-30.649 Y2.584
G1 F6600 E47.88112
G0 F4950 X-11.988 Y0.739
G1 F6600 E50.88112
G1 F1800 X-10.178 Y2.549 E51.04075
G1 X-10.09 Y2.637
G0 F4950 X-9.47 Y2.549
G1 F1800 X-10.67 Y1.349 E51.14658
G1 X-10.758 Y1.261
G0 F4950 X-9.591 Y1.722
G1 F1800 X-8.763 Y2.549 E51.21956
G1 X-8.675 Y2.637
G0 F4950 X-8.331 Y2.274
G1 F1800 X-7.519 Y2.379 E51.25868
G1 X-6.726 Y2.465 E51.28096
G1 F6600 E48.28096
G0 F4950 X6.722 Y2.48
G1 F6600 E51.28096
G1 F1800 X7.374 Y2.424 E51.29802
G1 X8.021 Y2.364 E51.32525
G1 X8.663 Y2.299 E51.36348
G1 X9.297 Y2.226 E51.41387
G0 F4950 X10.328 Y2.549
G1 F1800 X9.522 Y1.744 E51.48491
G1 X9.434 Y1.656
G0 F4950 X10.057 Y1.571
G1 F1800 X11.035 Y2.549 E51.57116
G1 X11.123 Y2.637
G0 F4950 X11.742 Y2.549
G1 F1800 X10.576 Y1.383 E51.67399
G1 X10.488 Y1.295
G0 F4950 X11.078 Y1.178
G1 F1800 X12.449 Y2.549 E51.79491
G1 X12.537 Y2.637
G0 F4950 X13.156 Y2.549
G1 F1800 X11.566 Y0.959 E51.93514
G1 X11.478 Y0.871
G0 F4950 X12.032 Y0.718
G1 F1800 X13.863 Y2.549 E52.09662
G1 X13.951 Y2.637
G0 F4950 X14.57 Y2.549
G1 F1800 X12.476 Y0.455 E52.2813
G1 X12.388 Y0.367
G0 F4950 X12.896 Y0.168
G1 F1800 X15.277 Y2.549 E52.49129
G1 X15.365 Y2.637
G0 F4950 X15.984 Y2.549
G1 F1800 X13.293 Y-.141 E52.72858
G1 X13.205 Y-.229
G0 F4950 X13.651 Y-.49
G1 F1800 X16.691 Y2.549 E52.99664
G1 X16.779 Y2.637
G0 F4950 X17.399 Y2.549
G1 F1800 X13.982 Y-.866 E53.29792
G1 X13.894 Y-.954
G0 F4950 X14.275 Y-1.28
G1 F1800 X18.106 Y2.549 E53.6357
G1 X18.194 Y2.637
G0 F4950 X18.813 Y2.549
G1 F1800 X14.531 Y-1.731 E54.01326
G1 X14.443 Y-1.819
G0 F4950 X14.739 Y-2.23
G1 F1800 X19.52 Y2.549 E54.43483
G1 X19.608 Y2.637
G0 F4950 X20.227 Y2.549
G1 F1800 X15.127 Y-2.549 E54.88453
G1 X15.039 Y-2.637
G0 F4950 X15.834 Y-2.549
G1 F1800 X20.934 Y2.549 E55.33423
G1 X21.022 Y2.637
G0 F4950 X21.641 Y2.549
G1 F1800 X16.542 Y-2.549 E55.78389
G1 X16.454 Y-2.637
G0 F4950 X17.249 Y-2.549
