;FLAVOR:Repetier
;TIME:1683
;Generated with Cura_SteamEngine 2.5.0
M190 S50
M104 S185
M109 S185
G28 ;Home
G1 Z15.0 F6000 ;Move the platform down 15mm
;Prime the extruder
G92 E0
G1 F200 E3
G92 E0
;LAYER_COUNT:79
;LAYER:0
M107
G0 F5400 X9.909 Y14.359 Z0.3
;TYPE:SKIRT
G1 F1800 X-31.736 Y8.857 E2.61966
G1 X-32.307 Y8.742 E2.65599
G1 X-32.693 Y8.615 E2.68133
G1 X-33.852 Y8.173 E2.75869
G1 X-34.381 Y7.929 E2.79502
G1 X-34.774 Y7.685 E2.82386
G1 X-35.765 Y6.992 E2.89928
G1 X-36.218 Y6.626 E2.9356
G1 X-36.506 Y6.332 E2.96126
G1 X-37.023 Y5.75 E3.00981
G1 X-37.38 Y5.288 E3.04622
G1 X-37.669 Y4.783 E3.08251
G1 X-37.887 Y4.242 E3.11888
G1 X-38.029 Y3.677 E3.15521
G1 X-38.093 Y3.098 E3.19154
G1 X-38.08 Y2.563 E3.22491
G1 X-37.493 Y-4.272 E3.65273
G1 X-37.404 Y-4.847 E3.68902
G1 X-37.236 Y-5.406 E3.72542
G1 X-36.994 Y-5.936 E3.76175
G1 X-36.682 Y-6.428 E3.79809
G1 X-36.332 Y-6.844 E3.83199
G1 X-36.054 Y-7.135 E3.85709
G1 X-35.624 Y-7.528 E3.89342
G1 X-35.196 Y-7.826 E3.92594
G1 X-34.392 Y-8.317 E3.98469
G1 X-33.828 Y-8.606 E4.02421
G1 X-33.349 Y-8.808 E4.05663
G1 X-32.521 Y-9.062 E4.11064
G1 X-30.697 Y-9.422 E4.22659
G1 X-30.385 Y-9.471 E4.24628
G1 X9.945 Y-14.36 E6.77978
G1 X10.436 Y-14.391 E6.81046
G1 X12.153 Y-14.399 E6.91754
G1 X12.735 Y-14.362 E6.95391
G1 X13.275 Y-14.254 E6.98825
G1 X32.549 Y-9.079 E8.23281
G1 X33.033 Y-8.917 E8.26463
G1 X33.836 Y-8.594 E8.31861
G1 X34.526 Y-8.24 E8.36697
G1 X35.332 Y-7.729 E8.42649
G1 X35.801 Y-7.384 E8.4628
G1 X36.219 Y-6.978 E8.49914
G1 X36.595 Y-6.493 E8.53741
G1 X36.831 Y-6.138 E8.56399
G1 X37.12 Y-5.632 E8.60033
G1 X37.336 Y-5.091 E8.63666
G1 X37.477 Y-4.525 E8.67304
G1 X37.529 Y-4.122 E8.69838
G1 X38.068 Y2.652 E9.12216
G1 X38.074 Y3.235 E9.15852
G1 X38 Y3.813 E9.19486
G1 X37.849 Y4.375 E9.23115
G1 X37.621 Y4.912 E9.26753
G1 X37.322 Y5.412 E9.30386
G1 X36.779 Y6.051 E9.35616
G1 X35.972 Y6.828 E9.42602
G1 X35.525 Y7.202 E9.46237
G1 X35.176 Y7.431 E9.4884
G1 X34.149 Y8.034 E9.56267
G1 X33.627 Y8.294 E9.59904
G1 X33.187 Y8.449 E9.62813
G1 X13.375 Y14.23 E10.91518
G1 X12.806 Y14.354 E10.9515
G1 X12.175 Y14.4 E10.99096
G1 X10.456 Y14.396 E11.09816
G1 X9.909 Y14.359 E11.13235
G0 F5400 X9.975 Y13.864
G1 F1800 X-31.67 Y8.362 E13.75201
G1 X-32.206 Y8.251 E13.78615
G1 X-32.515 Y8.148 E13.80646
G1 X-33.674 Y7.706 E13.88382
G1 X-34.17 Y7.474 E13.91796
G1 X-34.487 Y7.275 E13.94131
G1 X-35.478 Y6.582 E14.01672
G1 X-35.902 Y6.237 E14.05081
G1 X-36.133 Y5.999 E14.07149
G1 X-36.65 Y5.417 E14.12004
G1 X-36.982 Y4.983 E14.15412
G1 X-37.248 Y4.504 E14.18829
G1 X-37.442 Y3.992 E14.22243
G1 X-37.558 Y3.458 E14.25651
G1 X-37.596 Y2.911 E14.2907
G1 X-37.582 Y2.606 E14.30974
G1 X-36.995 Y-4.229 E14.73756
G1 X-36.909 Y-4.769 E14.77166
G1 X-36.744 Y-5.291 E14.8058
G1 X-36.506 Y-5.784 E14.83994
G1 X-36.198 Y-6.237 E14.87411
G1 X-35.971 Y-6.498 E14.89568
G1 X-35.693 Y-6.789 E14.92077
G1 X-35.287 Y-7.157 E14.95495
G1 X-34.935 Y-7.399 E14.98159
G1 X-34.131 Y-7.89 E15.04034
G1 X-33.634 Y-8.145 E15.07517
G1 X-33.155 Y-8.347 E15.10759
G1 X-32.424 Y-8.571 E15.15527
G1 X-30.6 Y-8.931 E15.27121
G1 X-30.325 Y-8.975 E15.28858
G1 X10.005 Y-13.864 E17.82209
G1 X10.439 Y-13.891 E17.8492
G1 X12.156 Y-13.899 E17.95628
G1 X12.702 Y-13.862 E17.99041
G1 X13.145 Y-13.771 E18.01861
G1 X32.419 Y-8.596 E19.26316
G1 X32.846 Y-8.453 E19.29125
G1 X33.649 Y-8.13 E19.34522
G1 X34.258 Y-7.818 E19.3879
G1 X35.064 Y-7.307 E19.44741
G1 X35.504 Y-6.981 E19.48156
G1 X35.891 Y-6.595 E19.51565
G1 X36.179 Y-6.216 E19.54533
G1 X36.415 Y-5.861 E19.57192
G1 X36.684 Y-5.384 E19.60607
G1 X36.881 Y-4.874 E19.64016
G1 X37.03 Y-4.082 E19.69042
G1 X37.569 Y2.692 E20.1142
G1 X37.573 Y3.239 E20.14832
G1 X37.496 Y3.781 E20.18246
G1 X37.342 Y4.306 E20.21658
G1 X37.113 Y4.803 E20.2507
G1 X36.814 Y5.262 E20.28486
G1 X36.432 Y5.69 E20.32064
G1 X35.625 Y6.467 E20.3905
G1 X35.204 Y6.817 E20.42465
G1 X34.923 Y7 E20.44556
G1 X33.896 Y7.603 E20.51983
G1 X33.405 Y7.845 E20.55397
G1 X33.047 Y7.969 E20.57759
G1 X13.235 Y13.75 E21.86465
G1 X12.7 Y13.864 E21.89876
G1 X12.176 Y13.9 E21.93152
G1 X10.457 Y13.896 E22.03872
G1 X9.975 Y13.864 E22.06884
G0 F5400 X10.04 Y13.368
G1 F1800 X-31.605 Y7.866 E24.68851
G1 X-32.337 Y7.681 E24.73559
G1 X-33.496 Y7.239 E24.81295
G1 X-33.956 Y7.02 E24.84472
G1 X-34.2 Y6.865 E24.86275
G1 X-35.191 Y6.172 E24.93816
G1 X-35.759 Y5.667 E24.98556
G1 X-36.276 Y5.085 E25.03411
G1 X-36.583 Y4.679 E25.06585
G1 X-36.823 Y4.23 E25.0976
G1 X-36.99 Y3.748 E25.12941
G1 X-37.08 Y3.247 E25.16116
G1 X-37.084 Y2.649 E25.19845
G1 X-36.497 Y-4.186 E25.62627
G1 X-36.414 Y-4.689 E25.65806
G1 X-36.253 Y-5.172 E25.68981
G1 X-36.019 Y-5.625 E25.72161
G1 X-35.609 Y-6.153 E25.7633
G1 X-35.331 Y-6.444 E25.78839
G1 X-34.951 Y-6.784 E25.82019
G1 X-34.675 Y-6.973 E25.84105
G1 X-33.871 Y-7.464 E25.8998
G1 X-33.44 Y-7.685 E25.93001
G1 X-32.961 Y-7.887 E25.96243
G1 X-32.327 Y-8.08 E26.00376
G1 X-30.503 Y-8.44 E26.1197
G1 X-30.265 Y-8.478 E26.13473
G1 X10.065 Y-13.367 E28.66824
G1 X10.441 Y-13.391 E28.69173
G1 X12.158 Y-13.399 E28.79881
G1 X12.666 Y-13.361 E28.83058
G1 X13.016 Y-13.288 E28.85288
G1 X32.29 Y-8.113 E30.09743
G1 X32.66 Y-7.989 E30.12176
G1 X33.463 Y-7.666 E30.17574
G1 X33.99 Y-7.396 E30.21267
G1 X34.796 Y-6.885 E30.27218
G1 X35.204 Y-6.579 E30.30399
G1 X35.559 Y-6.213 E30.33578
G1 X35.763 Y-5.939 E30.35709
G1 X35.999 Y-5.584 E30.38367
G1 X36.246 Y-5.139 E30.41541
G1 X36.422 Y-4.661 E30.44718
G1 X36.532 Y-4.043 E30.48632
G1 X37.071 Y2.731 E30.9101
G1 X37.071 Y3.241 E30.94191
G1 X36.992 Y3.744 E30.97366
G1 X36.835 Y4.229 E31.00545
G1 X36.605 Y4.683 E31.03719
G1 X36.306 Y5.096 E31.06899
G1 X36.085 Y5.33 E31.08906
G1 X35.278 Y6.107 E31.15892
G1 X34.885 Y6.431 E31.19069
G1 X34.67 Y6.569 E31.20662
G1 X33.643 Y7.172 E31.28089
G1 X33.184 Y7.394 E31.31269
G1 X32.907 Y7.489 E31.33095
G1 X13.095 Y13.27 E32.618
G1 X12.597 Y13.374 E32.64973
G1 X12.177 Y13.4 E32.67597
G1 X10.458 Y13.396 E32.78318
G1 X10.04 Y13.368 E32.8093
G0 F5400 X10.553 Y9.409
;TYPE:WALL-INNER
G1 F1800 X-27.659 Y4.394 E35.21274
G1 X-27.76 Y4.381 E35.21909
G1 X-28.359 Y4.302 E35.25677
G1 X-28.46 Y4.288 E35.26313
G1 X-28.353 Y4.257
G1 X-27.704 Y3.96 E35.28954
G1 X-27.619 Y3.905 E35.2954
G1 X-27.107 Y3.569 E35.33359
G1 X-26.575 Y3.094 E35.37807
G1 X-26.119 Y2.542 E35.42272
G1 X-25.754 Y1.929 E35.46721
G1 X-25.483 Y1.27 E35.51165
G1 X-25.313 Y0.577 E35.55615
G1 X-25.25 Y-.132 E35.60054
G1 X-25.292 Y-.845 E35.64508
G1 X-25.442 Y-1.543 E35.6896
G1 X-25.695 Y-2.211 E35.73415
G1 X-26.044 Y-2.832 E35.77857
G1 X-26.483 Y-3.395 E35.8231
G1 X-27.002 Y-3.887 E35.86769
G1 X-27.566 Y-4.276 E35.91042
G1 X-27.589 Y-4.292 E35.91217
G1 X-28.228 Y-4.608 E35.95663
G1 X-28.43 Y-4.672 E35.96984
G1 X-28.239 Y-4.695
G1 X-27.647 Y-4.767 E35.99283
G1 X-27.619 Y-4.77 E35.99455
G1 X-5.346 Y-7.476 E37.39377
G1 X-5.3 Y-7.481 E37.39666
G1 X-4.604 Y-7.565 E37.44038
G1 X10.571 Y-9.409 E38.39369
G1 X12.1 Y-9.409 E38.48905
G1 X28.28 Y-5.062 E39.53386
G1 X28.357 Y-5.042 E39.53882
G1 X28.94 Y-4.885 E39.57647
G1 X29.067 Y-4.851 E39.58467
G1 X28.925 Y-4.829
G1 X28.244 Y-4.616 E39.60931
G1 X28.173 Y-4.581 E39.61397
G1 X27.602 Y-4.302 E39.65361
G1 X27.015 Y-3.897 E39.69808
G1 X26.494 Y-3.409 E39.7426
G1 X26.054 Y-2.847 E39.78711
G1 X25.701 Y-2.227 E39.8316
G1 X25.446 Y-1.559 E39.87619
G1 X25.295 Y-.862 E39.92067
G1 X25.248 Y-.15 E39.96517
G1 X25.309 Y0.56 E40.00961
G1 X25.476 Y1.254 E40.05412
G1 X25.744 Y1.916 E40.09866
G1 X26.11 Y2.529 E40.14319
G1 X26.562 Y3.081 E40.18768
G1 X27.093 Y3.559 E40.23223
G1 X27.688 Y3.952 E40.2767
G1 X28.258 Y4.216 E40.31588
G1 X28.337 Y4.252 E40.32129
G1 X29.023 Y4.45 E40.36582
G1 X29.157 Y4.468 E40.37425
G1 X29.039 Y4.502
G1 X28.459 Y4.67 E40.39463
G1 X28.376 Y4.694 E40.39969
G1 X12.09 Y9.409 E41.45703
G1 X10.553 Y9.409 E41.55288
G0 F5400 X5.25 Y3.43
G1 F1800 X5.25 Y-7.069 E42.20763
G1 X-4.548 Y-7.069 E42.81866
G1 X-5.25 Y-7.069 E42.85873
G1 X-5.25 Y-7.022 E42.86166
G1 X-5.25 Y3.43 E43.51348
G1 X5.25 Y3.43 E44.16828
G0 F5400 X16.107 Y0.427
G1 F1800 X16.287 Y0.944 E44.20242
G1 X16.579 Y1.411 E44.23677
G1 X16.969 Y1.799 E44.27108
G1 X17.435 Y2.093 E44.30544
G1 X17.953 Y2.272 E44.33962
G1 X18.5 Y2.335 E44.37396
G1 X19.046 Y2.272 E44.40823
G1 X19.564 Y2.093 E44.44241
G1 X20.03 Y1.799 E44.47677
G1 X20.42 Y1.411 E44.51108
G1 X20.712 Y0.944 E44.54543
G1 X20.892 Y0.427 E44.57957
G1 X20.955 Y-.119 E44.61384
G1 X20.892 Y-.665 E44.64812
G1 X20.712 Y-1.184 E44.68238
G1 X20.419 Y-1.65 E44.71671
G1 X20.03 Y-2.038 E44.75097
G1 X19.564 Y-2.331 E44.7853
G1 X19.046 Y-2.513 E44.81954
G1 X18.5 Y-2.574 E44.8538
G1 X17.953 Y-2.513 E44.88812
G1 X17.435 Y-2.331 E44.92236
G1 X16.969 Y-2.038 E44.95669
G1 X16.58 Y-1.65 E44.99095
G1 X16.287 Y-1.184 E45.02528
G1 X16.107 Y-.665 E45.05954
G1 X16.044 Y-.119 E45.09382
G1 X16.107 Y0.427 E45.12809
G0 F5400 X-16.044 Y-.119
G1 F1800 X-16.107 Y-.665 E45.16237
G1 X-16.287 Y-1.184 E45.19663
G1 X-16.58 Y-1.65 E45.23095
G1 X-16.969 Y-2.038 E45.26522
G1 X-17.435 Y-2.331 E45.29955
G1 X-17.953 Y-2.513 E45.33379
G1 X-18.5 Y-2.574 E45.36811
G1 X-19.046 Y-2.513 E45.40237
G1 X-19.564 Y-2.331 E45.43661
G1 X-20.03 Y-2.038 E45.47094
G1 X-20.419 Y-1.65 E45.5052
G1 X-20.712 Y-1.184 E45.53953
G1 X-20.892 Y-.665 E45.57379
G1 X-20.955 Y-.119 E45.60806
G1 X-20.892 Y0.427 E45.64234
G1 X-20.712 Y0.944 E45.67648
G1 X-20.42 Y1.411 E45.71083
G1 X-20.03 Y1.799 E45.74514
G1 X-19.564 Y2.093 E45.7795
G1 X-19.046 Y2.272 E45.81368
G1 X-18.5 Y2.335 E45.84795
G1 X-17.953 Y2.272 E45.88229
G1 X-17.435 Y2.093 E45.91647
G1 X-16.969 Y1.799 E45.95083
G1 X-16.579 Y1.411 E45.98514
G1 X-16.287 Y0.944 E46.01948
G1 X-16.107 Y0.427 E46.05362
G1 X-16.044 Y-.119 E46.0879
G0 F5400 X-16.547 Y-.119
;TYPE:WALL-OUTER
G1 F1800 X-16.597 Y-.553 E46.11514
G1 X-16.741 Y-.966 E46.14242
G1 X-16.973 Y-1.336 E46.16966
G1 X-17.283 Y-1.645 E46.19695
G1 X-17.653 Y-1.878 E46.22422
G1 X-18.065 Y-2.022 E46.25144
G1 X-18.5 Y-2.071 E46.27874
G1 X-18.934 Y-2.022 E46.30598
G1 X-19.346 Y-1.878 E46.33319
G1 X-19.716 Y-1.645 E46.36046
G1 X-20.026 Y-1.336 E46.38776
G1 X-20.258 Y-.966 E46.41499
G1 X-20.402 Y-.553 E46.44227
G1 X-20.452 Y-.119 E46.46951
G1 X-20.402 Y0.314 E46.4967
G1 X-20.258 Y0.726 E46.52391
G1 X-20.026 Y1.097 E46.5512
G1 X-19.716 Y1.406 E46.5785
G1 X-19.346 Y1.639 E46.60577
G1 X-18.934 Y1.782 E46.63296
G1 X-18.5 Y1.832 E46.66021
G1 X-18.065 Y1.782 E46.68751
G1 X-17.653 Y1.639 E46.71471
G1 X-17.283 Y1.406 E46.74198
G1 X-16.973 Y1.097 E46.76927
G1 X-16.741 Y0.726 E46.79656
G1 X-16.597 Y0.314 E46.82378
G1 X-16.547 Y-.119 E46.85096
G0 F5400 X-16.575 Y-.367
G0 X-25.751 Y-.14
G1 F1800 X-25.789 Y-.777 E46.89076
G1 X-25.923 Y-1.401 E46.93056
G1 X-26.149 Y-1.999 E46.97043
G1 X-26.461 Y-2.554 E47.01013
G1 X-26.854 Y-3.058 E47.04999
G1 X-27.318 Y-3.497 E47.08982
G1 X-27.843 Y-3.86 E47.12963
G1 X-28.415 Y-4.143 E47.16943
G1 X-29.024 Y-4.335 E47.20925
G1 X-29.655 Y-4.434 E47.24908
G1 X-30.294 Y-4.438 E47.28893
G1 X-30.885 Y-4.35 E47.3262
G1 X-30.953 Y-4.34 E47.33048
G1 X-31.562 Y-4.151 E47.37025
G1 X-32.137 Y-3.872 E47.4101
G1 X-32.685 Y-3.505 E47.45123
G1 X-32.705 Y-3.491 E47.45276
G1 X-32.771 Y-3.471 E47.45706
G1 X-32.835 Y-3.468 E47.46105
G1 X-32.898 Y-3.484 E47.46511
G1 X-32.951 Y-3.513 E47.46887
G1 X-32.999 Y-3.559 E47.47302
G1 X-33.035 Y-3.617 E47.47728
G1 X-33.053 Y-3.677 E47.48118
G1 X-33.055 Y-3.745 E47.48543
G1 X-33.041 Y-3.802 E47.48909
G1 X-33.009 Y-3.861 E47.49327
G1 X-32.958 Y-3.914 E47.49777
G1 X-32.533 Y-4.218 E47.53035
G1 X-32.378 Y-4.304 E47.54141
G1 X-32.083 Y-4.468 E47.56246
G1 X-31.753 Y-4.606 E47.58476
G1 X-31.591 Y-4.674 E47.59572
G1 X-31.086 Y-4.823 E47.62855
G1 X-31.041 Y-4.831 E47.6314
G1 X-30.973 Y-4.843 E47.6357
G1 X-30.564 Y-4.916 E47.66161
G1 X10.544 Y-9.909 E50.24406
G1 X12.167 Y-9.909 E50.34528
G1 X31.22 Y-4.79 E51.57561
G1 X31.647 Y-4.65 E51.60364
G1 X31.695 Y-4.635 E51.60677
G1 X31.736 Y-4.617 E51.60956
G1 X32.144 Y-4.437 E51.63737
G1 X32.356 Y-4.317 E51.65257
G1 X32.567 Y-4.196 E51.66773
G1 X32.956 Y-3.916 E51.69762
G1 X33.009 Y-3.86 E51.70243
G1 X33.04 Y-3.803 E51.70648
G1 X33.055 Y-3.744 E51.71028
G1 X33.054 Y-3.677 E51.71445
G1 X33.036 Y-3.618 E51.7183
G1 X33 Y-3.56 E51.72256
G1 X32.952 Y-3.514 E51.7267
G1 X32.899 Y-3.485 E51.73047
G1 X32.834 Y-3.469 E51.73465
G1 X32.771 Y-3.47 E51.73858
G1 X32.711 Y-3.488 E51.74248
G1 X32.684 Y-3.506 E51.7444
G1 X32.112 Y-3.887 E51.78726
G1 X31.536 Y-4.162 E51.82706
G1 X31.488 Y-4.176 E51.83017
G1 X30.939 Y-4.344 E51.86598
G1 X30.308 Y-4.439 E51.90577
G1 X29.67 Y-4.437 E51.94556
G1 X29.038 Y-4.34 E51.98543
G1 X28.429 Y-4.15 E52.02522
G1 X27.855 Y-3.869 E52.06507
G1 X27.33 Y-3.507 E52.10484
G1 X26.864 Y-3.07 E52.14468
G1 X26.47 Y-2.568 E52.18448
G1 X26.155 Y-2.013 E52.22428
G1 X25.927 Y-1.416 E52.26413
G1 X25.791 Y-.792 E52.30396
G1 X25.749 Y-.155 E52.34377
G1 X25.804 Y0.48 E52.38352
G1 X25.953 Y1.101 E52.42334
G1 X26.193 Y1.693 E52.46318
G1 X26.52 Y2.241 E52.50298
G1 X26.925 Y2.735 E52.54282
G1 X27.4 Y3.162 E52.58265
G1 X27.932 Y3.514 E52.62243
G1 X28.512 Y3.782 E52.66227
G1 X29.126 Y3.959 E52.70212
G1 X29.758 Y4.043 E52.74188
G1 X30.396 Y4.032 E52.78168
G1 X31.025 Y3.924 E52.82148
G1 X31.398 Y3.801 E52.84597
G1 X31.632 Y3.725 E52.86131
G1 X32.202 Y3.435 E52.9012
G1 X32.721 Y3.065 E52.94095
G1 X33.231 Y2.579 E52.98488
G1 X33.287 Y2.552 E52.98876
G1 X33.347 Y2.54 E52.99257
G1 X33.418 Y2.544 E52.99701
G1 X33.464 Y2.557 E52.99999
G1 X33.516 Y2.588 E53.00376
G1 X33.562 Y2.634 E53.00782
G1 X33.595 Y2.688 E53.01177
G1 X33.611 Y2.745 E53.01546
G1 X33.608 Y2.881 E53.02394
G1 X33.584 Y2.907 E53.02593
G1 X33.265 Y3.248 E53.05505
G1 X33.037 Y3.44 E53.07364
G1 X32.837 Y3.609 E53.08997
G1 X32.472 Y3.847 E53.11714
G1 X32.363 Y3.919 E53.12529
G1 X31.858 Y4.17 E53.16046
G1 X31.798 Y4.191 E53.16442
G1 X31.567 Y4.273 E53.17962
G1 X31.305 Y4.366 E53.19696
G1 X12.16 Y9.909 E54.43993
G1 X10.518 Y9.909 E54.54233
G1 X-30.617 Y4.509 E57.12963
G1 X-30.996 Y4.434 E57.15372
G1 X-31.136 Y4.407 E57.16261
G1 X-31.192 Y4.396 E57.16617
G1 X-31.764 Y4.209 E57.2037
G1 X-31.857 Y4.165 E57.21012
G1 X-32.296 Y3.956 E57.24044
G1 X-32.477 Y3.841 E57.25381
G1 X-32.795 Y3.639 E57.27731
G1 X-33.044 Y3.433 E57.29746
G1 X-33.253 Y3.26 E57.31438
G1 X-33.582 Y2.909 E57.34438
G1 X-33.608 Y2.882 E57.34672
G1 X-33.613 Y2.819 E57.35066
G1 X-33.608 Y2.735 E57.35591
G1 X-33.591 Y2.682 E57.35938
G1 X-33.559 Y2.632 E57.36308
G1 X-33.508 Y2.583 E57.36749
G1 X-33.467 Y2.559 E57.37046
G1 X-33.404 Y2.541 E57.37454
G1 X-33.343 Y2.539 E57.37835
G1 X-33.282 Y2.553 E57.38225
G1 X-33.23 Y2.579 E57.38571
G1 X-32.732 Y3.055 E57.42868
G1 X-32.215 Y3.426 E57.46836
G1 X-31.646 Y3.717 E57.50822
G1 X-31.04 Y3.919 E57.54805
G1 X-30.9 Y3.943 E57.55688
G1 X-30.411 Y4.029 E57.58785
G1 X-29.773 Y4.042 E57.62764
G1 X-29.141 Y3.963 E57.66736
G1 X-28.527 Y3.787 E57.7072
G1 X-27.946 Y3.521 E57.74705
G1 X-27.412 Y3.171 E57.78686
G1 X-26.936 Y2.746 E57.82666
G1 X-26.529 Y2.253 E57.86653
G1 X-26.202 Y1.705 E57.90632
G1 X-25.96 Y1.115 E57.94609
G1 X-25.808 Y0.495 E57.9859
G1 X-25.751 Y-.14 E58.02566
G0 F5400 X-25.765 Y-.389
G0 X-4.75 Y2.93
G1 F1800 X4.75 Y2.93 E58.61811
G1 X4.75 Y-6.569 E59.21049
G1 X-4.75 Y-6.569 E59.80294
G1 X-4.75 Y2.93 E60.39532
G0 F5400 X-4.5 Y2.93
G0 X16.597 Y0.314
G1 F1800 X16.741 Y0.726 E60.42254
G1 X16.973 Y1.097 E60.44983
G1 X17.283 Y1.406 E60.47712
G1 X17.653 Y1.639 E60.50439
G1 X18.065 Y1.782 E60.53159
G1 X18.5 Y1.832 E60.5589
G1 X18.934 Y1.782 E60.58614
G1 X19.346 Y1.639 E60.61334
G1 X19.716 Y1.406 E60.64061
G1 X20.026 Y1.097 E60.6679
G1 X20.258 Y0.726 E60.69519
G1 X20.402 Y0.314 E60.72241
G1 X20.452 Y-.119 E60.74959
G1 X20.402 Y-.553 E60.77683
G1 X20.258 Y-.966 E60.80411
G1 X20.026 Y-1.336 E60.83135
G1 X19.716 Y-1.645 E60.85864
G1 X19.346 Y-1.878 E60.88591
G1 X18.934 Y-2.022 E60.91313
G1 X18.5 Y-2.071 E60.94036
G1 X18.065 Y-2.022 E60.96766
G1 X17.653 Y-1.878 E60.99488
G1 X17.283 Y-1.645 E61.02215
G1 X16.973 Y-1.336 E61.04945
G1 X16.741 Y-.966 E61.07668
G1 X16.597 Y-.553 E61.10396
G1 X16.547 Y-.119 E61.1312
G1 X16.597 Y0.314 E61.15838
G0 F5400 X16.679 Y0.55
G0 X15.866 Y0.31
;TYPE:SKIN
G1 F1800 X6.828 Y-8.727 E61.95544
G1 X6.74 Y-8.815
G0 F5400 X6.198 Y-8.65
G1 F1800 X21.344 Y6.494 E63.29114
G1 X21.432 Y6.582
