;-- START GCODE --
;Sliced for Type A Machines Series 1
;Sliced at: Tue 13-06-2017 21:59:46
;Basic settings:
;	Layer height: 0.15
;	Walls: 0.8
;	Fill: 10
;	Print Speed: 20
;	Support: 0
;	Retraction Speed: 30
;	Retraction Distance: 1.8
;Print time: 48 minutes
;Filament used: 1.009m 3.0g
;Settings based on: FennerDrives NinjaFlex
G21        ;metric values
G90        ;absolute positioning
G28     ;move to endstops
G29		;allows for auto-levelling
G1 Z15.0 F12000 ;move the platform down 15mm
G1 X150 Y5 F12000 ;center
M109 S240 ;Heat To temp
G1 X150 Y5 Z0.3 ;move the platform to purge extrusion
G92 E0 ;zero the extruded length
G1 F200 X250 E30 ;extrude 30mm of feed stock
G92 E0 ;zero the extruded length again
G1 X150 Y150  Z25 F12000 ;recenter and begin
G1 F12000

;Layer count: 166
;LAYER:0
M107
G1 F1800 E-1.80000
G1 Z0.100
G0 F12000 X140.105 Y150.424 Z0.200
;TYPE:WALL-INNER
G1 Z0.200
G1 F1800 E0.00000
G1 F1200 X140.556 Y150.054 E0.01940
G1 X141.051 Y149.732 E0.03904
G1 X141.874 Y149.317 E0.06970
G1 X142.388 Y149.102 E0.08823
G1 X142.968 Y148.891 E0.10876
G1 X143.543 Y148.707 E0.12884
G1 X144.166 Y148.534 E0.15034
G1 X144.818 Y148.376 E0.17266
G1 X145.516 Y148.229 E0.19638
G1 X146.214 Y148.102 E0.21998
G1 X146.950 Y147.987 E0.24475
G1 X147.602 Y147.900 E0.26663
G1 X148.253 Y147.825 E0.28843
G1 X148.912 Y147.761 E0.31045
G1 X149.576 Y147.710 E0.33260
G1 X150.267 Y147.668 E0.35562
G1 X150.940 Y147.638 E0.37803
G1 X152.331 Y147.610 E0.42430
G1 X152.361 Y147.609 E0.42530
G1 X153.716 Y147.625 E0.47037
G1 X155.076 Y147.685 E0.51565
G1 X155.783 Y147.736 E0.53923
G1 X156.443 Y147.793 E0.56126
G1 X157.111 Y147.864 E0.58360
G1 X157.756 Y147.945 E0.60523
G1 X158.555 Y148.064 E0.63209
G1 X159.337 Y148.201 E0.65850
G1 X160.088 Y148.355 E0.68400
G1 X160.824 Y148.531 E0.70917
G1 X161.503 Y148.721 E0.73262
G1 X162.161 Y148.934 E0.75562
G1 X162.754 Y149.158 E0.77670
G1 X163.324 Y149.409 E0.79742
G1 X164.185 Y149.877 E0.83001
G1 X164.684 Y150.236 E0.85046
G1 X165.139 Y150.673 E0.87144
G1 X165.451 Y151.079 E0.88847
G1 X165.650 Y151.441 E0.90221
G1 X165.808 Y151.869 E0.91739
G1 X165.855 Y152.066 E0.92412
G1 X165.887 Y152.289 E0.93162
G1 X165.897 Y152.496 E0.93851
G1 X165.876 Y152.822 E0.94937
G1 X165.775 Y153.263 E0.96442
G1 X165.612 Y153.655 E0.97854
G1 X165.398 Y154.007 E0.99224
G1 X164.952 Y154.528 E1.01505
G1 X164.566 Y154.863 E1.03205
G1 X164.120 Y155.171 E1.05008
G1 X163.406 Y155.562 E1.07716
G1 X162.879 Y155.799 E1.09637
G1 X162.354 Y156.005 E1.11513
G1 X161.747 Y156.213 E1.13647
G1 X161.139 Y156.394 E1.15757
G1 X160.474 Y156.565 E1.18041
G1 X159.810 Y156.714 E1.20304
G1 X159.098 Y156.852 E1.22717
G1 X158.348 Y156.977 E1.25245
G1 X157.586 Y157.086 E1.27806
G1 X156.793 Y157.179 E1.30461
G1 X156.005 Y157.255 E1.33094
G1 X155.185 Y157.315 E1.35829
G1 X154.361 Y157.358 E1.38573
G1 X153.517 Y157.386 E1.41382
G1 X152.669 Y157.397 E1.44203
G1 X152.655 Y157.398 E1.44249
G1 X151.855 Y157.394 E1.46910
G1 X151.007 Y157.373 E1.49732
G1 X150.189 Y157.337 E1.52455
G1 X149.355 Y157.282 E1.55235
G1 X148.558 Y157.214 E1.57895
G1 X147.751 Y157.127 E1.60595
G1 X146.982 Y157.027 E1.63174
G1 X146.222 Y156.909 E1.65732
G1 X145.512 Y156.780 E1.68132
G1 X144.866 Y156.643 E1.70329
G1 X144.216 Y156.488 E1.72551
G1 X143.622 Y156.328 E1.74597
G1 X143.052 Y156.151 E1.76582
G1 X142.498 Y155.955 E1.78537
G1 X141.983 Y155.745 E1.80387
G1 X141.498 Y155.517 E1.82169
G1 X141.066 Y155.283 E1.83803
G1 X140.570 Y154.967 E1.85759
G1 X140.146 Y154.631 E1.87559
G1 X139.752 Y154.219 E1.89455
G1 X139.599 Y154.015 E1.90303
G1 X139.350 Y153.583 E1.91961
G1 X139.201 Y153.178 E1.93397
G1 X139.119 Y152.752 E1.94840
G1 X139.104 Y152.549 E1.95517
G1 X139.107 Y152.344 E1.96199
G1 X139.180 Y151.884 E1.97748
G1 X139.321 Y151.486 E1.99152
G1 X139.521 Y151.115 E2.00554
G1 X139.769 Y150.778 E2.01946
G1 X140.105 Y150.424 E2.03569
G0 F12000 X140.608 Y151.047
G1 F1200 X140.401 Y151.267 E2.04574
G1 X140.230 Y151.489 E2.05506
G1 X140.092 Y151.722 E2.06406
G1 X139.987 Y151.969 E2.07299
G1 X139.919 Y152.234 E2.08209
G1 X139.897 Y152.504 E2.09110
G1 X139.919 Y152.777 E2.10021
G1 X139.987 Y153.041 E2.10928
G1 X140.092 Y153.289 E2.11823
G1 X140.241 Y153.539 E2.12791
G1 X140.587 Y153.943 E2.14560
G1 X140.828 Y154.157 E2.15632
G1 X141.327 Y154.506 E2.17658
G1 X142.277 Y154.998 E2.21216
G1 X143.016 Y155.288 E2.23856
G1 X143.833 Y155.551 E2.26711
G1 X145.221 Y155.902 E2.31473
G1 X146.217 Y156.095 E2.34847
G1 X146.741 Y156.182 E2.36614
G1 X147.283 Y156.261 E2.38436
G1 X147.797 Y156.328 E2.40160
G1 X148.389 Y156.396 E2.42142
G1 X148.963 Y156.451 E2.44060
G1 X150.119 Y156.535 E2.47915
G1 X151.291 Y156.587 E2.51817
G1 X152.463 Y156.603 E2.55715
G1 X152.505 Y156.604 E2.55855
G1 X153.675 Y156.589 E2.59746
G1 X154.859 Y156.537 E2.63688
G1 X156.006 Y156.454 E2.67513
G1 X156.598 Y156.398 E2.69491
G1 X157.159 Y156.335 E2.71369
G1 X157.713 Y156.261 E2.73228
G1 X158.236 Y156.186 E2.74985
G1 X158.764 Y156.098 E2.76765
G1 X159.275 Y156.005 E2.78493
G1 X159.776 Y155.902 E2.80194
G1 X160.708 Y155.679 E2.83381
G1 X161.571 Y155.427 E2.86371
G1 X162.346 Y155.151 E2.89108
G1 X162.722 Y154.997 E2.90459
G1 X163.369 Y154.682 E2.92853
G1 X163.931 Y154.336 E2.95048
G1 X164.389 Y153.962 E2.97014
G1 X164.596 Y153.744 E2.98014
G1 X164.764 Y153.523 E2.98937
G1 X164.904 Y153.290 E2.99842
G1 X165.011 Y153.038 E3.00752
G1 X165.077 Y152.776 E3.01651
G1 X165.100 Y152.503 E3.02562
G1 X165.076 Y152.233 E3.03464
G1 X165.011 Y151.971 E3.04361
G1 X164.904 Y151.719 E3.05272
G1 X164.764 Y151.484 E3.06182
G1 X164.594 Y151.264 E3.07107
G1 X164.390 Y151.048 E3.08095
G1 X163.933 Y150.677 E3.10053
G1 X163.375 Y150.332 E3.12235
G1 X162.719 Y150.012 E3.14662
G1 X161.981 Y149.722 E3.17299
G1 X161.159 Y149.458 E3.20171
G1 X160.254 Y149.218 E3.23285
G1 X159.285 Y149.008 E3.26583
G1 X158.774 Y148.913 E3.28311
G1 X158.255 Y148.828 E3.30061
G1 X157.713 Y148.748 E3.31883
G1 X157.178 Y148.679 E3.33677
G1 X156.614 Y148.615 E3.35565
G1 X156.037 Y148.559 E3.37493
G1 X154.878 Y148.475 E3.41358
G1 X153.707 Y148.423 E3.45257
G1 X152.535 Y148.406 E3.49155
G1 X152.493 Y148.405 E3.49295
G1 X151.322 Y148.421 E3.53190
G1 X150.138 Y148.473 E3.57132
G1 X148.990 Y148.556 E3.60960
G1 X148.401 Y148.612 E3.62928
G1 X147.839 Y148.675 E3.64809
G1 X147.283 Y148.748 E3.66674
G1 X146.761 Y148.824 E3.68428
G1 X146.233 Y148.911 E3.70208
G1 X145.716 Y149.006 E3.71957
G1 X144.752 Y149.214 E3.75237
G1 X143.846 Y149.454 E3.78354
G1 X143.025 Y149.718 E3.81222
G1 X142.286 Y150.008 E3.83863
G1 X141.628 Y150.329 E3.86298
G1 X141.067 Y150.674 E3.88488
G1 X140.608 Y151.047 E3.90455
G0 F12000 X140.706 Y151.526
;TYPE:WALL-OUTER
G1 F1200 X140.562 Y151.713 E3.91240
G1 X140.450 Y151.903 E3.91974
G1 X140.367 Y152.098 E3.92679
G1 X140.315 Y152.301 E3.93376
G1 X140.298 Y152.504 E3.94053
G1 X140.315 Y152.710 E3.94741
G1 X140.367 Y152.912 E3.95435
G1 X140.450 Y153.108 E3.96143
G1 X140.567 Y153.305 E3.96905
G1 X140.873 Y153.662 E3.98469
G1 X141.077 Y153.842 E3.99373
G1 X141.542 Y154.169 E4.01264
G1 X141.822 Y154.331 E4.02340
G1 X142.438 Y154.631 E4.04619
G1 X143.151 Y154.911 E4.07167
G1 X143.948 Y155.168 E4.09952
G1 X145.306 Y155.511 E4.14611
G1 X146.288 Y155.701 E4.17937
G1 X146.803 Y155.787 E4.19674
G1 X147.338 Y155.865 E4.21472
G1 X147.860 Y155.932 E4.23223
G1 X148.430 Y155.998 E4.25131
G1 X148.996 Y156.052 E4.27022
G1 X150.142 Y156.136 E4.30844
G1 X151.302 Y156.187 E4.34706
G1 X152.478 Y156.203 E4.38618
G1 X152.510 Y156.204 E4.38724
G1 X153.664 Y156.189 E4.42563
G1 X154.836 Y156.138 E4.46464
G1 X155.973 Y156.055 E4.50256
G1 X156.557 Y156.000 E4.52207
G1 X157.110 Y155.938 E4.54058
G1 X157.658 Y155.865 E4.55897
G1 X158.175 Y155.791 E4.57634
G1 X158.695 Y155.704 E4.59387
G1 X159.199 Y155.612 E4.61091
G1 X159.689 Y155.511 E4.62755
G1 X160.605 Y155.292 E4.65888
G1 X161.448 Y155.046 E4.68809
G1 X162.203 Y154.778 E4.71473
G1 X163.176 Y154.331 E4.75035
G1 X163.698 Y154.009 E4.77075
G1 X164.116 Y153.668 E4.78869
G1 X164.291 Y153.484 E4.79713
G1 X164.433 Y153.298 E4.80492
G1 X164.547 Y153.109 E4.81226
G1 X164.630 Y152.911 E4.81940
G1 X164.681 Y152.709 E4.82633
G1 X164.699 Y152.503 E4.83321
G1 X164.681 Y152.300 E4.83998
G1 X164.630 Y152.098 E4.84691
G1 X164.547 Y151.900 E4.85405
G1 X164.433 Y151.710 E4.86142
G1 X164.289 Y151.524 E4.86925
G1 X164.117 Y151.342 E4.87758
G1 X163.701 Y151.004 E4.89540
G1 X163.182 Y150.683 E4.91570
G1 X162.558 Y150.379 E4.93879
G1 X161.846 Y150.099 E4.96423
G1 X161.046 Y149.842 E4.99218
G1 X160.160 Y149.607 E5.02267
G1 X159.206 Y149.400 E5.05514
G1 X158.705 Y149.307 E5.07208
G1 X158.194 Y149.223 E5.08931
G1 X157.658 Y149.144 E5.10733
G1 X157.130 Y149.076 E5.12504
G1 X156.572 Y149.013 E5.14371
G1 X156.003 Y148.958 E5.16273
G1 X154.855 Y148.874 E5.20101
G1 X153.695 Y148.823 E5.23963
G1 X152.520 Y148.806 E5.27871
G1 X152.488 Y148.805 E5.27978
G1 X151.333 Y148.821 E5.31820
G1 X150.161 Y148.872 E5.35722
G1 X149.023 Y148.955 E5.39517
G1 X148.442 Y149.010 E5.41458
G1 X147.887 Y149.072 E5.43315
G1 X147.338 Y149.144 E5.45157
G1 X146.822 Y149.219 E5.46891
G1 X146.302 Y149.305 E5.48644
G1 X145.795 Y149.398 E5.50358
G1 X144.845 Y149.603 E5.53591
G1 X143.959 Y149.838 E5.56640
G1 X143.160 Y150.095 E5.59431
G1 X142.447 Y150.375 E5.61979
G1 X141.821 Y150.680 E5.64295
G1 X141.299 Y151.001 E5.66333
G1 X140.881 Y151.340 E5.68123
G1 X140.706 Y151.526 E5.68973
G1 F1800 E3.88973
G1 Z0.300
G0 F12000 X139.463 Y150.521
G1 Z0.200
G1 F1800 E5.68973
G1 F1200 X139.834 Y150.129 E5.70768
G1 X140.317 Y149.732 E5.72847
G1 X140.845 Y149.389 E5.74941
G1 X141.713 Y148.951 E5.78175
G1 X142.245 Y148.728 E5.80094
G1 X142.831 Y148.515 E5.82168
G1 X143.427 Y148.324 E5.84249
G1 X144.071 Y148.146 E5.86471
G1 X144.731 Y147.985 E5.88731
G1 X145.428 Y147.839 E5.91099
G1 X146.152 Y147.707 E5.93547
G1 X146.894 Y147.591 E5.96045
G1 X147.546 Y147.503 E5.98233
G1 X148.207 Y147.428 E6.00446
G1 X148.877 Y147.363 E6.02685
G1 X149.552 Y147.310 E6.04937
G1 X150.243 Y147.269 E6.07239
G1 X150.937 Y147.238 E6.09550
G1 X152.321 Y147.210 E6.14154
G1 X152.355 Y147.209 E6.14267
G1 X153.714 Y147.225 E6.18787
G1 X155.104 Y147.287 E6.23415
G1 X155.811 Y147.337 E6.25772
G1 X156.483 Y147.395 E6.28016
G1 X157.153 Y147.466 E6.30257
G1 X157.802 Y147.548 E6.32432
G1 X158.629 Y147.671 E6.35213
G1 X159.418 Y147.809 E6.37877
G1 X160.181 Y147.966 E6.40468
G1 X160.921 Y148.143 E6.42999
G1 X161.621 Y148.339 E6.45417
G1 X162.278 Y148.551 E6.47713
G1 X162.908 Y148.789 E6.49953
G1 X163.491 Y149.046 E6.52072
G1 X163.806 Y149.201 E6.53240
G1 X164.405 Y149.542 E6.55532
G1 X164.943 Y149.930 E6.57738
G1 X165.436 Y150.403 E6.60011
G1 X165.787 Y150.860 E6.61927
G1 X166.015 Y151.274 E6.63499
G1 X166.191 Y151.750 E6.65187
G1 X166.284 Y152.244 E6.66859
G1 X166.297 Y152.507 E6.67735
G1 X166.291 Y152.696 E6.68364
G1 X166.271 Y152.886 E6.68999
G1 X166.158 Y153.381 E6.70688
G1 X165.968 Y153.838 E6.72334
G1 X165.722 Y154.244 E6.73913
G1 X165.237 Y154.810 E6.76392
G1 X164.812 Y155.179 E6.78264
G1 X164.334 Y155.509 E6.80196
G1 X163.570 Y155.927 E6.83093
G1 X163.045 Y156.163 E6.85007
G1 X162.483 Y156.384 E6.87016
G1 X161.880 Y156.590 E6.89135
G1 X161.245 Y156.779 E6.91339
G1 X160.574 Y156.952 E6.93643
G1 X159.880 Y157.108 E6.96009
G1 X159.164 Y157.247 E6.98435
G1 X158.419 Y157.371 E7.00947
G1 X157.639 Y157.482 E7.03567
G1 X156.840 Y157.576 E7.06243
G1 X156.041 Y157.653 E7.08913
G1 X155.206 Y157.715 E7.11698
G1 X154.370 Y157.758 E7.14482
G1 X153.530 Y157.786 E7.17277
G1 X152.682 Y157.797 E7.20098
G1 X152.659 Y157.798 E7.20175
G1 X151.845 Y157.794 E7.22882
G1 X151.001 Y157.773 E7.25690
G1 X150.163 Y157.735 E7.28480
G1 X149.329 Y157.681 E7.31260
G1 X148.515 Y157.612 E7.33977
G1 X147.708 Y157.525 E7.36677
G1 X146.928 Y157.424 E7.39293
G1 X146.161 Y157.304 E7.41875
G1 X145.429 Y157.171 E7.44349
G1 X144.770 Y157.031 E7.46590
G1 X144.123 Y156.877 E7.48802
G1 X143.508 Y156.711 E7.50921
G1 X142.923 Y156.529 E7.52958
G1 X142.354 Y156.328 E7.54966
G1 X141.832 Y156.116 E7.56839
G1 X141.323 Y155.877 E7.58710
G1 X140.862 Y155.626 E7.60456
G1 X140.341 Y155.295 E7.62509
G1 X139.871 Y154.922 E7.64504
G1 X139.448 Y154.480 E7.66539
G1 X139.264 Y154.236 E7.67556
G1 X138.988 Y153.755 E7.69400
G1 X138.817 Y153.291 E7.71045
G1 X138.762 Y153.061 E7.71831
G1 X138.721 Y152.796 E7.72723
G1 X138.704 Y152.562 E7.73503
G1 X138.708 Y152.311 E7.74338
G1 X138.789 Y151.794 E7.76079
G1 X138.955 Y151.322 E7.77743
G1 X139.183 Y150.900 E7.79338
G1 X139.463 Y150.521 E7.80906
G0 F12000 X139.600 Y151.264
;TYPE:SKIN
G1 F1200 X139.600 Y153.737 E7.89131
G0 F12000 X140.000 Y153.409
G1 F1200 X140.000 Y154.275 E7.92011
G0 F12000 X140.400 Y153.939
G1 F1200 X140.600 Y154.800 E7.94385
G1 X141.000 Y154.449 E7.96505
G1 X141.400 Y155.303 E7.98520
G1 X141.800 Y154.909 E8.00532
G1 X142.200 Y155.680 E8.02475
G1 X142.600 Y155.275 E8.04354
G1 X143.000 Y155.981 E8.06210
G1 X143.400 Y155.558 E8.08059
G1 X143.800 Y156.229 E8.09890
G1 X144.200 Y155.788 E8.11707
G1 X144.600 Y156.435 E8.13529
G1 X145.000 Y155.990 E8.15335
G1 X145.400 Y156.611 E8.17092
G1 X145.800 Y156.157 E8.18868
G1 X146.200 Y156.760 E8.20631
G1 X146.600 Y156.300 E8.22379
G1 X147.000 Y156.885 E8.24118
G1 X147.400 Y156.416 E8.25865
G1 X147.800 Y156.989 E8.27603
G1 X148.200 Y156.515 E8.29330
G1 X148.600 Y157.075 E8.31053
G1 X149.000 Y156.592 E8.32774
G1 X149.400 Y157.142 E8.34498
G1 X149.800 Y156.652 E8.36224
G1 X150.200 Y157.194 E8.37937
G1 X150.600 Y156.697 E8.39656
G1 X151.000 Y157.230 E8.41374
G1 X151.400 Y156.728 E8.43082
G1 X151.800 Y157.250 E8.44793
G1 X152.200 Y156.740 E8.46513
G1 X152.600 Y157.256 E8.48217
G1 X153.000 Y156.737 E8.49934
G1 X153.400 Y157.247 E8.51647
G1 X153.800 Y156.721 E8.53362
G1 X154.200 Y157.223 E8.55075
G1 X154.600 Y156.688 E8.56797
G1 X155.000 Y157.185 E8.58516
G1 X155.400 Y156.637 E8.60253
G1 X155.800 Y157.131 E8.61992
G1 X156.200 Y156.575 E8.63729
G1 X156.600 Y157.057 E8.65458
G1 X157.000 Y156.493 E8.67195
G1 X157.400 Y156.967 E8.68922
G1 X157.800 Y156.388 E8.70672
G1 X158.200 Y156.856 E8.72423
G1 X158.600 Y156.264 E8.74175
G1 X159.000 Y156.725 E8.75941
G1 X159.400 Y156.119 E8.77704
G1 X159.600 Y156.613 E8.79477
G1 F1800 E6.99477
G1 Z0.300
G0 F12000 X159.600 Y148.933
G1 Z0.200
G1 F1800 E8.79477
G1 F1200 X159.400 Y148.359 E8.81256
G1 X159.000 Y148.812 E8.83015
G1 X158.600 Y148.216 E8.84757
G1 X158.200 Y148.679 E8.86508
G1 X157.800 Y148.095 E8.88256
G1 X157.400 Y148.567 E8.90010
G1 X157.000 Y147.994 E8.91747
G1 X156.600 Y148.477 E8.93494
G1 X156.200 Y147.914 E8.95240
G1 X155.800 Y148.401 E8.96959
G1 X155.400 Y147.851 E8.98683
G1 X155.000 Y148.344 E9.00420
G1 X154.600 Y147.804 E9.02141
G1 X154.200 Y148.304 E9.03861
G1 X153.800 Y147.771 E9.05579
G1 X153.400 Y148.278 E9.07297
G1 X153.000 Y147.757 E9.09012
G1 X152.600 Y148.268 E9.10723
G1 X152.200 Y147.753 E9.12441
G1 X151.800 Y148.275 E9.14158
G1 X151.400 Y147.768 E9.15866
G1 X151.000 Y148.295 E9.17577
G1 X150.600 Y147.796 E9.19300
G1 X150.200 Y148.332 E9.21013
G1 X149.800 Y147.837 E9.22722
G1 X149.400 Y148.386 E9.24467
G1 X149.000 Y147.895 E9.26205
G1 X148.600 Y148.453 E9.27940
G1 X148.200 Y147.972 E9.29673
G1 X147.800 Y148.541 E9.31413
G1 X147.400 Y148.066 E9.33164
G1 X147.000 Y148.649 E9.34922
G1 X146.600 Y148.183 E9.36668
G1 X146.200 Y148.777 E9.38419
G1 X145.800 Y148.319 E9.40178
G1 X145.400 Y148.932 E9.41949
G1 X145.000 Y148.480 E9.43736
G1 X144.600 Y149.112 E9.45527
G1 X144.200 Y148.672 E9.47332
G1 X143.800 Y149.328 E9.49140
G1 X143.400 Y148.899 E9.50974
G1 X143.000 Y149.586 E9.52811
G1 X142.600 Y149.174 E9.54659
G1 X142.200 Y149.903 E9.56540
G1 X141.800 Y149.513 E9.58458
G1 X141.400 Y150.308 E9.60375
G1 X141.000 Y149.937 E9.62425
G1 X140.600 Y150.537 E9.64584
G1 X140.400 Y151.064 E9.66459
G0 F12000 X140.000 Y150.738
G1 F1200 X140.000 Y151.604 E9.69339
G1 F1800 E7.89339
G1 Z0.300
G0 F12000 X160.000 Y149.020
G1 Z0.200
G1 F1800 E9.69339
G1 F1200 X160.200 Y148.527 E9.71135
G1 X160.600 Y149.165 E9.72920
G1 X161.000 Y148.727 E9.74735
G1 X161.400 Y149.388 E9.76534
G1 X161.800 Y148.965 E9.78363
G1 X162.200 Y149.658 E9.80200
G1 X162.600 Y149.253 E9.82069
G1 X163.000 Y149.992 E9.83942
G1 X163.400 Y149.613 E9.85875
G1 X163.800 Y150.430 E9.87827
G1 X164.200 Y150.071 E9.89878
G1 X164.600 Y150.709 E9.92107
G1 X164.800 Y151.301 E9.94186
G0 F12000 X165.200 Y150.984
G1 F1200 X165.200 Y152.149 E9.98060
G0 F12000 X165.600 Y151.709
G1 F1200 X165.600 Y153.317 E10.03409
G0 F12000 X165.200 Y152.861
G1 F1200 X165.200 Y154.023 E10.07273
G0 F12000 X164.800 Y153.707
G1 F1200 X164.600 Y154.641 E10.09823
G1 X164.200 Y154.295 E10.12066
G1 X163.800 Y155.187 E10.14130
G1 X163.400 Y154.811 E10.16107
G1 X163.000 Y155.591 E10.18046
G1 X162.600 Y155.196 E10.19925
G1 X162.200 Y155.908 E10.21779
G1 X161.800 Y155.492 E10.23631
G1 X161.400 Y156.170 E10.25451
G1 X161.000 Y155.738 E10.27282
G1 X160.600 Y156.387 E10.29076
G1 X160.200 Y155.943 E10.30879
G1 X160.000 Y156.528 E10.32936
;LAYER:1
M106 S12
G0 F12000 X159.808 Y156.713 Z0.350
;TYPE:WALL-INNER
G1 F1200 X159.110 Y156.850 E10.34710
G1 X158.367 Y156.974 E10.36589
G1 X157.596 Y157.085 E10.38532
G1 X156.803 Y157.178 E10.40524
G1 X156.028 Y157.253 E10.42466
G1 X155.190 Y157.314 E10.44562
G1 X154.367 Y157.358 E10.46618
G1 X153.526 Y157.386 E10.48717
G1 X152.687 Y157.397 E10.50810
G1 X152.643 Y157.398 E10.50920
G1 X151.866 Y157.394 E10.52858
G1 X151.018 Y157.373 E10.54974
G1 X150.198 Y157.336 E10.57022
G1 X149.369 Y157.283 E10.59094
G1 X148.566 Y157.215 E10.61104
G1 X147.757 Y157.128 E10.63134
G1 X146.994 Y157.029 E10.65053
G1 X146.225 Y156.909 E10.66995
G1 X145.512 Y156.780 E10.68802
G1 X144.874 Y156.644 E10.70429
G1 X144.233 Y156.493 E10.72072
G1 X143.637 Y156.332 E10.73612
G1 X143.070 Y156.157 E10.75092
G1 X142.500 Y155.956 E10.76600
G1 X142.014 Y155.757 E10.77910
G1 X141.495 Y155.515 E10.79339
G1 X141.066 Y155.282 E10.80556
G1 X140.582 Y154.974 E10.81987
G1 X140.144 Y154.629 E10.83378
G1 X139.752 Y154.219 E10.84793
G1 X139.596 Y154.011 E10.85442
G1 X139.351 Y153.587 E10.86663
G1 X139.205 Y153.187 E10.87726
G1 X139.119 Y152.751 E10.88834
G1 X139.104 Y152.548 E10.89342
G1 X139.107 Y152.344 E10.89851
G1 X139.178 Y151.896 E10.90982
G1 X139.321 Y151.487 E10.92063
G1 X139.418 Y151.291 E10.92609
G1 X139.653 Y150.924 E10.93696
G1 X139.908 Y150.620 E10.94686
G1 X140.321 Y150.235 E10.96094
G1 X140.789 Y149.893 E10.97540
G1 X141.315 Y149.587 E10.99058
G1 X141.856 Y149.325 E11.00557
G1 X142.379 Y149.106 E11.01972
G1 X142.959 Y148.894 E11.03512
G1 X143.530 Y148.711 E11.05008
G1 X144.146 Y148.540 E11.06603
G1 X144.819 Y148.376 E11.08331
G1 X145.490 Y148.235 E11.10041
G1 X146.211 Y148.102 E11.11870
G1 X146.930 Y147.991 E11.13685
G1 X147.602 Y147.900 E11.15376
G1 X148.250 Y147.825 E11.17003
G1 X148.903 Y147.762 E11.18640
G1 X149.570 Y147.710 E11.20309
G1 X150.260 Y147.668 E11.22033
G1 X150.933 Y147.638 E11.23714
G1 X152.299 Y147.610 E11.27122
G1 X152.365 Y147.609 E11.27287
G1 X153.686 Y147.624 E11.30582
G1 X155.047 Y147.683 E11.33980
G1 X155.777 Y147.735 E11.35806
G1 X156.444 Y147.794 E11.37476
G1 X157.108 Y147.864 E11.39142
G1 X157.756 Y147.945 E11.40771
G1 X158.550 Y148.063 E11.42773
G1 X159.327 Y148.199 E11.44741
G1 X160.086 Y148.355 E11.46674
G1 X160.817 Y148.529 E11.48548
G1 X161.486 Y148.715 E11.50280
G1 X162.140 Y148.927 E11.51995
G1 X162.759 Y149.160 E11.53645
G1 X163.313 Y149.404 E11.55155
G1 X163.909 Y149.711 E11.56828
G1 X164.446 Y150.053 E11.58416
G1 X164.928 Y150.452 E11.59977
G1 X165.139 Y150.671 E11.60735
G1 X165.329 Y150.904 E11.61485
G1 X165.560 Y151.261 E11.62546
G1 X165.738 Y151.652 E11.63618
G1 X165.855 Y152.066 E11.64691
G1 X165.887 Y152.289 E11.65253
G1 X165.897 Y152.500 E11.65780
G1 X165.873 Y152.846 E11.66645
G1 X165.778 Y153.256 E11.67695
G1 X165.615 Y153.650 E11.68758
G1 X165.393 Y154.017 E11.69828
G1 X165.141 Y154.331 E11.70833
G1 X164.759 Y154.707 E11.72170
G1 X164.134 Y155.163 E11.74100
G1 X163.404 Y155.562 E11.76175
G1 X162.908 Y155.786 E11.77532
G1 X162.346 Y156.006 E11.79038
G1 X161.768 Y156.206 E11.80564
G1 X161.159 Y156.387 E11.82148
G1 X160.502 Y156.558 E11.83842
G1 X159.808 Y156.713 E11.85616
G0 F12000 X159.786 Y155.900
G1 F1200 X160.707 Y155.679 E11.87978
G1 X161.567 Y155.428 E11.90213
G1 X162.345 Y155.152 E11.92272
G1 X163.040 Y154.851 E11.94162
G1 X163.661 Y154.513 E11.95925
G1 X164.163 Y154.160 E11.97456
G1 X164.594 Y153.746 E11.98947
G1 X164.905 Y153.290 E12.00324
G1 X165.011 Y153.037 E12.01008
G1 X165.077 Y152.774 E12.01685
G1 X165.100 Y152.500 E12.02370
G1 X165.076 Y152.231 E12.03044
G1 X165.009 Y151.966 E12.03726
G1 X164.903 Y151.716 E12.04403
G1 X164.763 Y151.483 E12.05081
G1 X164.591 Y151.261 E12.05782
G1 X164.392 Y151.050 E12.06506
G1 X163.934 Y150.678 E12.07977
G1 X163.379 Y150.335 E12.09605
G1 X162.726 Y150.016 E12.11418
G1 X161.587 Y149.589 E12.14452
G1 X160.729 Y149.338 E12.16682
G1 X159.787 Y149.111 E12.19099
G1 X159.272 Y149.005 E12.20411
G1 X158.767 Y148.912 E12.21692
G1 X158.224 Y148.823 E12.23064
G1 X157.715 Y148.748 E12.24348
G1 X157.197 Y148.681 E12.25651
G1 X156.627 Y148.616 E12.27082
G1 X156.043 Y148.559 E12.28545
G1 X154.883 Y148.475 E12.31447
G1 X153.725 Y148.424 E12.34338
G1 X152.469 Y148.405 E12.37472
G1 X151.341 Y148.421 E12.40286
G1 X150.156 Y148.472 E12.43244
G1 X149.020 Y148.553 E12.46085
G1 X148.409 Y148.611 E12.47616
G1 X147.842 Y148.675 E12.49040
G1 X147.281 Y148.748 E12.50451
G1 X146.774 Y148.822 E12.51729
G1 X146.239 Y148.910 E12.53082
G1 X145.717 Y149.006 E12.54406
G1 X144.758 Y149.213 E12.56853
G1 X143.849 Y149.453 E12.59198
G1 X143.031 Y149.717 E12.61342
G1 X142.293 Y150.005 E12.63318
G1 X141.629 Y150.327 E12.65159
G1 X141.071 Y150.671 E12.66794
G1 X140.612 Y151.043 E12.68268
G1 X140.403 Y151.263 E12.69025
G1 X140.229 Y151.491 E12.69741
G1 X140.091 Y151.724 E12.70416
G1 X139.987 Y151.971 E12.71085
G1 X139.919 Y152.234 E12.71762
G1 X139.897 Y152.507 E12.72445
G1 X139.920 Y152.780 E12.73129
G1 X139.987 Y153.041 E12.73801
G1 X140.093 Y153.291 E12.74478
G1 X140.242 Y153.542 E12.75207
G1 X140.587 Y153.942 E12.76524
G1 X141.080 Y154.345 E12.78113
G1 X141.622 Y154.677 E12.79698
G1 X142.275 Y154.997 E12.81512
G1 X143.011 Y155.286 E12.83485
G1 X143.828 Y155.550 E12.85626
G1 X144.735 Y155.790 E12.87967
G1 X145.705 Y156.001 E12.90443
G1 X146.213 Y156.094 E12.91731
G1 X146.732 Y156.181 E12.93044
G1 X147.281 Y156.261 E12.94428
G1 X147.800 Y156.329 E12.95734
G1 X148.382 Y156.395 E12.97195
G1 X148.960 Y156.451 E12.98643
G1 X150.114 Y156.535 E13.01530
G1 X151.273 Y156.586 E13.04424
G1 X152.458 Y156.603 E13.07380
G1 X152.528 Y156.604 E13.07554
G1 X153.656 Y156.589 E13.10369
G1 X154.841 Y156.538 E13.13327
G1 X155.976 Y156.457 E13.16166
G1 X156.593 Y156.398 E13.17712
G1 X157.155 Y156.335 E13.19123
G1 X157.715 Y156.261 E13.20532
G1 X158.223 Y156.188 E13.21812
G1 X158.758 Y156.099 E13.23165
G1 X159.270 Y156.006 E13.24463
G1 X159.786 Y155.900 E13.25777
G0 F12000 X159.699 Y155.509
;TYPE:WALL-OUTER
G1 F1200 X160.604 Y155.292 E13.28098
G1 X161.444 Y155.047 E13.30281
G1 X162.198 Y154.779 E13.32277
G1 X162.865 Y154.491 E13.34090
G1 X163.450 Y154.172 E13.35752
G1 X163.914 Y153.846 E13.37166
G1 X164.117 Y153.666 E13.37843
G1 X164.290 Y153.485 E13.38468
G1 X164.434 Y153.297 E13.39058
G1 X164.547 Y153.109 E13.39606
G1 X164.630 Y152.910 E13.40143
G1 X164.681 Y152.708 E13.40663
G1 X164.699 Y152.501 E13.41181
G1 X164.681 Y152.298 E13.41690
G1 X164.629 Y152.094 E13.42215
G1 X164.546 Y151.898 E13.42746
G1 X164.432 Y151.709 E13.43296
G1 X164.119 Y151.344 E13.44496
G1 X163.702 Y151.005 E13.45836
G1 X163.186 Y150.686 E13.47350
G1 X162.561 Y150.381 E13.49085
G1 X162.215 Y150.236 E13.50020
G1 X161.464 Y149.970 E13.52008
G1 X160.626 Y149.725 E13.54186
G1 X159.700 Y149.502 E13.56562
G1 X159.195 Y149.398 E13.57848
G1 X158.698 Y149.306 E13.59109
G1 X158.163 Y149.218 E13.60461
G1 X157.660 Y149.144 E13.61729
G1 X157.149 Y149.078 E13.63015
G1 X156.585 Y149.014 E13.64431
G1 X156.009 Y148.958 E13.65874
G1 X154.860 Y148.874 E13.68748
G1 X153.713 Y148.824 E13.71612
G1 X152.469 Y148.805 E13.74716
G1 X151.352 Y148.821 E13.77502
G1 X150.179 Y148.871 E13.80431
G1 X149.053 Y148.952 E13.83247
G1 X148.450 Y149.009 E13.84758
G1 X147.890 Y149.072 E13.86164
G1 X147.336 Y149.144 E13.87557
G1 X146.835 Y149.217 E13.88820
G1 X146.308 Y149.304 E13.90153
G1 X145.796 Y149.398 E13.91451
G1 X144.851 Y149.602 E13.93863
G1 X143.962 Y149.837 E13.96156
G1 X143.165 Y150.094 E13.98245
G1 X142.454 Y150.372 E14.00150
G1 X141.822 Y150.678 E14.01901
G1 X141.303 Y150.998 E14.03422
G1 X140.884 Y151.338 E14.04768
G1 X140.708 Y151.523 E14.05405
G1 X140.561 Y151.715 E14.06008
G1 X140.449 Y151.904 E14.06557
G1 X140.367 Y152.099 E14.07084
G1 X140.315 Y152.301 E14.07605
G1 X140.298 Y152.506 E14.08118
G1 X140.316 Y152.713 E14.08636
G1 X140.367 Y152.913 E14.09151
G1 X140.450 Y153.110 E14.09684
G1 X140.568 Y153.307 E14.10257
G1 X140.872 Y153.661 E14.11421
G1 X141.305 Y154.014 E14.12814
G1 X141.815 Y154.326 E14.14306
G1 X142.436 Y154.630 E14.16031
G1 X143.146 Y154.909 E14.17934
G1 X143.941 Y155.166 E14.20018
G1 X144.829 Y155.401 E14.22309
G1 X145.784 Y155.609 E14.24747
G1 X146.282 Y155.700 E14.26010
G1 X146.794 Y155.786 E14.27305
G1 X147.336 Y155.865 E14.28671
G1 X147.848 Y155.932 E14.29960
G1 X148.424 Y155.997 E14.31405
G1 X148.994 Y156.052 E14.32834
G1 X150.137 Y156.136 E14.35693
G1 X151.284 Y156.186 E14.38557
G1 X152.529 Y156.204 E14.41663
G1 X153.645 Y156.189 E14.44447
G1 X154.818 Y156.139 E14.47376
G1 X155.943 Y156.058 E14.50189
G1 X156.552 Y156.000 E14.51715
G1 X157.107 Y155.938 E14.53108
G1 X157.660 Y155.865 E14.54500
G1 X158.162 Y155.793 E14.55765
G1 X158.689 Y155.705 E14.57098
G1 X159.194 Y155.613 E14.58378
G1 X159.699 Y155.509 E14.59664
G1 F1800 E12.79664
G1 Z0.450
G0 F12000 X159.895 Y157.104
G1 Z0.350
G1 F1800 E14.59664
G1 F1200 X159.181 Y157.244 E14.61479
G1 X158.438 Y157.368 E14.63358
G1 X157.649 Y157.481 E14.65347
G1 X156.850 Y157.575 E14.67353
G1 X156.064 Y157.651 E14.69323
G1 X155.211 Y157.714 E14.71457
G1 X154.376 Y157.758 E14.73543
G1 X153.539 Y157.786 E14.75632
G1 X152.694 Y157.797 E14.77740
G1 X152.650 Y157.798 E14.77850
G1 X151.856 Y157.794 E14.79830
G1 X151.012 Y157.773 E14.81936
G1 X150.173 Y157.735 E14.84031
G1 X149.339 Y157.682 E14.86116
G1 X148.523 Y157.613 E14.88159
G1 X147.714 Y157.526 E14.90188
G1 X146.932 Y157.425 E14.92155
G1 X146.163 Y157.304 E14.94097
G1 X145.429 Y157.171 E14.95958
G1 X144.791 Y157.035 E14.97585
G1 X144.141 Y156.882 E14.99251
G1 X143.525 Y156.716 E15.00842
G1 X142.937 Y156.534 E15.02378
G1 X142.367 Y156.333 E15.03885
G1 X141.835 Y156.116 E15.05319
G1 X141.327 Y155.879 E15.06717
G1 X140.861 Y155.626 E15.08040
G1 X140.352 Y155.302 E15.09545
G1 X139.870 Y154.922 E15.11076
G1 X139.448 Y154.480 E15.12600
G1 X139.262 Y154.233 E15.13372
G1 X138.987 Y153.753 E15.14752
G1 X138.820 Y153.300 E15.15956
G1 X138.721 Y152.795 E15.17240
G1 X138.704 Y152.561 E15.17825
G1 X138.708 Y152.311 E15.18449
G1 X138.788 Y151.800 E15.19739
G1 X138.956 Y151.322 E15.21003
G1 X139.067 Y151.097 E15.21629
G1 X139.326 Y150.693 E15.22826
G1 X139.459 Y150.525 E15.23360
G1 X139.628 Y150.334 E15.23996
G1 X140.063 Y149.928 E15.25481
G1 X140.571 Y149.557 E15.27050
G1 X141.126 Y149.234 E15.28652
G1 X141.699 Y148.958 E15.30238
G1 X142.235 Y148.732 E15.31689
G1 X142.822 Y148.518 E15.33248
G1 X143.415 Y148.328 E15.34801
G1 X144.057 Y148.150 E15.36463
G1 X144.718 Y147.988 E15.38161
G1 X145.417 Y147.842 E15.39942
G1 X146.146 Y147.708 E15.41791
G1 X146.880 Y147.594 E15.43644
G1 X147.544 Y147.504 E15.45315
G1 X148.204 Y147.428 E15.46973
G1 X148.872 Y147.363 E15.48647
G1 X149.546 Y147.310 E15.50333
G1 X150.236 Y147.269 E15.52058
G1 X150.930 Y147.238 E15.53791
G1 X152.291 Y147.210 E15.57186
G1 X152.365 Y147.209 E15.57371
G1 X153.684 Y147.224 E15.60661
G1 X155.075 Y147.285 E15.64135
G1 X155.805 Y147.336 E15.65960
G1 X156.479 Y147.395 E15.67648
G1 X157.150 Y147.466 E15.69331
G1 X157.802 Y147.548 E15.70970
G1 X158.624 Y147.670 E15.73043
G1 X159.408 Y147.807 E15.75028
G1 X160.170 Y147.964 E15.76969
G1 X160.902 Y148.138 E15.78846
G1 X161.610 Y148.335 E15.80679
G1 X162.278 Y148.551 E15.82430
G1 X162.899 Y148.785 E15.84086
G1 X163.480 Y149.041 E15.85670
G1 X164.114 Y149.367 E15.87448
G1 X164.683 Y149.730 E15.89132
G1 X165.198 Y150.157 E15.90800
G1 X165.656 Y150.673 E15.92521
G1 X165.913 Y151.071 E15.93703
G1 X166.114 Y151.512 E15.94912
G1 X166.250 Y152.003 E15.96183
G1 X166.284 Y152.244 E15.96790
G1 X166.298 Y152.506 E15.97445
G1 X166.271 Y152.890 E15.98405
G1 X166.157 Y153.384 E15.99670
G1 X165.967 Y153.841 E16.00904
G1 X165.722 Y154.246 E16.02085
G1 X165.435 Y154.603 E16.03228
G1 X165.027 Y155.004 E16.04655
G1 X164.807 Y155.183 E16.05362
G1 X164.346 Y155.503 E16.06762
G1 X163.582 Y155.921 E16.08934
G1 X163.054 Y156.159 E16.10379
G1 X162.499 Y156.377 E16.11867
G1 X161.895 Y156.585 E16.13460
G1 X161.260 Y156.774 E16.15113
G1 X160.589 Y156.949 E16.16843
G1 X159.895 Y157.104 E16.18616
G0 F12000 X160.545 Y156.400
;TYPE:SKIN
G1 F1200 X157.708 Y156.400 E16.25693
G0 F12000 X158.551 Y156.800
G1 F1200 X146.444 Y156.800 E16.55894
G0 F12000 X147.294 Y156.400
G1 F1200 X144.453 Y156.400 E16.62981
G0 F12000 X145.049 Y156.000
G1 F1200 X143.049 Y156.000 E16.67970
G0 F12000 X143.530 Y155.600
G1 F1200 X142.009 Y155.600 E16.71765
G0 F12000 X142.412 Y155.200
G1 F1200 X141.208 Y155.200 E16.74768
G0 F12000 X141.558 Y154.800
G1 F1200 X140.587 Y154.800 E16.77190
G0 F12000 X140.926 Y154.400
G1 F1200 X140.118 Y154.400 E16.79206
G0 F12000 X140.451 Y154.000
G1 F1200 X139.640 Y153.800 E16.80925
G1 X140.114 Y153.600 E16.82208
G1 F1800 E15.02208
G1 Z0.450
G0 F12000 X140.000 Y151.600
G1 Z0.350
G1 F1800 E16.82208
G1 F1200 X139.366 Y151.800 E16.83630
G1 X139.798 Y152.200 E16.84952
G1 X139.258 Y152.600 E16.86238
G1 X139.841 Y153.000 E16.87508
G1 X139.358 Y153.200 E16.88812
G1 F1800 E15.08812
G1 Z0.450
G0 F12000 X139.641 Y151.200
G1 Z0.350
G1 F1800 E16.88812
G1 F1200 X140.106 Y151.000 E16.90388
G1 X140.688 Y150.800 E16.91923
G0 F12000 X140.348 Y150.400
G1 F1200 X141.241 Y150.400 E16.94150
G0 F12000 X140.882 Y150.000
G1 F1200 X141.979 Y150.000 E16.96887
G0 F12000 X141.606 Y149.600
G1 F1200 X142.943 Y149.600 E17.00222
G0 F12000 X142.527 Y149.200
G1 F1200 X144.253 Y149.200 E17.04527
G0 F12000 X143.728 Y148.800
G1 F1200 X146.058 Y148.800 E17.10340
G0 F12000 X145.380 Y148.400
G1 F1200 X149.188 Y148.400 E17.19839
G0 F12000 X147.946 Y148.000
G1 F1200 X157.074 Y148.000 E17.42609
G0 F12000 X155.792 Y148.400
G1 F1200 X159.614 Y148.400 E17.52143
G0 F12000 X158.934 Y148.800
G1 F1200 X161.269 Y148.800 E17.57967
G0 F12000 X160.758 Y149.200
G1 F1200 X162.472 Y149.200 E17.62243
G0 F12000 X162.016 Y149.600
G1 F1200 X163.388 Y149.600 E17.65665
G0 F12000 X163.013 Y150.000
G1 F1200 X164.103 Y150.000 E17.68384
G0 F12000 X163.750 Y150.400
G1 F1200 X164.646 Y150.400 E17.70619
G0 F12000 X164.305 Y150.800
G1 F1200 X165.209 Y151.000 E17.72513
G1 X164.858 Y151.400 E17.74093
G1 X165.626 Y151.800 E17.75502
G1 X165.196 Y152.200 E17.76825
G1 X165.742 Y152.600 E17.78120
G1 X165.154 Y153.000 E17.79415
G1 X165.562 Y153.400 E17.80787
G1 X164.696 Y153.800 E17.82322
G1 X165.225 Y154.000 E17.83733
G0 F12000 X164.869 Y154.400
G1 F1200 X164.064 Y154.400 E17.85741
G0 F12000 X164.391 Y154.800
G1 F1200 X163.424 Y154.800 E17.88153
G0 F12000 X163.772 Y155.200
G1 F1200 X162.583 Y155.200 E17.91119
G0 F12000 X162.976 Y155.600
G1 F1200 X161.471 Y155.600 E17.94873
G0 F12000 X161.930 Y156.000
G1 F1200 X159.963 Y156.000 E17.99780
G1 F1800 E16.19780
G1 Z0.450
G0 F12000 X154.673 Y157.200
G1 Z0.350
G1 F1800 E17.99780
G1 F1200 X150.317 Y157.200 E18.10646
;LAYER:2
M106 S25
G0 F12000 X150.209 Y157.338 Z0.500
;TYPE:WALL-INNER
G1 F1200 X149.374 Y157.283 E18.12734
G1 X148.560 Y157.215 E18.14771
G1 X147.776 Y157.130 E18.16738
G1 X146.995 Y157.029 E18.18703
G1 X146.226 Y156.910 E18.20644
G1 X145.511 Y156.780 E18.22457
G1 X144.906 Y156.652 E18.23999
G1 X144.251 Y156.497 E18.25678
G1 X143.661 Y156.338 E18.27203
G1 X143.061 Y156.154 E18.28768
G1 X142.530 Y155.967 E18.30172
G1 X142.014 Y155.757 E18.31562
G1 X141.505 Y155.520 E18.32963
G1 X141.066 Y155.283 E18.34207
G1 X140.583 Y154.976 E18.35635
G1 X140.333 Y154.790 E18.36412
G1 X139.950 Y154.442 E18.37703
G1 X139.602 Y154.017 E18.39073
G1 X139.440 Y153.758 E18.39835
G1 X139.267 Y153.377 E18.40879
G1 X139.158 Y152.992 E18.41877
G1 X139.105 Y152.532 E18.43032
G1 X139.107 Y152.345 E18.43499
G1 X139.180 Y151.885 E18.44661
G1 X139.242 Y151.686 E18.45181
G1 X139.417 Y151.295 E18.46249
G1 X139.642 Y150.940 E18.47298
G1 X139.905 Y150.624 E18.48323
G1 X140.323 Y150.233 E18.49751
G1 X140.789 Y149.893 E18.51190
G1 X141.297 Y149.596 E18.52658
G1 X141.854 Y149.327 E18.54201
G1 X142.379 Y149.106 E18.55622
G1 X142.944 Y148.898 E18.57124
G1 X143.511 Y148.717 E18.58608
G1 X144.133 Y148.544 E18.60219
G1 X144.806 Y148.379 E18.61947
G1 X145.494 Y148.234 E18.63701
G1 X146.202 Y148.105 E18.65496
G1 X146.915 Y147.993 E18.67297
G1 X147.601 Y147.900 E18.69024
G1 X148.246 Y147.825 E18.70643
G1 X148.895 Y147.763 E18.72270
G1 X149.565 Y147.710 E18.73946
G1 X150.254 Y147.668 E18.75668
G1 X150.925 Y147.638 E18.77344
G1 X152.270 Y147.610 E18.80700
G1 X152.374 Y147.609 E18.80959
G1 X153.657 Y147.623 E18.84160
G1 X155.020 Y147.682 E18.87563
G1 X155.772 Y147.735 E18.89443
G1 X156.432 Y147.792 E18.91096
G1 X157.105 Y147.864 E18.92784
G1 X157.743 Y147.943 E18.94388
G1 X158.559 Y148.065 E18.96446
G1 X159.318 Y148.197 E18.98368
G1 X160.074 Y148.352 E19.00293
G1 X160.805 Y148.526 E19.02167
G1 X161.483 Y148.714 E19.03922
G1 X162.126 Y148.922 E19.05608
G1 X162.754 Y149.158 E19.07282
G1 X163.302 Y149.399 E19.08775
G1 X164.170 Y149.868 E19.11236
G1 X164.684 Y150.236 E19.12813
G1 X165.135 Y150.668 E19.14371
G1 X165.450 Y151.077 E19.15659
G1 X165.656 Y151.452 E19.16726
G1 X165.803 Y151.847 E19.17777
G1 X165.887 Y152.290 E19.18902
G1 X165.897 Y152.497 E19.19419
G1 X165.873 Y152.840 E19.20277
G1 X165.774 Y153.270 E19.21377
G1 X165.709 Y153.447 E19.21848
G1 X165.386 Y154.026 E19.23502
G1 X165.138 Y154.334 E19.24488
G1 X164.770 Y154.696 E19.25776
G1 X164.358 Y155.015 E19.27076
G1 X163.910 Y155.296 E19.28395
G1 X163.421 Y155.553 E19.29773
G1 X162.901 Y155.788 E19.31196
G1 X162.361 Y156.002 E19.32645
G1 X161.796 Y156.196 E19.34135
G1 X161.166 Y156.385 E19.35776
G1 X160.502 Y156.558 E19.37488
G1 X159.840 Y156.707 E19.39180
G1 X159.127 Y156.847 E19.40993
G1 X158.391 Y156.970 E19.42854
G1 X157.600 Y157.084 E19.44848
G1 X156.813 Y157.177 E19.46825
G1 X156.054 Y157.250 E19.48727
G1 X155.194 Y157.314 E19.50878
G1 X154.373 Y157.358 E19.52929
G1 X153.534 Y157.386 E19.55023
G1 X152.633 Y157.398 E19.57271
G1 X151.875 Y157.394 E19.59162
G1 X151.028 Y157.374 E19.61275
G1 X150.209 Y157.338 E19.63320
G0 F12000 X150.110 Y156.535
G1 F1200 X151.255 Y156.586 E19.66179
G1 X152.444 Y156.603 E19.69145
G1 X152.547 Y156.604 E19.69402
G1 X153.638 Y156.590 E19.72124
G1 X154.823 Y156.539 E19.75083
G1 X155.945 Y156.459 E19.77889
G1 X156.587 Y156.399 E19.79497
G1 X157.152 Y156.336 E19.80915
G1 X157.719 Y156.260 E19.82342
G1 X158.272 Y156.180 E19.83736
G1 X158.785 Y156.095 E19.85033
G1 X159.750 Y155.908 E19.87485
G1 X160.261 Y155.792 E19.88792
G1 X161.144 Y155.557 E19.91072
G1 X161.962 Y155.296 E19.93214
G1 X162.697 Y155.007 E19.95184
G1 X163.366 Y154.683 E19.97038
G1 X163.926 Y154.339 E19.98677
G1 X164.385 Y153.965 E20.00154
G1 X164.600 Y153.739 E20.00932
G1 X164.767 Y153.520 E20.01619
G1 X164.904 Y153.289 E20.02289
G1 X165.011 Y153.039 E20.02968
G1 X165.077 Y152.772 E20.03654
G1 X165.100 Y152.497 E20.04342
G1 X165.076 Y152.229 E20.05013
G1 X165.008 Y151.961 E20.05703
G1 X164.901 Y151.714 E20.06375
G1 X164.762 Y151.481 E20.07051
G1 X164.589 Y151.259 E20.07754
G1 X164.395 Y151.054 E20.08458
G1 X164.168 Y150.854 E20.09212
G1 X163.677 Y150.509 E20.10709
G1 X163.027 Y150.154 E20.12557
G1 X162.367 Y149.866 E20.14353
G1 X161.593 Y149.591 E20.16402
G1 X160.740 Y149.340 E20.18620
G1 X159.792 Y149.112 E20.21052
G1 X159.285 Y149.007 E20.22344
G1 X158.764 Y148.912 E20.23665
G1 X158.208 Y148.821 E20.25070
G1 X157.218 Y148.684 E20.27563
G1 X156.640 Y148.617 E20.29015
G1 X156.048 Y148.560 E20.30498
G1 X154.887 Y148.475 E20.33402
G1 X153.742 Y148.425 E20.36261
G1 X152.559 Y148.407 E20.39213
G1 X152.454 Y148.405 E20.39475
G1 X151.359 Y148.420 E20.42206
G1 X150.174 Y148.471 E20.45165
G1 X149.051 Y148.551 E20.47973
G1 X148.419 Y148.610 E20.49557
G1 X147.846 Y148.674 E20.50995
G1 X147.277 Y148.749 E20.52427
G1 X146.725 Y148.830 E20.53818
G1 X146.203 Y148.915 E20.55138
G1 X145.237 Y149.104 E20.57593
G1 X144.727 Y149.220 E20.58898
G1 X143.851 Y149.453 E20.61159
G1 X143.035 Y149.714 E20.63296
G1 X142.299 Y150.003 E20.65268
G1 X141.631 Y150.327 E20.67120
G1 X141.076 Y150.668 E20.68745
G1 X140.614 Y151.041 E20.70227
G1 X140.399 Y151.268 E20.71006
G1 X140.231 Y151.486 E20.71693
G1 X140.089 Y151.727 E20.72391
G1 X139.987 Y151.972 E20.73053
G1 X139.919 Y152.234 E20.73728
G1 X139.897 Y152.508 E20.74414
G1 X139.921 Y152.784 E20.75105
G1 X139.988 Y153.044 E20.75775
G1 X140.092 Y153.291 E20.76443
G1 X140.244 Y153.545 E20.77182
G1 X140.601 Y153.958 E20.78543
G1 X141.056 Y154.329 E20.80008
G1 X141.619 Y154.676 E20.81657
G1 X142.274 Y154.996 E20.83476
G1 X143.006 Y155.284 E20.85438
G1 X143.819 Y155.547 E20.87570
G1 X144.726 Y155.789 E20.89911
G1 X145.236 Y155.905 E20.91216
G1 X146.202 Y156.093 E20.93671
G1 X146.723 Y156.179 E20.94988
G1 X147.277 Y156.260 E20.96385
G1 X147.844 Y156.335 E20.97812
G1 X148.376 Y156.395 E20.99147
G1 X148.958 Y156.451 E21.00606
G1 X150.110 Y156.535 E21.03487
G0 F12000 X150.133 Y156.136
;TYPE:WALL-OUTER
G1 F1200 X151.267 Y156.186 E21.06318
G1 X152.546 Y156.204 E21.09509
G1 X153.627 Y156.190 E21.12206
G1 X154.800 Y156.140 E21.15135
G1 X155.912 Y156.060 E21.17916
G1 X156.546 Y156.001 E21.19504
G1 X157.103 Y155.939 E21.20902
G1 X157.664 Y155.864 E21.22314
G1 X158.211 Y155.785 E21.23693
G1 X158.714 Y155.701 E21.24965
G1 X159.667 Y155.517 E21.27386
G1 X160.165 Y155.403 E21.28660
G1 X161.032 Y155.173 E21.30898
G1 X161.828 Y154.919 E21.32982
G1 X162.536 Y154.640 E21.34880
G1 X163.173 Y154.332 E21.36645
G1 X163.694 Y154.012 E21.38171
G1 X164.113 Y153.671 E21.39518
G1 X164.295 Y153.479 E21.40178
G1 X164.435 Y153.296 E21.40753
G1 X164.547 Y153.108 E21.41299
G1 X164.630 Y152.912 E21.41830
G1 X164.681 Y152.707 E21.42357
G1 X164.699 Y152.498 E21.42880
G1 X164.681 Y152.297 E21.43383
G1 X164.628 Y152.090 E21.43916
G1 X164.544 Y151.897 E21.44442
G1 X164.431 Y151.708 E21.44991
G1 X164.285 Y151.520 E21.45585
G1 X164.117 Y151.342 E21.46195
G1 X163.920 Y151.169 E21.46849
G1 X163.461 Y150.846 E21.48249
G1 X163.178 Y150.680 E21.49068
G1 X162.856 Y150.516 E21.49969
G1 X162.220 Y150.238 E21.51701
G1 X161.470 Y149.972 E21.53686
G1 X160.637 Y149.727 E21.55852
G1 X159.705 Y149.503 E21.58243
G1 X159.208 Y149.400 E21.59509
G1 X158.696 Y149.306 E21.60807
G1 X158.148 Y149.216 E21.62193
G1 X157.168 Y149.081 E21.64660
G1 X156.598 Y149.015 E21.66092
G1 X156.014 Y148.959 E21.67555
G1 X154.864 Y148.874 E21.70432
G1 X153.730 Y148.825 E21.73263
G1 X152.550 Y148.807 E21.76207
G1 X152.453 Y148.805 E21.76449
G1 X151.370 Y148.820 E21.79151
G1 X150.197 Y148.870 E21.82079
G1 X149.084 Y148.950 E21.84863
G1 X148.460 Y149.008 E21.86426
G1 X147.894 Y149.071 E21.87847
G1 X147.332 Y149.145 E21.89261
G1 X146.786 Y149.225 E21.90637
G1 X146.274 Y149.309 E21.91932
G1 X145.320 Y149.495 E21.94356
G1 X144.823 Y149.609 E21.95628
G1 X143.964 Y149.837 E21.97845
G1 X143.169 Y150.091 E21.99927
G1 X142.460 Y150.370 E22.01828
G1 X141.824 Y150.678 E22.03591
G1 X141.307 Y150.995 E22.05103
G1 X140.886 Y151.336 E22.06455
G1 X140.704 Y151.528 E22.07115
G1 X140.563 Y151.711 E22.07691
G1 X140.448 Y151.906 E22.08256
G1 X140.367 Y152.100 E22.08780
G1 X140.315 Y152.301 E22.09298
G1 X140.298 Y152.507 E22.09814
G1 X140.316 Y152.716 E22.10337
G1 X140.368 Y152.915 E22.10850
G1 X140.450 Y153.110 E22.11378
G1 X140.569 Y153.310 E22.11958
G1 X140.881 Y153.670 E22.13147
G1 X141.289 Y154.002 E22.14459
G1 X141.812 Y154.325 E22.15992
G1 X142.435 Y154.629 E22.17721
G1 X143.141 Y154.907 E22.19614
G1 X143.932 Y155.163 E22.21688
G1 X144.822 Y155.400 E22.23985
G1 X145.319 Y155.514 E22.25257
G1 X146.273 Y155.699 E22.27682
G1 X146.785 Y155.784 E22.28976
G1 X147.332 Y155.864 E22.30355
G1 X147.893 Y155.938 E22.31767
G1 X148.418 Y155.997 E22.33085
G1 X148.992 Y156.052 E22.34523
G1 X150.133 Y156.136 E22.37377
G1 F1800 E20.57377
G1 Z0.600
G0 F12000 X150.183 Y157.736
G1 Z0.500
G1 F1800 E22.37377
G1 F1200 X149.348 Y157.682 E22.39464
G1 X148.532 Y157.614 E22.41507
G1 X147.721 Y157.526 E22.43542
G1 X146.936 Y157.425 E22.45516
G1 X146.165 Y157.305 E22.47462
G1 X145.423 Y157.170 E22.49344
G1 X144.815 Y157.041 E22.50894
G1 X144.159 Y156.886 E22.52576
G1 X143.537 Y156.719 E22.54182
G1 X142.951 Y156.539 E22.55711
G1 X142.379 Y156.338 E22.57224
G1 X141.855 Y156.125 E22.58635
G1 X141.331 Y155.881 E22.60077
G1 X140.867 Y155.630 E22.61393
G1 X140.359 Y155.306 E22.62896
G1 X140.076 Y155.097 E22.63773
G1 X139.658 Y154.717 E22.65182
G1 X139.277 Y154.251 E22.66684
G1 X139.087 Y153.946 E22.67580
G1 X138.890 Y153.515 E22.68762
G1 X138.765 Y153.073 E22.69908
G1 X138.705 Y152.556 E22.71207
G1 X138.708 Y152.311 E22.71818
G1 X138.789 Y151.795 E22.73121
G1 X138.866 Y151.548 E22.73766
G1 X139.064 Y151.105 E22.74976
G1 X139.318 Y150.705 E22.76158
G1 X139.613 Y150.349 E22.77312
G1 X140.066 Y149.926 E22.78858
G1 X140.569 Y149.559 E22.80411
G1 X141.123 Y149.236 E22.82011
G1 X141.688 Y148.963 E22.83576
G1 X142.224 Y148.737 E22.85027
G1 X142.813 Y148.521 E22.86592
G1 X143.404 Y148.331 E22.88141
G1 X144.044 Y148.154 E22.89797
G1 X144.704 Y147.992 E22.91492
G1 X145.406 Y147.844 E22.93282
G1 X146.140 Y147.710 E22.95143
G1 X146.865 Y147.596 E22.96974
G1 X147.543 Y147.504 E22.98681
G1 X148.200 Y147.428 E23.00331
G1 X148.867 Y147.364 E23.02002
G1 X149.540 Y147.310 E23.03686
G1 X150.229 Y147.269 E23.05408
G1 X150.922 Y147.238 E23.07138
G1 X152.262 Y147.210 E23.10482
G1 X152.376 Y147.209 E23.10766
G1 X153.655 Y147.223 E23.13957
G1 X155.047 Y147.284 E23.17432
G1 X155.799 Y147.336 E23.19313
G1 X156.475 Y147.394 E23.21005
G1 X157.148 Y147.466 E23.22694
G1 X157.802 Y147.548 E23.24338
G1 X158.618 Y147.669 E23.26396
G1 X159.399 Y147.805 E23.28373
G1 X160.158 Y147.961 E23.30306
G1 X160.890 Y148.135 E23.32183
G1 X161.599 Y148.332 E23.34019
G1 X162.262 Y148.545 E23.35756
G1 X162.894 Y148.783 E23.37440
G1 X163.469 Y149.036 E23.39007
G1 X163.805 Y149.201 E23.39941
G1 X164.386 Y149.531 E23.41608
G1 X164.942 Y149.930 E23.43315
G1 X165.432 Y150.399 E23.45007
G1 X165.788 Y150.860 E23.46460
G1 X166.018 Y151.280 E23.47654
G1 X166.188 Y151.739 E23.48875
G1 X166.250 Y152.004 E23.49554
G1 X166.284 Y152.245 E23.50161
G1 X166.298 Y152.507 E23.50816
G1 X166.269 Y152.899 E23.51796
G1 X166.159 Y153.381 E23.53030
G1 X166.075 Y153.609 E23.53636
G1 X165.854 Y154.041 E23.54846
G1 X165.713 Y154.257 E23.55490
G1 X165.431 Y154.607 E23.56611
G1 X165.036 Y154.995 E23.57992
G1 X164.583 Y155.346 E23.59422
G1 X164.115 Y155.640 E23.60800
G1 X163.586 Y155.918 E23.62291
G1 X163.061 Y156.155 E23.63728
G1 X162.507 Y156.374 E23.65214
G1 X161.911 Y156.579 E23.66786
G1 X161.275 Y156.770 E23.68443
G1 X160.603 Y156.945 E23.70175
G1 X159.911 Y157.101 E23.71944
G1 X159.198 Y157.241 E23.73757
G1 X158.456 Y157.365 E23.75634
G1 X157.659 Y157.480 E23.77642
G1 X156.860 Y157.574 E23.79649
G1 X156.087 Y157.648 E23.81586
G1 X155.215 Y157.714 E23.83768
G1 X154.382 Y157.758 E23.85848
G1 X153.547 Y157.786 E23.87933
G1 X152.636 Y157.798 E23.90205
G1 X151.866 Y157.794 E23.92126
G1 X151.023 Y157.774 E23.94230
G1 X150.183 Y157.736 E23.96327
G0 F12000 X150.400 Y157.205
;TYPE:SKIN
G1 F1200 X150.600 Y156.697 E23.97614
G1 X151.000 Y157.230 E23.98902
G1 X151.400 Y156.727 E24.00181
G1 X151.800 Y157.250 E24.01466
G1 X152.200 Y156.739 E24.02757
G1 X152.600 Y157.256 E24.04037
G1 X153.000 Y156.737 E24.05324
G1 X153.400 Y157.247 E24.06610
G1 X153.800 Y156.722 E24.07890
G1 X154.200 Y157.224 E24.09179
G1 X154.600 Y156.688 E24.10476
G1 X155.000 Y157.185 E24.11761
G1 X155.400 Y156.637 E24.13064
G1 X155.800 Y157.130 E24.14367
G1 X156.200 Y156.574 E24.15669
G1 X156.600 Y157.057 E24.16968
G1 X157.000 Y156.493 E24.18270
G1 X157.400 Y156.966 E24.19564
G1 X157.800 Y156.387 E24.20876
G1 X158.200 Y156.856 E24.22187
G1 X158.600 Y156.267 E24.23497
G1 X159.000 Y156.725 E24.24809
G1 X159.400 Y156.118 E24.26142
G1 X159.600 Y156.612 E24.27471
G1 F1800 E22.47471
G1 Z0.600
G0 F12000 X159.600 Y148.929
G1 Z0.500
G1 F1800 E24.27471
G1 F1200 X159.400 Y148.358 E24.28796
G1 X159.000 Y148.812 E24.30116
G1 X158.600 Y148.217 E24.31427
G1 X158.200 Y148.680 E24.32739
G1 X157.800 Y148.095 E24.34052
G1 X157.400 Y148.568 E24.35369
G1 X157.000 Y147.998 E24.36663
G1 X156.600 Y148.474 E24.37958
G1 X156.200 Y147.913 E24.39260
G1 X155.800 Y148.401 E24.40559
G1 X155.400 Y147.850 E24.41862
G1 X155.000 Y148.343 E24.43161
G1 X154.600 Y147.804 E24.44450
G1 X154.200 Y148.304 E24.45740
G1 X153.800 Y147.771 E24.47028
G1 X153.400 Y148.279 E24.48323
G1 X153.000 Y147.756 E24.49612
G1 X152.600 Y148.268 E24.50900
G1 X152.200 Y147.753 E24.52185
G1 X151.800 Y148.274 E24.53472
G1 X151.400 Y147.768 E24.54751
G1 X151.000 Y148.295 E24.56034
G1 X150.600 Y147.795 E24.57328
G1 X150.200 Y148.333 E24.58615
G1 X149.800 Y147.836 E24.59905
G1 X149.400 Y148.386 E24.61215
G1 X149.000 Y147.898 E24.62514
G1 X148.600 Y148.453 E24.63806
G1 X148.200 Y147.972 E24.65105
G1 X147.800 Y148.541 E24.66411
G1 X147.400 Y148.068 E24.67721
G1 X147.000 Y148.650 E24.69033
G1 X146.600 Y148.184 E24.70343
G1 X146.200 Y148.777 E24.71650
G1 X145.800 Y148.320 E24.72968
G1 X145.400 Y148.929 E24.74299
G1 X145.000 Y148.481 E24.75621
G1 X144.600 Y149.111 E24.76957
G1 X144.200 Y148.674 E24.78306
G1 X143.800 Y149.328 E24.79659
G1 X143.400 Y148.900 E24.81032
G1 X143.000 Y149.585 E24.82402
G1 X142.600 Y149.174 E24.83790
G1 X142.200 Y149.903 E24.85201
G1 X141.800 Y149.511 E24.86636
G1 X141.400 Y150.307 E24.88086
G1 X141.000 Y149.937 E24.89615
G1 X140.600 Y150.888 E24.91243
G1 X140.400 Y150.354 E24.92666
G0 F12000 X140.000 Y150.728
G1 F1200 X140.000 Y151.603 E24.94848
G1 F1800 E23.14848
G1 Z0.600
G0 F12000 X140.000 Y153.412
G1 Z0.500
G1 F1800 E24.94848
G1 F1200 X140.000 Y154.281 E24.97016
G0 F12000 X140.400 Y153.941
G1 F1200 X140.600 Y154.804 E24.98811
G1 X141.000 Y154.442 E25.00423
G1 X141.400 Y155.303 E25.01951
G1 X141.800 Y154.920 E25.03415
G1 X142.200 Y155.679 E25.04854
G1 X142.600 Y155.274 E25.06263
G1 X143.000 Y155.981 E25.07657
G1 X143.400 Y155.559 E25.09042
G1 X143.800 Y156.228 E25.10408
G1 X144.200 Y155.794 E25.11762
G1 X144.600 Y156.435 E25.13110
G1 X145.000 Y155.996 E25.14436
G1 X145.400 Y156.612 E25.15755
G1 X145.800 Y156.158 E25.17087
G1 X146.200 Y156.760 E25.18408
G1 X146.600 Y156.300 E25.19719
G1 X147.000 Y156.885 E25.21027
G1 X147.400 Y156.416 E25.22342
G1 X147.800 Y156.989 E25.23645
G1 X148.200 Y156.513 E25.24944
G1 X148.600 Y157.075 E25.26247
G1 X149.000 Y156.592 E25.27542
G1 X149.400 Y157.142 E25.28835
G1 X149.800 Y156.653 E25.30128
G1 X150.000 Y157.183 E25.31541
G1 F1800 E23.51541
G1 Z0.600
G0 F12000 X160.000 Y156.528
G1 Z0.500
G1 F1800 E25.31541
G1 F1200 X160.200 Y155.946 E25.32872
G1 X160.600 Y156.386 E25.34215
G1 X161.000 Y155.739 E25.35567
G1 X161.400 Y156.169 E25.36922
G1 X161.800 Y155.494 E25.38297
G1 X162.200 Y155.907 E25.39663
G1 X162.600 Y155.193 E25.41061
G1 X163.000 Y155.588 E25.42471
G1 X163.400 Y154.811 E25.43921
G1 X163.800 Y155.188 E25.45412
G1 X164.200 Y154.294 E25.46951
G1 X164.600 Y154.638 E25.48632
G1 X164.800 Y153.707 E25.51007
G0 F12000 X165.200 Y154.035
G1 F1200 X165.200 Y152.859 E25.53941
G0 F12000 X165.600 Y153.338
G1 F1200 X165.600 Y151.703 E25.58019
G0 F12000 X165.200 Y152.146
G1 F1200 X165.200 Y150.982 E25.60923
G0 F12000 X164.800 Y151.302
G1 F1200 X164.600 Y150.707 E25.62818
G1 X164.200 Y150.071 E25.64476
G1 X163.800 Y150.436 E25.66047
G1 X163.400 Y149.614 E25.67506
G1 X163.000 Y149.995 E25.68956
G1 X162.600 Y149.252 E25.70377
G1 X162.200 Y149.658 E25.71764
G1 X161.800 Y148.964 E25.73157
G1 X161.400 Y149.388 E25.74520
G1 X161.000 Y148.726 E25.75885
G1 X160.600 Y149.163 E25.77234
G1 X160.200 Y148.527 E25.78579
G1 X160.000 Y149.018 E25.79901
G1 F1800 E23.99901
G1 Z0.600
G0 F12000 X139.600 Y151.268
G1 Z0.500
G1 F1800 E25.79901
G1 F1200 X139.600 Y153.748 E25.86088
;LAYER:3
M106 S38
G0 F12000 X139.598 Y154.014 Z0.650
;TYPE:WALL-INNER
G1 F1200 X139.353 Y153.589 E25.87311
G1 X139.208 Y153.196 E25.88356
G1 X139.122 Y152.769 E25.89443
G1 X139.104 Y152.535 E25.90028
G1 X139.108 Y152.331 E25.90537
G1 X139.182 Y151.879 E25.91680
G1 X139.235 Y151.706 E25.92131
G1 X139.421 Y151.285 E25.93279
G1 X139.532 Y151.099 E25.93820
G1 X139.769 Y150.779 E25.94813
G1 X140.109 Y150.420 E25.96046
G1 X140.340 Y150.219 E25.96810
G1 X140.783 Y149.897 E25.98176
G1 X141.305 Y149.592 E25.99684
G1 X141.844 Y149.332 E26.01177
G1 X142.359 Y149.113 E26.02573
G1 X142.929 Y148.904 E26.04088
G1 X143.507 Y148.717 E26.05603
G1 X144.119 Y148.547 E26.07187
G1 X144.793 Y148.382 E26.08918
G1 X145.483 Y148.236 E26.10678
G1 X146.195 Y148.106 E26.12483
G1 X146.901 Y147.995 E26.14266
G1 X147.599 Y147.900 E26.16023
G1 X148.242 Y147.826 E26.17638
G1 X148.895 Y147.763 E26.19274
G1 X149.559 Y147.711 E26.20936
G1 X150.248 Y147.668 E26.22658
G1 X150.918 Y147.638 E26.24331
G1 X152.241 Y147.610 E26.27632
G1 X152.386 Y147.609 E26.27993
G1 X153.627 Y147.623 E26.31089
G1 X154.991 Y147.680 E26.34495
G1 X155.767 Y147.734 E26.36435
G1 X156.429 Y147.792 E26.38093
G1 X157.104 Y147.863 E26.39786
G1 X157.743 Y147.943 E26.41392
G1 X158.554 Y148.064 E26.43438
G1 X159.325 Y148.199 E26.45390
G1 X160.059 Y148.348 E26.47259
G1 X160.784 Y148.520 E26.49117
G1 X161.473 Y148.711 E26.50901
G1 X162.118 Y148.919 E26.52591
G1 X162.750 Y149.156 E26.54275
G1 X163.285 Y149.392 E26.55734
G1 X163.893 Y149.703 E26.57437
G1 X164.441 Y150.049 E26.59054
G1 X164.914 Y150.440 E26.60585
G1 X165.336 Y150.913 E26.62166
G1 X165.458 Y151.089 E26.62700
G1 X165.661 Y151.466 E26.63768
G1 X165.808 Y151.870 E26.64841
G1 X165.854 Y152.064 E26.65338
G1 X165.887 Y152.290 E26.65908
G1 X165.897 Y152.494 E26.66417
G1 X165.872 Y152.844 E26.67293
G1 X165.773 Y153.270 E26.68384
G1 X165.700 Y153.466 E26.68905
G1 X165.498 Y153.855 E26.69999
G1 X165.252 Y154.201 E26.71058
G1 X164.937 Y154.544 E26.72220
G1 X164.760 Y154.705 E26.72816
G1 X164.362 Y155.013 E26.74072
G1 X163.920 Y155.290 E26.75373
G1 X163.422 Y155.552 E26.76777
G1 X162.910 Y155.784 E26.78179
G1 X162.391 Y155.990 E26.79572
G1 X161.787 Y156.199 E26.81166
G1 X161.189 Y156.379 E26.82724
G1 X160.517 Y156.554 E26.84456
G1 X159.854 Y156.704 E26.86152
G1 X159.143 Y156.844 E26.87959
G1 X158.404 Y156.968 E26.89829
G1 X157.616 Y157.082 E26.91815
G1 X156.821 Y157.176 E26.93812
G1 X156.076 Y157.248 E26.95679
G1 X155.198 Y157.313 E26.97875
G1 X154.379 Y157.357 E26.99921
G1 X153.541 Y157.386 E27.02013
G1 X152.709 Y157.397 E27.04088
G1 X152.620 Y157.398 E27.04310
G1 X151.885 Y157.394 E27.06144
G1 X151.038 Y157.374 E27.08257
G1 X150.218 Y157.337 E27.10305
G1 X149.388 Y157.284 E27.12379
G1 X148.582 Y157.216 E27.14397
G1 X147.769 Y157.129 E27.16437
G1 X146.999 Y157.030 E27.18373
G1 X146.228 Y156.910 E27.20320
G1 X145.512 Y156.780 E27.22135
G1 X144.914 Y156.653 E27.23660
G1 X144.287 Y156.506 E27.25267
G1 X143.667 Y156.340 E27.26868
G1 X143.075 Y156.158 E27.28413
G1 X142.540 Y155.971 E27.29826
G1 X142.024 Y155.762 E27.31215
G1 X141.515 Y155.525 E27.32616
G1 X141.075 Y155.287 E27.33863
G1 X140.581 Y154.974 E27.35322
G1 X140.349 Y154.803 E27.36041
G1 X140.125 Y154.611 E27.36777
G1 X139.752 Y154.219 E27.38127
G1 X139.598 Y154.014 E27.38767
G0 F12000 X140.401 Y153.748
G1 F1200 X140.824 Y154.153 E27.40227
G1 X141.330 Y154.509 E27.41771
G1 X141.912 Y154.828 E27.43426
G1 X142.625 Y155.141 E27.45369
G1 X143.395 Y155.417 E27.47409
G1 X144.243 Y155.666 E27.49614
G1 X144.750 Y155.794 E27.50918
G1 X145.695 Y155.999 E27.53330
G1 X146.223 Y156.097 E27.54670
G1 X146.803 Y156.191 E27.56136
G1 X147.760 Y156.323 E27.58545
G1 X148.369 Y156.394 E27.60075
G1 X148.956 Y156.451 E27.61546
G1 X150.106 Y156.534 E27.64422
G1 X151.237 Y156.585 E27.67246
G1 X152.428 Y156.603 E27.70218
G1 X152.564 Y156.604 E27.70557
G1 X153.619 Y156.590 E27.73189
G1 X154.806 Y156.540 E27.76153
G1 X155.915 Y156.461 E27.78926
G1 X156.583 Y156.399 E27.80599
G1 X157.149 Y156.336 E27.82020
G1 X157.720 Y156.260 E27.83457
G1 X158.282 Y156.179 E27.84873
G1 X158.791 Y156.093 E27.86161
G1 X159.743 Y155.909 E27.88580
G1 X160.263 Y155.791 E27.89910
G1 X161.142 Y155.558 E27.92178
G1 X161.957 Y155.298 E27.94312
G1 X162.689 Y155.010 E27.96275
G1 X163.364 Y154.684 E27.98144
G1 X163.924 Y154.341 E27.99783
G1 X164.384 Y153.967 E28.01261
G1 X164.607 Y153.733 E28.02068
G1 X164.898 Y153.304 E28.03361
G1 X165.013 Y153.030 E28.04102
G1 X165.077 Y152.770 E28.04770
G1 X165.100 Y152.494 E28.05461
G1 X165.076 Y152.225 E28.06135
G1 X165.005 Y151.958 E28.06824
G1 X164.901 Y151.713 E28.07488
G1 X164.768 Y151.491 E28.08133
G1 X164.579 Y151.245 E28.08907
G1 X164.167 Y150.853 E28.10326
G1 X163.673 Y150.505 E28.11833
G1 X163.085 Y150.182 E28.13507
G1 X162.371 Y149.868 E28.15452
G1 X161.601 Y149.593 E28.17492
G1 X160.753 Y149.344 E28.19697
G1 X160.235 Y149.214 E28.21029
G1 X159.290 Y149.009 E28.23441
G1 X158.763 Y148.911 E28.24778
G1 X158.194 Y148.819 E28.26216
G1 X157.237 Y148.687 E28.28626
G1 X156.653 Y148.619 E28.30092
G1 X156.053 Y148.560 E28.31596
G1 X154.891 Y148.475 E28.34503
G1 X153.760 Y148.425 E28.37327
G1 X152.436 Y148.405 E28.40630
G1 X151.378 Y148.420 E28.43269
G1 X150.191 Y148.470 E28.46233
G1 X149.081 Y148.549 E28.49009
G1 X148.427 Y148.609 E28.50647
G1 X147.849 Y148.674 E28.52098
G1 X147.276 Y148.749 E28.53540
G1 X146.715 Y148.831 E28.54954
G1 X146.195 Y148.917 E28.56269
G1 X145.240 Y149.103 E28.58696
G1 X144.722 Y149.222 E28.60021
G1 X143.854 Y149.452 E28.62261
G1 X143.040 Y149.712 E28.64393
G1 X142.306 Y150.000 E28.66360
G1 X141.633 Y150.326 E28.68225
G1 X141.080 Y150.665 E28.69843
G1 X140.616 Y151.038 E28.71328
G1 X140.396 Y151.271 E28.72128
G1 X140.224 Y151.498 E28.72838
G1 X140.089 Y151.729 E28.73506
G1 X139.987 Y151.971 E28.74161
G1 X139.919 Y152.234 E28.74838
G1 X139.897 Y152.511 E28.75531
G1 X139.922 Y152.789 E28.76228
G1 X139.990 Y153.046 E28.76891
G1 X140.101 Y153.309 E28.77603
G1 X140.401 Y153.748 E28.78929
G0 F12000 X140.708 Y153.488
;TYPE:WALL-OUTER
G1 F1200 X141.079 Y153.843 E28.80210
G1 X141.542 Y154.169 E28.81623
G1 X142.089 Y154.469 E28.83179
G1 X142.773 Y154.769 E28.85042
G1 X143.519 Y155.036 E28.87019
G1 X144.348 Y155.280 E28.89174
G1 X144.841 Y155.405 E28.90443
G1 X145.774 Y155.607 E28.92824
G1 X146.292 Y155.703 E28.94138
G1 X146.862 Y155.796 E28.95579
G1 X147.810 Y155.926 E28.97966
G1 X148.412 Y155.996 E28.99478
G1 X148.990 Y156.052 E29.00926
G1 X150.129 Y156.135 E29.03775
G1 X151.249 Y156.185 E29.06572
G1 X152.433 Y156.203 E29.09526
G1 X152.563 Y156.204 E29.09850
G1 X153.608 Y156.190 E29.12457
G1 X154.783 Y156.141 E29.15391
G1 X155.882 Y156.062 E29.18139
G1 X156.542 Y156.001 E29.19793
G1 X157.100 Y155.939 E29.21193
G1 X157.665 Y155.864 E29.22615
G1 X158.220 Y155.784 E29.24014
G1 X158.720 Y155.700 E29.25278
G1 X159.660 Y155.518 E29.27667
G1 X160.168 Y155.402 E29.28967
G1 X161.030 Y155.174 E29.31191
G1 X161.823 Y154.921 E29.33267
G1 X162.529 Y154.643 E29.35160
G1 X163.172 Y154.333 E29.36940
G1 X163.692 Y154.014 E29.38462
G1 X164.112 Y153.672 E29.39813
G1 X164.294 Y153.481 E29.40471
G1 X164.545 Y153.112 E29.41585
G1 X164.632 Y152.904 E29.42147
G1 X164.681 Y152.705 E29.42658
G1 X164.699 Y152.495 E29.43184
G1 X164.681 Y152.295 E29.43685
G1 X164.626 Y152.088 E29.44219
G1 X164.544 Y151.895 E29.44742
G1 X164.437 Y151.716 E29.45263
G1 X164.281 Y151.514 E29.45899
G1 X163.912 Y151.163 E29.47170
G1 X163.461 Y150.845 E29.48546
G1 X162.908 Y150.541 E29.50120
G1 X162.223 Y150.240 E29.51987
G1 X161.477 Y149.974 E29.53963
G1 X160.648 Y149.730 E29.56118
G1 X160.144 Y149.603 E29.57415
G1 X159.211 Y149.401 E29.59796
G1 X158.694 Y149.305 E29.61108
G1 X158.135 Y149.214 E29.62521
G1 X157.187 Y149.084 E29.64907
G1 X156.610 Y149.017 E29.66356
G1 X156.019 Y148.959 E29.67838
G1 X154.868 Y148.874 E29.70717
G1 X153.748 Y148.825 E29.73513
G1 X152.436 Y148.805 E29.76786
G1 X151.389 Y148.820 E29.79399
G1 X150.214 Y148.869 E29.82332
G1 X149.114 Y148.948 E29.85083
G1 X148.468 Y149.007 E29.86701
G1 X147.897 Y149.071 E29.88135
G1 X147.331 Y149.145 E29.89558
G1 X146.777 Y149.226 E29.90955
G1 X146.266 Y149.311 E29.92247
G1 X145.323 Y149.494 E29.94644
G1 X144.818 Y149.611 E29.95937
G1 X143.966 Y149.836 E29.98135
G1 X143.174 Y150.089 E30.00209
G1 X142.467 Y150.367 E30.02104
G1 X141.825 Y150.677 E30.03882
G1 X141.311 Y150.992 E30.05386
G1 X140.888 Y151.333 E30.06741
G1 X140.557 Y151.721 E30.08014
G1 X140.448 Y151.908 E30.08554
G1 X140.367 Y152.100 E30.09073
G1 X140.315 Y152.301 E30.09591
G1 X140.298 Y152.509 E30.10112
G1 X140.317 Y152.720 E30.10640
G1 X140.369 Y152.917 E30.11149
G1 X140.454 Y153.116 E30.11688
G1 X140.708 Y153.488 E30.12812
G1 F1800 E28.32812
G1 Z0.750
G0 F12000 X139.448 Y154.480
G1 Z0.650
G1 F1800 E30.12812
G1 F1200 X139.263 Y154.234 E30.13580
G1 X138.990 Y153.759 E30.14947
G1 X138.822 Y153.306 E30.16152
G1 X138.725 Y152.822 E30.17383
G1 X138.704 Y152.560 E30.18039
G1 X138.708 Y152.307 E30.18670
G1 X138.796 Y151.774 E30.20018
G1 X138.858 Y151.568 E30.20554
G1 X139.064 Y151.104 E30.21821
G1 X139.197 Y150.880 E30.22470
G1 X139.463 Y150.521 E30.23585
G1 X139.833 Y150.131 E30.24926
G1 X140.096 Y149.901 E30.25798
G1 X140.560 Y149.564 E30.27228
G1 X141.120 Y149.237 E30.28846
G1 X141.679 Y148.967 E30.30394
G1 X142.213 Y148.741 E30.31841
G1 X142.804 Y148.524 E30.33411
G1 X143.391 Y148.334 E30.34950
G1 X144.030 Y148.157 E30.36604
G1 X144.691 Y147.995 E30.38302
G1 X145.395 Y147.846 E30.40097
G1 X146.133 Y147.711 E30.41968
G1 X146.851 Y147.598 E30.43782
G1 X147.541 Y147.504 E30.45519
G1 X148.197 Y147.429 E30.47166
G1 X148.863 Y147.364 E30.48835
G1 X149.534 Y147.311 E30.50514
G1 X150.223 Y147.269 E30.52236
G1 X150.914 Y147.238 E30.53961
G1 X152.232 Y147.210 E30.57250
G1 X152.388 Y147.209 E30.57639
G1 X153.626 Y147.223 E30.60727
G1 X155.018 Y147.282 E30.64203
G1 X155.794 Y147.335 E30.66143
G1 X156.471 Y147.394 E30.67838
G1 X157.146 Y147.465 E30.69531
G1 X157.802 Y147.548 E30.71181
G1 X158.613 Y147.668 E30.73226
G1 X159.394 Y147.805 E30.75204
G1 X160.147 Y147.958 E30.77121
G1 X160.878 Y148.131 E30.78995
G1 X161.589 Y148.329 E30.80836
G1 X162.253 Y148.542 E30.82575
G1 X162.890 Y148.781 E30.84272
G1 X163.458 Y149.031 E30.85820
G1 X164.088 Y149.353 E30.87585
G1 X164.678 Y149.726 E30.89326
G1 X165.189 Y150.149 E30.90981
G1 X165.654 Y150.669 E30.92721
G1 X165.801 Y150.882 E30.93367
G1 X166.027 Y151.303 E30.94559
G1 X166.190 Y151.750 E30.95746
G1 X166.284 Y152.245 E30.97003
G1 X166.298 Y152.507 E30.97657
G1 X166.268 Y152.905 E30.98653
G1 X166.158 Y153.383 E30.99876
G1 X166.066 Y153.631 E31.00536
G1 X165.841 Y154.063 E31.01751
G1 X165.562 Y154.456 E31.02953
G1 X165.225 Y154.824 E31.04198
G1 X165.010 Y155.018 E31.04920
G1 X164.594 Y155.340 E31.06233
G1 X164.122 Y155.636 E31.07623
G1 X163.595 Y155.914 E31.09109
G1 X163.070 Y156.151 E31.10546
G1 X162.532 Y156.364 E31.11989
G1 X161.918 Y156.577 E31.13610
G1 X161.290 Y156.767 E31.15247
G1 X160.618 Y156.941 E31.16979
G1 X159.927 Y157.098 E31.18746
G1 X159.209 Y157.239 E31.20571
G1 X158.476 Y157.362 E31.22426
G1 X157.669 Y157.478 E31.24459
G1 X156.868 Y157.573 E31.26471
G1 X156.109 Y157.646 E31.28373
G1 X155.219 Y157.713 E31.30600
G1 X154.389 Y157.757 E31.32673
G1 X153.555 Y157.786 E31.34755
G1 X152.621 Y157.798 E31.37085
G1 X151.876 Y157.794 E31.38943
G1 X151.033 Y157.774 E31.41047
G1 X150.193 Y157.736 E31.43144
G1 X149.358 Y157.683 E31.45231
G1 X148.539 Y157.614 E31.47282
G1 X147.726 Y157.527 E31.49321
G1 X146.940 Y157.426 E31.51298
G1 X146.167 Y157.305 E31.53250
G1 X145.429 Y157.171 E31.55121
G1 X144.831 Y157.044 E31.56646
G1 X144.178 Y156.891 E31.58319
G1 X143.553 Y156.724 E31.59933
G1 X142.965 Y156.543 E31.61467
G1 X142.391 Y156.342 E31.62984
G1 X141.857 Y156.126 E31.64421
G1 X141.340 Y155.885 E31.65844
G1 X140.872 Y155.632 E31.67171
G1 X140.357 Y155.306 E31.68692
G1 X139.849 Y154.902 E31.70311
G1 X139.448 Y154.480 E31.71763
G0 F12000 X139.762 Y154.000
;TYPE:SKIN
G1 F1200 X140.296 Y153.800 E31.73509
G1 X139.438 Y153.400 E31.75032
G1 X139.842 Y153.000 E31.76390
G1 X139.257 Y152.600 E31.77667
G1 X139.798 Y152.200 E31.78960
G1 X139.368 Y151.800 E31.80282
G1 X140.136 Y151.400 E31.81691
G1 X139.787 Y151.000 E31.83287
G1 X140.687 Y150.800 E31.85587
G0 F12000 X140.344 Y150.400
G1 F1200 X141.241 Y150.400 E31.87824
G0 F12000 X140.883 Y150.000
G1 F1200 X141.982 Y150.000 E31.90566
G0 F12000 X141.607 Y149.600
G1 F1200 X142.938 Y149.600 E31.93886
G0 F12000 X142.525 Y149.200
G1 F1200 X144.253 Y149.200 E31.98197
G0 F12000 X143.730 Y148.800
G1 F1200 X146.056 Y148.800 E32.03999
G0 F12000 X145.379 Y148.400
G1 F1200 X149.194 Y148.400 E32.13515
G0 F12000 X147.945 Y148.000
G1 F1200 X157.078 Y148.000 E32.36298
G0 F12000 X155.792 Y148.400
G1 F1200 X159.616 Y148.400 E32.45837
G0 F12000 X158.934 Y148.800
G1 F1200 X161.271 Y148.800 E32.51666
G0 F12000 X160.756 Y149.200
G1 F1200 X162.473 Y149.200 E32.55949
G0 F12000 X162.037 Y149.600
G1 F1200 X163.386 Y149.600 E32.59315
G0 F12000 X163.020 Y150.000
G1 F1200 X164.103 Y150.000 E32.62016
G0 F12000 X163.767 Y150.400
G1 F1200 X164.647 Y150.400 E32.64211
G0 F12000 X164.314 Y150.800
G1 F1200 X165.203 Y151.000 E32.66041
G1 X164.857 Y151.400 E32.67637
G1 X165.628 Y151.800 E32.69046
G1 X165.195 Y152.200 E32.70380
G1 X165.743 Y152.600 E32.71679
G1 X165.153 Y153.000 E32.72977
G1 X165.557 Y153.400 E32.74353
G1 X164.704 Y153.800 E32.75863
G1 X165.221 Y154.000 E32.77246
G0 F12000 X164.877 Y154.400
G1 F1200 X164.071 Y154.400 E32.79256
G0 F12000 X164.406 Y154.800
G1 F1200 X163.442 Y154.800 E32.81661
G0 F12000 X163.787 Y155.200
G1 F1200 X162.584 Y155.200 E32.84662
G0 F12000 X162.972 Y155.600
G1 F1200 X161.468 Y155.600 E32.88414
G0 F12000 X161.930 Y156.000
G1 F1200 X159.968 Y156.000 E32.93308
G0 F12000 X160.545 Y156.400
G1 F1200 X157.705 Y156.400 E33.00392
G0 F12000 X158.550 Y156.800
G1 F1200 X146.441 Y156.800 E33.30598
G0 F12000 X147.298 Y156.400
G1 F1200 X144.453 Y156.400 E33.37695
G0 F12000 X145.045 Y156.000
G1 F1200 X143.049 Y156.000 E33.42674
G0 F12000 X143.526 Y155.600
G1 F1200 X142.007 Y155.600 E33.46463
G0 F12000 X142.413 Y155.200
G1 F1200 X141.209 Y155.200 E33.49467
G0 F12000 X141.572 Y154.800
G1 F1200 X140.581 Y154.800 E33.51939
G0 F12000 X140.933 Y154.400
G1 F1200 X140.117 Y154.400 E33.53974
G1 F1800 E31.73974
G1 Z0.750
G0 F12000 X150.315 Y157.200
G1 Z0.650
G1 F1800 E33.53974
G1 F1200 X154.665 Y157.200 E33.64825
;LAYER:4
M106 S53
G0 F12000 X154.386 Y157.357 Z0.800
;TYPE:WALL-INNER
G1 F1200 X153.550 Y157.385 E33.66912
G1 X152.718 Y157.397 E33.68988
G1 X152.606 Y157.398 E33.69267
G1 X151.896 Y157.394 E33.71038
G1 X151.049 Y157.374 E33.73152
G1 X150.227 Y157.337 E33.75204
G1 X149.399 Y157.286 E33.77273
G1 X148.590 Y157.217 E33.79299
G1 X147.775 Y157.130 E33.81343
G1 X146.999 Y157.029 E33.83295
G1 X146.231 Y156.910 E33.85234
G1 X145.512 Y156.780 E33.87057
G1 X144.935 Y156.657 E33.88528
G1 X144.305 Y156.510 E33.90142
G1 X143.673 Y156.341 E33.91774
G1 X143.089 Y156.163 E33.93297
G1 X142.553 Y155.976 E33.94713
G1 X142.036 Y155.767 E33.96104
G1 X141.517 Y155.526 E33.97532
G1 X140.602 Y154.987 E34.00181
G1 X140.315 Y154.775 E34.01071
G1 X139.936 Y154.430 E34.02349
G1 X139.761 Y154.233 E34.03007
G1 X139.601 Y154.018 E34.03675
G1 X139.355 Y153.591 E34.04904
G1 X139.209 Y153.198 E34.05950
G1 X139.122 Y152.769 E34.07042
G1 X139.104 Y152.535 E34.07628
G1 X139.108 Y152.331 E34.08137
G1 X139.136 Y152.087 E34.08749
G1 X139.183 Y151.879 E34.09281
G1 X139.320 Y151.488 E34.10315
G1 X139.523 Y151.112 E34.11380
G1 X139.761 Y150.787 E34.12385
G1 X140.113 Y150.416 E34.13661
G1 X140.563 Y150.049 E34.15110
G1 X141.030 Y149.746 E34.16498
G1 X141.838 Y149.335 E34.18760
G1 X142.356 Y149.114 E34.20164
G1 X142.919 Y148.907 E34.21661
G1 X143.495 Y148.721 E34.23171
G1 X144.107 Y148.551 E34.24755
G1 X144.780 Y148.385 E34.26484
G1 X145.472 Y148.238 E34.28249
G1 X146.190 Y148.107 E34.30070
G1 X146.894 Y147.996 E34.31847
G1 X147.596 Y147.901 E34.33614
G1 X148.240 Y147.826 E34.35232
G1 X148.890 Y147.763 E34.36861
G1 X149.554 Y147.711 E34.38522
G1 X150.241 Y147.669 E34.40239
G1 X150.910 Y147.638 E34.41910
G1 X152.211 Y147.611 E34.45156
G1 X152.404 Y147.608 E34.45637
G1 X153.598 Y147.622 E34.48616
G1 X154.962 Y147.678 E34.52021
G1 X155.761 Y147.734 E34.54019
G1 X156.424 Y147.791 E34.55679
G1 X157.101 Y147.863 E34.57378
G1 X157.743 Y147.943 E34.58992
G1 X158.549 Y148.063 E34.61024
G1 X159.300 Y148.194 E34.62926
G1 X160.054 Y148.347 E34.64845
G1 X160.782 Y148.519 E34.66711
G1 X161.456 Y148.706 E34.68456
G1 X162.110 Y148.916 E34.70169
G1 X162.737 Y149.152 E34.71841
G1 X163.269 Y149.385 E34.73289
G1 X163.894 Y149.704 E34.75040
G1 X164.440 Y150.049 E34.76651
G1 X164.715 Y150.261 E34.77517
G1 X165.131 Y150.664 E34.78962
G1 X165.449 Y151.076 E34.80260
G1 X165.651 Y151.444 E34.81307
G1 X165.809 Y151.870 E34.82441
G1 X165.854 Y152.065 E34.82940
G1 X165.886 Y152.290 E34.83507
G1 X165.897 Y152.498 E34.84026
G1 X165.871 Y152.851 E34.84909
G1 X165.778 Y153.251 E34.85934
G1 X165.613 Y153.651 E34.87013
G1 X165.393 Y154.018 E34.88080
G1 X165.279 Y154.170 E34.88554
G1 X164.941 Y154.539 E34.89803
G1 X164.569 Y154.860 E34.91028
G1 X163.924 Y155.289 E34.92961
G1 X163.426 Y155.551 E34.94364
G1 X162.923 Y155.778 E34.95741
G1 X162.410 Y155.983 E34.97119
G1 X161.820 Y156.188 E34.98677
G1 X161.182 Y156.380 E35.00339
G1 X160.537 Y156.550 E35.02003
G1 X159.870 Y156.701 E35.03709
G1 X159.164 Y156.839 E35.05503
G1 X158.428 Y156.963 E35.07365
G1 X157.620 Y157.081 E35.09402
G1 X156.831 Y157.175 E35.11384
G1 X156.096 Y157.246 E35.13226
G1 X155.202 Y157.312 E35.15463
G1 X154.386 Y157.357 E35.17501
G0 F12000 X154.789 Y156.541
G1 F1200 X155.885 Y156.463 E35.20242
G1 X156.578 Y156.400 E35.21978
G1 X157.145 Y156.337 E35.23401
G1 X157.724 Y156.260 E35.24858
G1 X158.293 Y156.176 E35.26293
G1 X159.255 Y156.009 E35.28728
G1 X159.771 Y155.902 E35.30043
G1 X160.311 Y155.779 E35.31424
G1 X161.139 Y155.559 E35.33562
G1 X161.953 Y155.299 E35.35693
G1 X162.683 Y155.013 E35.37649
G1 X163.363 Y154.684 E35.39533
G1 X163.913 Y154.347 E35.41142
G1 X164.198 Y154.131 E35.42034
G1 X164.596 Y153.744 E35.43419
G1 X164.769 Y153.518 E35.44129
G1 X164.907 Y153.285 E35.44805
G1 X165.014 Y153.026 E35.45504
G1 X165.077 Y152.769 E35.46164
G1 X165.100 Y152.490 E35.46862
G1 X165.075 Y152.225 E35.47526
G1 X165.010 Y151.968 E35.48187
G1 X164.899 Y151.711 E35.48886
G1 X164.761 Y151.481 E35.49555
G1 X164.576 Y151.242 E35.50309
G1 X164.170 Y150.857 E35.51704
G1 X163.914 Y150.664 E35.52504
G1 X163.390 Y150.341 E35.54040
G1 X162.727 Y150.016 E35.55882
G1 X162.001 Y149.729 E35.57829
G1 X161.197 Y149.469 E35.59937
G1 X160.681 Y149.325 E35.61273
G1 X159.802 Y149.114 E35.63528
G1 X159.289 Y149.008 E35.64835
G1 X158.760 Y148.911 E35.66176
G1 X158.181 Y148.817 E35.67640
G1 X157.256 Y148.689 E35.69969
G1 X156.666 Y148.620 E35.71451
G1 X156.059 Y148.561 E35.72972
G1 X154.896 Y148.476 E35.75881
G1 X153.777 Y148.426 E35.78675
G1 X152.590 Y148.408 E35.81636
G1 X152.420 Y148.405 E35.82061
G1 X151.397 Y148.420 E35.84613
G1 X150.208 Y148.469 E35.87581
G1 X149.111 Y148.547 E35.90325
G1 X148.436 Y148.609 E35.92015
G1 X147.853 Y148.673 E35.93479
G1 X147.272 Y148.749 E35.94940
G1 X146.706 Y148.833 E35.96368
G1 X146.188 Y148.918 E35.97677
G1 X145.245 Y149.103 E36.00074
G1 X144.717 Y149.223 E36.01425
G1 X143.857 Y149.451 E36.03644
G1 X143.044 Y149.711 E36.05773
G1 X142.313 Y149.997 E36.07732
G1 X141.634 Y150.326 E36.09614
G1 X141.084 Y150.662 E36.11221
G1 X140.620 Y151.036 E36.12708
G1 X140.396 Y151.271 E36.13518
G1 X140.222 Y151.502 E36.14239
G1 X140.088 Y151.730 E36.14899
G1 X139.986 Y151.973 E36.15556
G1 X139.919 Y152.235 E36.16231
G1 X139.897 Y152.512 E36.16924
G1 X139.922 Y152.791 E36.17623
G1 X139.990 Y153.049 E36.18288
G1 X140.094 Y153.294 E36.18952
G1 X140.248 Y153.549 E36.19696
G1 X140.607 Y153.963 E36.21062
G1 X141.066 Y154.336 E36.22538
G1 X141.615 Y154.673 E36.24145
G1 X142.269 Y154.994 E36.25962
G1 X142.995 Y155.281 E36.27909
G1 X143.802 Y155.542 E36.30025
G1 X144.715 Y155.786 E36.32383
G1 X145.244 Y155.906 E36.33736
G1 X146.186 Y156.090 E36.36130
G1 X146.705 Y156.176 E36.37442
G1 X147.272 Y156.260 E36.38872
G1 X147.852 Y156.336 E36.40331
G1 X148.364 Y156.393 E36.41616
G1 X148.954 Y156.451 E36.43095
G1 X150.101 Y156.534 E36.45964
G1 X151.219 Y156.584 E36.48756
G1 X152.411 Y156.603 E36.51729
G1 X152.581 Y156.604 E36.52153
G1 X153.599 Y156.590 E36.54693
G1 X154.789 Y156.541 E36.57664
G0 F12000 X154.766 Y156.142
;TYPE:WALL-OUTER
G1 F1200 X155.852 Y156.064 E36.60380
G1 X156.537 Y156.002 E36.62096
G1 X157.096 Y155.940 E36.63499
G1 X157.669 Y155.864 E36.64941
G1 X158.230 Y155.781 E36.66355
G1 X159.180 Y155.616 E36.68761
G1 X159.686 Y155.511 E36.70050
G1 X160.215 Y155.390 E36.71403
G1 X161.027 Y155.175 E36.73499
G1 X161.819 Y154.922 E36.75573
G1 X162.523 Y154.646 E36.77459
G1 X163.171 Y154.333 E36.79254
G1 X163.687 Y154.016 E36.80765
G1 X163.937 Y153.827 E36.81547
G1 X164.296 Y153.477 E36.82797
G1 X164.437 Y153.293 E36.83376
G1 X164.548 Y153.106 E36.83918
G1 X164.633 Y152.901 E36.84472
G1 X164.681 Y152.704 E36.84977
G1 X164.699 Y152.493 E36.85506
G1 X164.680 Y152.294 E36.86004
G1 X164.630 Y152.097 E36.86511
G1 X164.542 Y151.894 E36.87063
G1 X164.430 Y151.707 E36.87607
G1 X164.279 Y151.511 E36.88224
G1 X163.911 Y151.163 E36.89488
G1 X163.688 Y150.995 E36.90184
G1 X163.197 Y150.692 E36.91623
G1 X162.565 Y150.382 E36.93379
G1 X161.866 Y150.106 E36.95254
G1 X161.082 Y149.852 E36.97310
G1 X160.580 Y149.712 E36.98610
G1 X159.715 Y149.505 E37.00828
G1 X159.212 Y149.401 E37.02110
G1 X158.692 Y149.305 E37.03429
G1 X158.122 Y149.212 E37.04869
G1 X157.205 Y149.086 E37.07178
G1 X156.623 Y149.018 E37.08640
G1 X156.025 Y148.960 E37.10139
G1 X154.873 Y148.875 E37.13020
G1 X153.765 Y148.826 E37.15787
G1 X152.419 Y148.805 E37.19145
G1 X151.408 Y148.820 E37.21667
G1 X150.231 Y148.868 E37.24606
G1 X149.144 Y148.946 E37.27324
G1 X148.476 Y149.007 E37.28997
G1 X147.901 Y149.070 E37.30440
G1 X147.327 Y149.145 E37.31884
G1 X146.768 Y149.228 E37.33294
G1 X146.259 Y149.312 E37.34581
G1 X145.328 Y149.494 E37.36947
G1 X144.812 Y149.612 E37.38268
G1 X143.969 Y149.835 E37.40443
G1 X143.178 Y150.088 E37.42515
G1 X142.473 Y150.364 E37.44403
G1 X141.826 Y150.677 E37.46196
G1 X141.315 Y150.990 E37.47691
G1 X140.891 Y151.331 E37.49048
G1 X140.701 Y151.530 E37.49734
G1 X140.555 Y151.724 E37.50340
G1 X140.447 Y151.909 E37.50874
G1 X140.366 Y152.101 E37.51394
G1 X140.315 Y152.301 E37.51909
G1 X140.298 Y152.510 E37.52432
G1 X140.317 Y152.722 E37.52963
G1 X140.369 Y152.919 E37.53471
G1 X140.451 Y153.111 E37.53992
G1 X140.573 Y153.313 E37.54581
G1 X140.886 Y153.674 E37.55773
G1 X141.298 Y154.009 E37.57097
G1 X141.808 Y154.322 E37.58590
G1 X142.431 Y154.628 E37.60321
G1 X143.130 Y154.904 E37.62196
G1 X143.915 Y155.158 E37.64254
G1 X144.811 Y155.397 E37.66568
G1 X145.327 Y155.515 E37.67888
G1 X146.257 Y155.696 E37.70251
G1 X146.767 Y155.781 E37.71541
G1 X147.327 Y155.864 E37.72953
G1 X147.900 Y155.939 E37.74395
G1 X148.406 Y155.995 E37.75665
G1 X148.988 Y156.052 E37.77124
G1 X150.124 Y156.135 E37.79965
G1 X151.231 Y156.184 E37.82729
G1 X152.416 Y156.203 E37.85685
G1 X152.580 Y156.204 E37.86094
G1 X153.588 Y156.190 E37.88609
G1 X154.766 Y156.142 E37.91550
G1 F1800 E36.11550
G1 Z0.900
G0 F12000 X155.224 Y157.712
G1 Z0.800
G1 F1800 E37.91550
G1 F1200 X154.395 Y157.757 E37.93621
G1 X153.563 Y157.785 E37.95698
G1 X152.724 Y157.797 E37.97791
G1 X152.607 Y157.798 E37.98083
G1 X151.887 Y157.794 E37.99879
G1 X151.044 Y157.774 E38.01982
G1 X150.202 Y157.736 E38.04085
G1 X149.366 Y157.684 E38.06174
G1 X148.547 Y157.615 E38.08224
G1 X147.732 Y157.528 E38.10269
G1 X146.945 Y157.426 E38.12249
G1 X146.170 Y157.305 E38.14205
G1 X145.429 Y157.171 E38.16084
G1 X144.852 Y157.048 E38.17555
G1 X144.195 Y156.895 E38.19238
G1 X143.570 Y156.728 E38.20852
G1 X142.980 Y156.548 E38.22391
G1 X142.404 Y156.347 E38.23912
G1 X141.869 Y156.131 E38.25352
G1 X141.344 Y155.887 E38.26796
G1 X140.877 Y155.635 E38.28120
G1 X140.373 Y155.316 E38.29607
G1 X140.063 Y155.086 E38.30570
G1 X139.653 Y154.714 E38.31951
G1 X139.453 Y154.487 E38.32706
G1 X139.263 Y154.234 E38.33495
G1 X138.992 Y153.762 E38.34853
G1 X138.823 Y153.307 E38.36064
G1 X138.725 Y152.824 E38.37293
G1 X138.704 Y152.560 E38.37954
G1 X138.708 Y152.307 E38.38585
G1 X138.743 Y152.010 E38.39331
G1 X138.795 Y151.775 E38.39931
G1 X138.953 Y151.327 E38.41116
G1 X139.183 Y150.899 E38.42328
G1 X139.460 Y150.524 E38.43491
G1 X139.837 Y150.127 E38.44857
G1 X140.096 Y149.900 E38.45716
G1 X140.334 Y149.720 E38.46460
G1 X140.832 Y149.398 E38.47940
G1 X141.666 Y148.973 E38.50275
G1 X142.202 Y148.745 E38.51728
G1 X142.794 Y148.527 E38.53301
G1 X143.379 Y148.338 E38.54835
G1 X144.017 Y148.161 E38.56487
G1 X144.677 Y147.998 E38.58182
G1 X145.384 Y147.848 E38.59985
G1 X146.127 Y147.712 E38.61870
G1 X146.836 Y147.600 E38.63660
G1 X147.539 Y147.505 E38.65430
G1 X148.194 Y147.429 E38.67075
G1 X148.858 Y147.364 E38.68739
G1 X149.529 Y147.311 E38.70418
G1 X150.216 Y147.270 E38.72135
G1 X150.907 Y147.238 E38.73860
G1 X152.203 Y147.211 E38.77094
G1 X152.403 Y147.208 E38.77593
G1 X153.597 Y147.222 E38.80571
G1 X154.989 Y147.280 E38.84047
G1 X155.788 Y147.335 E38.86045
G1 X156.466 Y147.393 E38.87742
G1 X157.143 Y147.465 E38.89440
G1 X157.802 Y147.548 E38.91097
G1 X158.608 Y147.667 E38.93130
G1 X159.380 Y147.802 E38.95085
G1 X160.135 Y147.956 E38.97007
G1 X160.874 Y148.130 E38.98901
G1 X161.579 Y148.325 E39.00725
G1 X162.245 Y148.539 E39.02470
G1 X162.890 Y148.782 E39.04190
G1 X163.437 Y149.021 E39.05679
G1 X164.081 Y149.349 E39.07481
G1 X164.680 Y149.727 E39.09248
G1 X164.970 Y149.952 E39.10164
G1 X165.434 Y150.401 E39.11775
G1 X165.788 Y150.860 E39.13221
G1 X166.015 Y151.273 E39.14396
G1 X166.191 Y151.752 E39.15669
G1 X166.284 Y152.246 E39.16923
G1 X166.298 Y152.507 E39.17575
G1 X166.267 Y152.912 E39.18588
G1 X166.161 Y153.374 E39.19771
G1 X165.974 Y153.827 E39.20993
G1 X165.726 Y154.240 E39.22195
G1 X165.588 Y154.425 E39.22771
G1 X165.220 Y154.827 E39.24130
G1 X164.812 Y155.179 E39.25474
G1 X164.117 Y155.639 E39.27553
G1 X163.605 Y155.910 E39.28998
G1 X163.079 Y156.146 E39.30437
G1 X162.549 Y156.358 E39.31860
G1 X161.942 Y156.569 E39.33464
G1 X161.297 Y156.763 E39.35144
G1 X160.639 Y156.937 E39.36841
G1 X159.941 Y157.095 E39.38627
G1 X159.231 Y157.234 E39.40431
G1 X158.495 Y157.358 E39.42293
G1 X157.679 Y157.477 E39.44350
G1 X156.878 Y157.572 E39.46362
G1 X156.132 Y157.644 E39.48232
G1 X155.224 Y157.712 E39.50503
G0 F12000 X155.200 Y157.173
;TYPE:SKIN
G1 F1200 X155.400 Y156.637 E39.51806
G1 X155.800 Y157.128 E39.53101
G1 X156.200 Y156.574 E39.54401
G1 X156.600 Y157.057 E39.55699
G1 X157.000 Y156.493 E39.57001
G1 X157.400 Y156.966 E39.58295
G1 X157.800 Y156.386 E39.59609
G1 X158.200 Y156.855 E39.60920
G1 X158.600 Y156.264 E39.62233
G1 X159.000 Y156.724 E39.63556
G1 X159.400 Y156.119 E39.64877
G1 X159.600 Y156.612 E39.66204
G1 F1800 E37.86204
G1 Z0.900
G0 F12000 X154.800 Y156.680
G1 Z0.800
G1 F1800 E39.66204
G1 F1200 X154.600 Y157.205 E39.67486
G1 X154.200 Y156.705 E39.68780
G1 X153.800 Y157.237 E39.70067
G1 X153.400 Y156.732 E39.71348
G1 X153.000 Y157.253 E39.72634
G1 X152.600 Y156.741 E39.73919
G1 X152.200 Y157.255 E39.75198
G1 X151.800 Y156.733 E39.76490
G1 X151.400 Y157.241 E39.77776
G1 X151.000 Y156.715 E39.79054
G1 X150.600 Y157.209 E39.80334
G1 X150.200 Y156.678 E39.81607
G1 X149.800 Y157.166 E39.82878
G1 X149.400 Y156.623 E39.84165
G1 X149.000 Y157.111 E39.85460
G1 X148.600 Y156.555 E39.86750
G1 X148.200 Y157.034 E39.88050
G1 X147.800 Y156.468 E39.89346
G1 X147.400 Y156.940 E39.90647
G1 X147.000 Y156.360 E39.91956
G1 X146.600 Y156.824 E39.93259
G1 X146.200 Y156.232 E39.94569
G1 X145.800 Y156.689 E39.95883
G1 X145.400 Y156.079 E39.97216
G1 X145.000 Y156.525 E39.98535
G1 X144.600 Y155.898 E39.99861
G1 X144.200 Y156.335 E40.01210
G1 X143.800 Y155.682 E40.02561
G1 X143.400 Y156.111 E40.03925
G1 X143.000 Y155.425 E40.05307
G1 X142.600 Y155.838 E40.06698
G1 X142.200 Y155.107 E40.08107
G1 X141.800 Y155.503 E40.09549
G1 X141.400 Y154.703 E40.11016
G1 X141.000 Y155.058 E40.12494
G1 X140.600 Y154.481 E40.14088
G1 X140.400 Y153.939 E40.15529
G0 F12000 X140.000 Y154.290
G1 F1200 X140.000 Y153.410 E40.17724
G1 F1800 E38.37724
G1 Z0.900
G0 F12000 X140.000 Y151.604
G1 Z0.800
G1 F1800 E40.17724
G1 F1200 X140.000 Y150.739 E40.19882
G0 F12000 X140.400 Y151.064
G1 F1200 X140.600 Y150.212 E40.21628
G1 X141.000 Y150.569 E40.23250
G1 X141.400 Y149.714 E40.24774
G1 X141.800 Y150.090 E40.26205
G1 X142.200 Y149.332 E40.27638
G1 X142.600 Y149.735 E40.29054
G1 X143.000 Y149.031 E40.30443
G1 X143.400 Y149.450 E40.31819
G1 X143.800 Y148.779 E40.33198
G1 X144.200 Y149.216 E40.34550
G1 X144.600 Y148.574 E40.35895
G1 X145.000 Y149.015 E40.37231
G1 X145.400 Y148.398 E40.38552
G1 X145.800 Y148.852 E40.39884
G1 X146.200 Y148.250 E40.41205
G1 X146.600 Y148.710 E40.42516
G1 X147.000 Y148.124 E40.43826
G1 X147.400 Y148.594 E40.45138
G1 X147.800 Y148.017 E40.46447
G1 X148.200 Y148.495 E40.47750
G1 X148.600 Y147.931 E40.49052
G1 X149.000 Y148.418 E40.50357
G1 X149.400 Y147.862 E40.51659
G1 X149.800 Y148.358 E40.52971
G1 X150.200 Y147.816 E40.54260
G1 X150.600 Y148.313 E40.55545
G1 X151.000 Y147.778 E40.56841
G1 X151.400 Y148.282 E40.58125
G1 X151.800 Y147.760 E40.59405
G1 X152.200 Y148.269 E40.60693
G1 X152.600 Y147.750 E40.61984
G1 X153.000 Y148.273 E40.63273
G1 X153.400 Y147.760 E40.64567
G1 X153.800 Y148.289 E40.65862
G1 X154.200 Y147.787 E40.67147
G1 X154.600 Y148.322 E40.68434
G1 X155.000 Y147.824 E40.69729
G1 X155.400 Y148.372 E40.71028
G1 X155.800 Y147.879 E40.72330
G1 X156.200 Y148.434 E40.73627
G1 X156.600 Y147.951 E40.74929
G1 X157.000 Y148.518 E40.76232
G1 X157.400 Y148.042 E40.77542
G1 X157.800 Y148.622 E40.78861
G1 X158.200 Y148.153 E40.80171
G1 X158.600 Y148.743 E40.81487
G1 X159.000 Y148.284 E40.82801
G1 X159.400 Y148.889 E40.84122
G1 X159.800 Y148.438 E40.85445
G1 X160.200 Y149.065 E40.86785
G1 X160.600 Y148.621 E40.88131
G1 X161.000 Y149.268 E40.89483
G1 X161.400 Y148.840 E40.90838
G1 X161.800 Y149.516 E40.92215
G1 X162.200 Y149.101 E40.93595
G1 X162.600 Y149.815 E40.94993
G1 X163.000 Y149.420 E40.96396
G1 X163.400 Y150.198 E40.97852
G1 X163.800 Y149.824 E40.99334
G1 X164.200 Y150.717 E41.00866
G1 X164.600 Y150.367 E41.02580
G1 X164.800 Y151.303 E41.04967
G0 F12000 X165.200 Y150.982
G1 F1200 X165.200 Y152.146 E41.07871
G0 F12000 X165.600 Y151.710
G1 F1200 X165.600 Y153.316 E41.11877
G0 F12000 X165.200 Y152.856
G1 F1200 X165.200 Y154.042 E41.14836
G0 F12000 X164.800 Y153.707
G1 F1200 X164.600 Y154.640 E41.16752
G1 X164.200 Y154.292 E41.18435
G1 X163.800 Y155.186 E41.19962
G1 X163.400 Y154.810 E41.21458
G1 X163.000 Y155.588 E41.22909
G1 X162.600 Y155.192 E41.24320
G1 X162.200 Y155.906 E41.25718
G1 X161.800 Y155.494 E41.27079
G1 X161.400 Y156.168 E41.28448
G1 X161.000 Y155.739 E41.29798
G1 X160.600 Y156.387 E41.31151
G1 X160.200 Y155.945 E41.32493
G1 X160.000 Y156.529 E41.34033
G1 F1800 E39.54033
G1 Z0.900
G0 F12000 X139.600 Y153.735
G1 Z0.800
G1 F1800 E41.34033
G1 F1200 X139.600 Y151.264 E41.40197
;LAYER:5
M106 S66
G0 F12000 X139.520 Y151.119 Z0.950
;TYPE:WALL-INNER
G1 F1200 X139.886 Y150.646 E41.41689
G1 X140.320 Y150.235 E41.43180
G1 X140.775 Y149.902 E41.44586
G1 X141.296 Y149.597 E41.46092
G1 X141.824 Y149.341 E41.47556
G1 X142.339 Y149.122 E41.48952
G1 X142.912 Y148.909 E41.50477
G1 X143.485 Y148.724 E41.51979
G1 X144.101 Y148.552 E41.53574
G1 X144.754 Y148.392 E41.55251
G1 X145.463 Y148.240 E41.57060
G1 X146.184 Y148.108 E41.58889
G1 X146.879 Y147.998 E41.60644
G1 X147.595 Y147.901 E41.62446
G1 X148.237 Y147.826 E41.64059
G1 X148.883 Y147.764 E41.65678
G1 X149.548 Y147.711 E41.67342
G1 X150.234 Y147.669 E41.69056
G1 X150.903 Y147.638 E41.70727
G1 X152.183 Y147.611 E41.73920
G1 X152.414 Y147.608 E41.74497
G1 X153.568 Y147.621 E41.77376
G1 X154.935 Y147.677 E41.80788
G1 X155.754 Y147.733 E41.82836
G1 X156.420 Y147.791 E41.84504
G1 X157.099 Y147.863 E41.86207
G1 X157.756 Y147.945 E41.87859
G1 X158.529 Y148.060 E41.89808
G1 X159.291 Y148.192 E41.91737
G1 X160.035 Y148.343 E41.93631
G1 X160.770 Y148.516 E41.95515
G1 X161.453 Y148.705 E41.97282
G1 X162.096 Y148.911 E41.98967
G1 X162.733 Y149.150 E42.00664
G1 X163.276 Y149.388 E42.02143
G1 X163.636 Y149.564 E42.03142
G1 X164.162 Y149.863 E42.04652
G1 X164.447 Y150.053 E42.05506
G1 X164.910 Y150.436 E42.07005
G1 X165.315 Y150.888 E42.08519
G1 X165.558 Y151.259 E42.09625
G1 X165.734 Y151.641 E42.10674
G1 X165.856 Y152.082 E42.11816
G1 X165.886 Y152.290 E42.12340
G1 X165.897 Y152.496 E42.12855
G1 X165.869 Y152.857 E42.13758
G1 X165.766 Y153.289 E42.14866
G1 X165.603 Y153.669 E42.15897
G1 X165.374 Y154.039 E42.16983
G1 X164.984 Y154.495 E42.18479
G1 X164.572 Y154.857 E42.19847
G1 X164.148 Y155.154 E42.21139
G1 X163.442 Y155.543 E42.23150
G1 X162.924 Y155.777 E42.24567
G1 X162.421 Y155.978 E42.25919
G1 X161.820 Y156.189 E42.27508
G1 X161.217 Y156.371 E42.29079
G1 X160.558 Y156.545 E42.30779
G1 X159.885 Y156.697 E42.32500
G1 X159.175 Y156.837 E42.34305
G1 X158.447 Y156.960 E42.36147
G1 X157.630 Y157.080 E42.38207
G1 X156.840 Y157.174 E42.40191
G1 X156.117 Y157.244 E42.42003
G1 X155.206 Y157.312 E42.44282
G1 X154.392 Y157.357 E42.46316
G1 X153.558 Y157.385 E42.48397
G1 X152.727 Y157.397 E42.50471
G1 X152.591 Y157.398 E42.50810
G1 X151.905 Y157.394 E42.52521
G1 X151.059 Y157.375 E42.54632
G1 X150.237 Y157.338 E42.56685
G1 X149.405 Y157.286 E42.58764
G1 X148.598 Y157.218 E42.60784
G1 X147.781 Y157.131 E42.62834
G1 X147.008 Y157.031 E42.64778
G1 X146.233 Y156.911 E42.66734
G1 X145.511 Y156.780 E42.68565
G1 X144.954 Y156.662 E42.69985
G1 X144.323 Y156.515 E42.71601
G1 X143.689 Y156.346 E42.73238
G1 X143.118 Y156.172 E42.74727
G1 X142.556 Y155.976 E42.76212
G1 X142.035 Y155.767 E42.77612
G1 X141.529 Y155.532 E42.79004
G1 X140.612 Y154.994 E42.81656
G1 X140.133 Y154.620 E42.83172
G1 X139.756 Y154.226 E42.84532
G1 X139.601 Y154.018 E42.85179
G1 X139.354 Y153.589 E42.86414
G1 X139.211 Y153.205 E42.87436
G1 X139.123 Y152.774 E42.88534
G1 X139.104 Y152.535 E42.89132
G1 X139.107 Y152.344 E42.89608
G1 X139.178 Y151.900 E42.90730
G1 X139.320 Y151.491 E42.91810
G1 X139.520 Y151.119 E42.92863
G0 F12000 X140.221 Y151.504
G1 F1200 X140.087 Y151.733 E42.93525
G1 X139.986 Y151.974 E42.94177
G1 X139.919 Y152.234 E42.94847
G1 X139.897 Y152.515 E42.95550
G1 X139.923 Y152.795 E42.96251
G1 X139.991 Y153.049 E42.96907
G1 X140.094 Y153.294 E42.97570
G1 X140.240 Y153.536 E42.98275
G1 X140.415 Y153.763 E42.98990
G1 X140.821 Y154.150 E43.00389
G1 X141.095 Y154.354 E43.01242
G1 X141.608 Y154.669 E43.02743
G1 X142.619 Y155.139 E43.05524
G1 X143.382 Y155.413 E43.07547
G1 X144.221 Y155.660 E43.09728
G1 X144.749 Y155.794 E43.11087
G1 X145.685 Y155.997 E43.13476
G1 X146.220 Y156.096 E43.14834
G1 X146.829 Y156.195 E43.16373
G1 X147.718 Y156.318 E43.18611
G1 X148.400 Y156.397 E43.20324
G1 X148.952 Y156.450 E43.21707
G1 X150.096 Y156.534 E43.24569
G1 X151.202 Y156.584 E43.27331
G1 X152.396 Y156.603 E43.30309
G1 X152.597 Y156.604 E43.30811
G1 X153.581 Y156.591 E43.33266
G1 X154.772 Y156.542 E43.36239
G1 X155.854 Y156.465 E43.38945
G1 X156.573 Y156.400 E43.40746
G1 X157.141 Y156.337 E43.42171
G1 X157.726 Y156.259 E43.43644
G1 X158.302 Y156.175 E43.45096
G1 X159.250 Y156.009 E43.47496
G1 X159.770 Y155.902 E43.48821
G1 X160.323 Y155.776 E43.50236
G1 X161.137 Y155.559 E43.52337
G1 X161.947 Y155.301 E43.54458
G1 X162.676 Y155.016 E43.56410
G1 X163.362 Y154.685 E43.58310
G1 X163.919 Y154.344 E43.59939
G1 X164.383 Y153.968 E43.61429
G1 X164.618 Y153.718 E43.62285
G1 X164.900 Y153.301 E43.63541
G1 X165.015 Y153.024 E43.64289
G1 X165.077 Y152.767 E43.64948
G1 X165.100 Y152.488 E43.65647
G1 X165.074 Y152.220 E43.66318
G1 X165.002 Y151.951 E43.67013
G1 X164.898 Y151.708 E43.67672
G1 X164.759 Y151.479 E43.68340
G1 X164.583 Y151.252 E43.69057
G1 X164.173 Y150.859 E43.70474
G1 X163.679 Y150.508 E43.71985
G1 X163.101 Y150.190 E43.73631
G1 X162.379 Y149.870 E43.75601
G1 X161.614 Y149.597 E43.77627
G1 X160.775 Y149.350 E43.79809
G1 X160.267 Y149.221 E43.81116
G1 X159.730 Y149.099 E43.82490
G1 X158.799 Y148.917 E43.84856
G1 X158.168 Y148.815 E43.86451
G1 X157.275 Y148.692 E43.88699
G1 X156.679 Y148.622 E43.90196
G1 X156.065 Y148.561 E43.91736
G1 X154.900 Y148.476 E43.94649
G1 X153.795 Y148.427 E43.97409
G1 X152.404 Y148.405 E44.00879
G1 X151.415 Y148.419 E44.03346
G1 X150.226 Y148.468 E44.06315
G1 X149.142 Y148.544 E44.09025
G1 X148.443 Y148.608 E44.10776
G1 X147.857 Y148.673 E44.12247
G1 X147.269 Y148.750 E44.13726
G1 X146.697 Y148.834 E44.15169
G1 X146.179 Y148.921 E44.16479
G1 X145.249 Y149.102 E44.18842
G1 X144.712 Y149.224 E44.20216
G1 X143.859 Y149.450 E44.22417
G1 X143.049 Y149.709 E44.24538
G1 X142.320 Y149.994 E44.26491
G1 X141.635 Y150.325 E44.28389
G1 X141.108 Y150.647 E44.29929
G1 X140.803 Y150.874 E44.30878
G1 X140.402 Y151.264 E44.32273
G1 X140.221 Y151.504 E44.33023
G0 F12000 X140.554 Y151.726
;TYPE:WALL-OUTER
G1 F1200 X140.446 Y151.912 E44.33560
G1 X140.366 Y152.102 E44.34074
G1 X140.315 Y152.300 E44.34584
G1 X140.298 Y152.512 E44.35114
G1 X140.318 Y152.724 E44.35646
G1 X140.370 Y152.920 E44.36151
G1 X140.451 Y153.112 E44.36671
G1 X140.571 Y153.310 E44.37249
G1 X140.713 Y153.494 E44.37828
G1 X141.080 Y153.844 E44.39094
G1 X141.320 Y154.023 E44.39840
G1 X141.805 Y154.320 E44.41259
G1 X142.766 Y154.767 E44.43903
G1 X143.506 Y155.032 E44.45864
G1 X144.327 Y155.274 E44.47999
G1 X144.841 Y155.405 E44.49322
G1 X145.764 Y155.605 E44.51678
G1 X146.289 Y155.702 E44.53010
G1 X146.888 Y155.800 E44.54524
G1 X147.771 Y155.921 E44.56747
G1 X148.441 Y155.999 E44.58430
G1 X148.986 Y156.051 E44.59795
G1 X150.120 Y156.135 E44.62632
G1 X151.214 Y156.184 E44.65363
G1 X152.400 Y156.203 E44.68322
G1 X152.596 Y156.204 E44.68811
G1 X153.570 Y156.191 E44.71241
G1 X154.749 Y156.143 E44.74185
G1 X155.822 Y156.066 E44.76868
G1 X156.533 Y156.002 E44.78649
G1 X157.092 Y155.940 E44.80052
G1 X157.671 Y155.863 E44.81509
G1 X158.239 Y155.780 E44.82941
G1 X159.175 Y155.616 E44.85311
G1 X159.685 Y155.511 E44.86610
G1 X160.227 Y155.387 E44.87997
G1 X161.025 Y155.175 E44.90057
G1 X161.814 Y154.924 E44.92122
G1 X162.516 Y154.649 E44.94003
G1 X163.170 Y154.334 E44.95814
G1 X163.688 Y154.017 E44.97329
G1 X164.110 Y153.674 E44.98685
G1 X164.305 Y153.467 E44.99394
G1 X164.546 Y153.110 E45.00469
G1 X164.634 Y152.899 E45.01039
G1 X164.681 Y152.703 E45.01542
G1 X164.699 Y152.491 E45.02073
G1 X164.679 Y152.291 E45.02574
G1 X164.623 Y152.082 E45.03114
G1 X164.541 Y151.891 E45.03632
G1 X164.429 Y151.706 E45.04172
G1 X164.280 Y151.513 E45.04780
G1 X163.897 Y151.151 E45.06095
G1 X163.466 Y150.848 E45.07409
G1 X162.923 Y150.549 E45.08955
G1 X162.230 Y150.242 E45.10846
G1 X161.490 Y149.978 E45.12806
G1 X160.669 Y149.736 E45.14941
G1 X160.173 Y149.610 E45.16217
G1 X159.647 Y149.490 E45.17563
G1 X158.728 Y149.311 E45.19899
G1 X158.109 Y149.210 E45.21463
G1 X157.224 Y149.089 E45.23692
G1 X156.636 Y149.020 E45.25168
G1 X156.030 Y148.960 E45.26687
G1 X154.877 Y148.875 E45.29571
G1 X153.783 Y148.827 E45.32303
G1 X152.403 Y148.805 E45.35746
G1 X151.426 Y148.819 E45.38183
G1 X150.248 Y148.867 E45.41124
G1 X149.174 Y148.943 E45.43810
G1 X148.484 Y149.006 E45.45538
G1 X147.905 Y149.070 E45.46992
G1 X147.324 Y149.146 E45.48453
G1 X146.759 Y149.229 E45.49878
G1 X146.250 Y149.314 E45.51165
G1 X145.332 Y149.493 E45.53498
G1 X144.807 Y149.613 E45.54842
G1 X143.971 Y149.834 E45.56999
G1 X143.183 Y150.086 E45.59062
G1 X142.480 Y150.361 E45.60945
G1 X141.827 Y150.676 E45.62754
G1 X141.325 Y150.984 E45.64223
G1 X141.064 Y151.178 E45.65034
G1 X140.703 Y151.529 E45.66290
G1 X140.554 Y151.726 E45.66906
G1 F1800 E43.86906
G1 Z1.050
G0 F12000 X139.182 Y150.903
G1 Z0.950
G1 F1800 E45.66906
G1 F1200 X139.588 Y150.378 E45.68562
G1 X140.066 Y149.925 E45.70205
G1 X140.554 Y149.568 E45.71713
G1 X141.115 Y149.240 E45.73334
G1 X141.657 Y148.977 E45.74837
G1 X142.191 Y148.750 E45.76284
G1 X142.785 Y148.530 E45.77864
G1 X143.367 Y148.342 E45.79390
G1 X144.003 Y148.164 E45.81038
G1 X144.665 Y148.001 E45.82738
G1 X145.379 Y147.849 E45.84559
G1 X146.121 Y147.713 E45.86441
G1 X146.821 Y147.602 E45.88209
G1 X147.538 Y147.505 E45.90014
G1 X148.191 Y147.429 E45.91654
G1 X148.854 Y147.365 E45.93315
G1 X149.523 Y147.311 E45.94990
G1 X150.209 Y147.270 E45.96704
G1 X150.899 Y147.238 E45.98427
G1 X152.174 Y147.211 E46.01608
G1 X152.414 Y147.208 E46.02207
G1 X153.567 Y147.221 E46.05083
G1 X154.962 Y147.279 E46.08566
G1 X155.783 Y147.334 E46.10619
G1 X156.462 Y147.393 E46.12319
G1 X157.141 Y147.465 E46.14022
G1 X157.802 Y147.548 E46.15684
G1 X158.602 Y147.667 E46.17701
G1 X159.370 Y147.800 E46.19646
G1 X160.123 Y147.953 E46.21562
G1 X160.862 Y148.127 E46.23456
G1 X161.568 Y148.322 E46.25283
G1 X162.237 Y148.536 E46.27035
G1 X162.886 Y148.780 E46.28765
G1 X163.429 Y149.018 E46.30244
G1 X163.828 Y149.213 E46.31352
G1 X164.381 Y149.528 E46.32939
G1 X164.683 Y149.729 E46.33844
G1 X165.185 Y150.145 E46.35471
G1 X165.637 Y150.648 E46.37158
G1 X165.907 Y151.061 E46.38388
G1 X166.111 Y151.504 E46.39605
G1 X166.249 Y152.004 E46.40899
G1 X166.284 Y152.246 E46.41509
G1 X166.298 Y152.506 E46.42158
G1 X166.266 Y152.917 E46.43187
G1 X166.148 Y153.410 E46.44451
G1 X165.955 Y153.861 E46.45675
G1 X165.701 Y154.273 E46.46882
G1 X165.267 Y154.778 E46.48543
G1 X164.822 Y155.171 E46.50024
G1 X164.362 Y155.492 E46.51424
G1 X163.611 Y155.906 E46.53563
G1 X163.088 Y156.142 E46.54994
G1 X162.566 Y156.351 E46.56397
G1 X161.950 Y156.567 E46.58025
G1 X161.319 Y156.758 E46.59670
G1 X160.654 Y156.933 E46.61385
G1 X159.957 Y157.091 E46.63168
G1 X159.241 Y157.232 E46.64988
G1 X158.514 Y157.355 E46.66827
G1 X157.689 Y157.476 E46.68907
G1 X156.887 Y157.571 E46.70922
G1 X156.155 Y157.642 E46.72756
G1 X155.228 Y157.712 E46.75075
G1 X154.401 Y157.757 E46.77141
G1 X153.571 Y157.785 E46.79213
G1 X152.733 Y157.797 E46.81304
G1 X152.592 Y157.798 E46.81655
G1 X151.896 Y157.794 E46.83392
G1 X151.055 Y157.775 E46.85490
G1 X150.212 Y157.737 E46.87595
G1 X149.376 Y157.685 E46.89684
G1 X148.555 Y157.616 E46.91740
G1 X147.738 Y157.529 E46.93789
G1 X146.949 Y157.427 E46.95774
G1 X146.172 Y157.306 E46.97735
G1 X145.423 Y157.170 E46.99634
G1 X144.871 Y157.053 E47.01042
G1 X144.213 Y156.900 E47.02727
G1 X143.586 Y156.733 E47.04346
G1 X142.994 Y156.552 E47.05890
G1 X142.421 Y156.352 E47.07404
G1 X141.879 Y156.135 E47.08860
G1 X141.348 Y155.889 E47.10320
G1 X140.883 Y155.638 E47.11638
G1 X140.382 Y155.322 E47.13116
G1 X139.869 Y154.921 E47.14740
G1 X139.612 Y154.667 E47.15641
G1 X139.453 Y154.487 E47.16240
G1 X139.263 Y154.234 E47.17030
G1 X138.990 Y153.758 E47.18399
G1 X138.825 Y153.316 E47.19575
G1 X138.726 Y152.831 E47.20810
G1 X138.704 Y152.559 E47.21491
G1 X138.708 Y152.310 E47.22112
G1 X138.788 Y151.802 E47.23395
G1 X138.953 Y151.328 E47.24647
G1 X139.182 Y150.903 E47.25851
G0 F12000 X139.633 Y151.200
;TYPE:SKIN
G1 F1200 X140.136 Y151.400 E47.27448
G1 X139.366 Y151.800 E47.28866
G1 X139.798 Y152.200 E47.30187
G1 X139.258 Y152.600 E47.31478
G1 X139.842 Y153.000 E47.32758
G1 X139.439 Y153.400 E47.34118
G1 X140.288 Y153.800 E47.35599
G1 X139.762 Y154.000 E47.37003
G1 F1800 E45.57003
G1 Z1.050
G0 F12000 X139.942 Y150.800
G1 Z0.950
G1 F1800 E47.37003
G1 F1200 X140.676 Y150.800 E47.38834
G0 F12000 X140.349 Y150.400
G1 F1200 X141.240 Y150.400 E47.41056
G0 F12000 X140.883 Y150.000
G1 F1200 X141.983 Y150.000 E47.43800
G0 F12000 X141.607 Y149.600
G1 F1200 X142.939 Y149.600 E47.47123
G0 F12000 X142.526 Y149.200
G1 F1200 X144.251 Y149.200 E47.51426
G0 F12000 X143.731 Y148.800
G1 F1200 X146.060 Y148.800 E47.57236
G0 F12000 X145.380 Y148.400
G1 F1200 X149.186 Y148.400 E47.66730
G0 F12000 X147.945 Y148.000
G1 F1200 X157.075 Y148.000 E47.89505
G0 F12000 X155.789 Y148.400
G1 F1200 X159.617 Y148.400 E47.99054
G0 F12000 X158.933 Y148.800
G1 F1200 X161.275 Y148.800 E48.04896
G0 F12000 X160.754 Y149.200
G1 F1200 X162.472 Y149.200 E48.09181
G0 F12000 X162.039 Y149.600
G1 F1200 X163.391 Y149.600 E48.12554
G0 F12000 X163.018 Y150.000
G1 F1200 X164.117 Y150.000 E48.15295
G0 F12000 X163.769 Y150.400
G1 F1200 X164.648 Y150.400 E48.17488
G0 F12000 X164.314 Y150.800
G1 F1200 X165.201 Y151.000 E48.19320
G1 X164.858 Y151.400 E48.20900
G1 X165.624 Y151.800 E48.22307
G1 X165.194 Y152.200 E48.23629
G1 X165.741 Y152.600 E48.24926
G1 X165.153 Y153.000 E48.26217
G1 X165.559 Y153.400 E48.27585
G1 X164.704 Y153.800 E48.29116
G1 X165.221 Y154.000 E48.30499
G0 F12000 X164.877 Y154.400
G1 F1200 X164.070 Y154.400 E48.32512
G0 F12000 X164.406 Y154.800
G1 F1200 X163.441 Y154.800 E48.34919
G0 F12000 X163.771 Y155.200
G1 F1200 X162.586 Y155.200 E48.37875
G0 F12000 X162.972 Y155.600
G1 F1200 X161.467 Y155.600 E48.41629
G0 F12000 X161.931 Y156.000
G1 F1200 X159.961 Y156.000 E48.46543
G0 F12000 X160.553 Y156.400
G1 F1200 X157.698 Y156.400 E48.53665
G0 F12000 X158.545 Y156.800
G1 F1200 X146.440 Y156.800 E48.83861
G0 F12000 X147.294 Y156.400
G1 F1200 X144.450 Y156.400 E48.90956
G0 F12000 X145.044 Y156.000
G1 F1200 X143.052 Y156.000 E48.95925
G0 F12000 X143.526 Y155.600
G1 F1200 X142.008 Y155.600 E48.99711
G0 F12000 X142.419 Y155.200
G1 F1200 X141.241 Y155.200 E49.02650
G0 F12000 X141.560 Y154.800
G1 F1200 X140.590 Y154.800 E49.05069
G0 F12000 X140.923 Y154.400
G1 F1200 X140.116 Y154.400 E49.07083
G1 F1800 E47.27083
G1 Z1.050
G0 F12000 X150.311 Y157.200
G1 Z0.950
G1 F1800 E49.07083
G1 F1200 X154.669 Y157.200 E49.17954
;LAYER:6
M106 S79
G0 F12000 X153.654 Y157.241 Z1.100
;TYPE:FILL
G1 F1200 X152.788 Y156.741 E49.20448
G1 F1800 E47.40448
G1 Z1.200
G0 F12000 X150.752 Y156.704
G1 Z1.100
G1 F1800 E49.20448
G1 F1200 X150.752 Y157.220 E49.21735
G0 F12000 X150.752 Y148.307
G1 F1200 X150.752 Y147.786 E49.23035
G1 F1800 E47.43035
G1 Z1.200
G0 F12000 X152.770 Y148.271
G1 Z1.100
G1 F1800 E49.23035
G1 F1200 X153.647 Y147.765 E49.25561
G1 F1800 E47.45561
G1 Z1.200
G0 F12000 X141.521 Y150.236
G1 Z1.100
G1 F1800 E49.25561
G1 F1200 X140.996 Y149.933 E49.27073
G0 F12000 X141.515 Y154.769
G1 F1200 X141.005 Y155.064 E49.28542
G1 F1800 E47.48542
G1 Z1.200
G0 F12000 X163.004 Y155.013
G1 Z1.100
G1 F1800 E49.28542
G1 F1200 X163.004 Y155.588 E49.29977
G0 F12000 X163.004 Y149.996
G1 F1200 X163.004 Y149.421 E49.31411
G0 F12000 X163.248 Y149.375
;TYPE:WALL-INNER
G1 F1200 X163.873 Y149.692 E49.33159
G1 X164.436 Y150.046 E49.34818
G1 X164.914 Y150.439 E49.36362
G1 X165.146 Y150.680 E49.37196
G1 X165.452 Y151.081 E49.38455
G1 X165.650 Y151.443 E49.39484
G1 X165.809 Y151.870 E49.40620
G1 X165.854 Y152.066 E49.41122
G1 X165.886 Y152.290 E49.41686
G1 X165.897 Y152.495 E49.42199
G1 X165.868 Y152.866 E49.43127
G1 X165.764 Y153.296 E49.44230
G1 X165.713 Y153.435 E49.44600
G1 X165.513 Y153.828 E49.45700
G1 X165.271 Y154.180 E49.46765
G1 X164.941 Y154.540 E49.47984
G1 X164.577 Y154.853 E49.49181
G1 X164.153 Y155.151 E49.50474
G1 X163.451 Y155.539 E49.52475
G1 X162.932 Y155.774 E49.53896
G1 X162.437 Y155.971 E49.55225
G1 X161.848 Y156.179 E49.56783
G1 X161.215 Y156.371 E49.58433
G1 X160.578 Y156.539 E49.60076
G1 X159.900 Y156.694 E49.61811
G1 X159.197 Y156.833 E49.63599
G1 X158.460 Y156.958 E49.65464
G1 X157.639 Y157.079 E49.67534
G1 X156.850 Y157.173 E49.69516
G1 X156.139 Y157.242 E49.71298
G1 X155.210 Y157.311 E49.73622
G1 X154.399 Y157.357 E49.75648
G1 X153.566 Y157.385 E49.77727
G1 X152.737 Y157.397 E49.79795
G1 X152.576 Y157.398 E49.80197
G1 X151.916 Y157.395 E49.81843
G1 X151.070 Y157.375 E49.83954
G1 X150.247 Y157.338 E49.86009
G1 X149.414 Y157.286 E49.88091
G1 X148.605 Y157.218 E49.90116
G1 X147.786 Y157.131 E49.92171
G1 X147.005 Y157.030 E49.94135
G1 X146.234 Y156.911 E49.96081
G1 X145.512 Y156.780 E49.97912
G1 X144.975 Y156.666 E49.99281
G1 X144.328 Y156.516 E50.00938
G1 X143.708 Y156.351 E50.02538
G1 X143.139 Y156.179 E50.04021
G1 X142.569 Y155.981 E50.05526
G1 X142.047 Y155.772 E50.06929
G1 X141.526 Y155.531 E50.08361
G1 X140.617 Y154.998 E50.10989
G1 X140.140 Y154.626 E50.12498
G1 X139.752 Y154.221 E50.13897
G1 X139.598 Y154.014 E50.14541
G1 X139.346 Y153.574 E50.15806
G1 X139.201 Y153.170 E50.16877
G1 X139.119 Y152.744 E50.17959
G1 X139.104 Y152.535 E50.18482
G1 X139.108 Y152.316 E50.19028
G1 X139.128 Y152.137 E50.19477
G1 X139.242 Y151.686 E50.20638
G1 X139.411 Y151.306 E50.21675
G1 X139.643 Y150.940 E50.22756
G1 X139.945 Y150.584 E50.23921
G1 X140.317 Y150.237 E50.25190
G1 X140.776 Y149.901 E50.26609
G1 X141.289 Y149.600 E50.28092
G1 X141.805 Y149.349 E50.29524
G1 X142.329 Y149.126 E50.30944
G1 X142.911 Y148.910 E50.32493
G1 X143.472 Y148.728 E50.33964
G1 X144.088 Y148.556 E50.35559
G1 X144.747 Y148.393 E50.37253
G1 X145.451 Y148.243 E50.39048
G1 X146.177 Y148.109 E50.40890
G1 X146.869 Y148.000 E50.42637
G1 X147.582 Y147.902 E50.44433
G1 X148.234 Y147.827 E50.46070
G1 X148.881 Y147.764 E50.47691
G1 X149.543 Y147.712 E50.49348
G1 X150.228 Y147.669 E50.51060
G1 X150.896 Y147.638 E50.52728
G1 X152.154 Y147.611 E50.55867
G1 X152.427 Y147.608 E50.56548
G1 X153.521 Y147.620 E50.59277
G1 X154.920 Y147.677 E50.62770
G1 X155.749 Y147.732 E50.64842
G1 X156.416 Y147.790 E50.66512
G1 X157.097 Y147.862 E50.68221
G1 X157.756 Y147.945 E50.69878
G1 X158.524 Y148.059 E50.71814
G1 X159.281 Y148.190 E50.73731
G1 X160.038 Y148.344 E50.75658
G1 X160.758 Y148.513 E50.77503
G1 X161.436 Y148.700 E50.79257
G1 X162.087 Y148.908 E50.80962
G1 X162.735 Y149.151 E50.82688
G1 X163.248 Y149.375 E50.84085
G0 F12000 X162.730 Y150.018
G1 F1200 X162.011 Y149.733 E50.86014
G1 X161.215 Y149.475 E50.88101
G1 X160.700 Y149.329 E50.89437
G1 X159.813 Y149.116 E50.91712
G1 X159.292 Y149.009 E50.93039
G1 X158.757 Y148.910 E50.94396
G1 X158.155 Y148.813 E50.95917
G1 X157.293 Y148.694 E50.98088
G1 X156.692 Y148.623 E50.99597
G1 X156.071 Y148.562 E51.01154
G1 X154.904 Y148.476 E51.04073
G1 X153.813 Y148.428 E51.06797
G1 X152.621 Y148.408 E51.09771
G1 X152.385 Y148.405 E51.10360
G1 X151.435 Y148.419 E51.12730
G1 X150.244 Y148.467 E51.15703
G1 X149.172 Y148.542 E51.18384
G1 X148.452 Y148.607 E51.20187
G1 X147.860 Y148.672 E51.21673
G1 X147.267 Y148.750 E51.23165
G1 X146.688 Y148.835 E51.24625
G1 X146.172 Y148.922 E51.25930
G1 X145.253 Y149.101 E51.28265
G1 X144.747 Y149.217 E51.29560
G1 X144.213 Y149.351 E51.30934
G1 X143.447 Y149.576 E51.32925
G1 X142.680 Y149.846 E51.34954
G1 X141.996 Y150.141 E51.36812
G1 X141.354 Y150.486 E51.38630
G1 X140.829 Y150.852 E51.40226
G1 X140.402 Y151.264 E51.41706
G1 X140.219 Y151.506 E51.42463
G1 X140.085 Y151.735 E51.43125
G1 X139.986 Y151.975 E51.43773
G1 X139.919 Y152.234 E51.44440
G1 X139.897 Y152.516 E51.45146
G1 X139.923 Y152.798 E51.45852
G1 X139.991 Y153.053 E51.46510
G1 X140.095 Y153.296 E51.47170
G1 X140.242 Y153.539 E51.47878
G1 X140.415 Y153.763 E51.48584
G1 X140.810 Y154.142 E51.49950
G1 X141.327 Y154.506 E51.51527
G1 X141.888 Y154.816 E51.53126
G1 X142.614 Y155.138 E51.55107
G1 X143.375 Y155.410 E51.57123
G1 X144.211 Y155.657 E51.59298
G1 X144.746 Y155.793 E51.60675
G1 X145.252 Y155.908 E51.61969
G1 X146.171 Y156.086 E51.64304
G1 X146.686 Y156.174 E51.65607
G1 X147.268 Y156.259 E51.67075
G1 X147.859 Y156.336 E51.68561
G1 X148.401 Y156.397 E51.69922
G1 X148.951 Y156.450 E51.71300
G1 X150.092 Y156.534 E51.74154
G1 X151.184 Y156.583 E51.76881
G1 X152.379 Y156.603 E51.79862
G1 X152.615 Y156.604 E51.80451
G1 X153.562 Y156.591 E51.82813
G1 X154.753 Y156.542 E51.85787
G1 X155.824 Y156.468 E51.88465
G1 X156.569 Y156.401 E51.90331
G1 X157.138 Y156.337 E51.91759
G1 X157.728 Y156.259 E51.93244
G1 X158.311 Y156.174 E51.94713
G1 X159.246 Y156.010 E51.97081
G1 X159.769 Y155.903 E51.98413
G1 X160.335 Y155.772 E51.99862
G1 X161.135 Y155.560 E52.01927
G1 X161.943 Y155.302 E52.04042
G1 X162.669 Y155.019 E52.05986
G1 X163.361 Y154.686 E52.07902
G1 X163.917 Y154.345 E52.09529
G1 X164.382 Y153.969 E52.11021
G1 X164.609 Y153.728 E52.11846
G1 X164.771 Y153.514 E52.12516
G1 X164.913 Y153.271 E52.13218
G1 X165.015 Y153.021 E52.13892
G1 X165.077 Y152.766 E52.14546
G1 X165.100 Y152.486 E52.15247
G1 X165.074 Y152.218 E52.15919
G1 X165.001 Y151.946 E52.16621
G1 X164.897 Y151.706 E52.17274
G1 X164.752 Y151.465 E52.17975
G1 X164.393 Y151.049 E52.19346
G1 X163.918 Y150.666 E52.20868
G1 X163.398 Y150.346 E52.22391
G1 X162.730 Y150.018 E52.24248
G0 F12000 X162.568 Y150.384
;TYPE:WALL-OUTER
G1 F1200 X161.876 Y150.110 E52.26104
G1 X161.099 Y149.858 E52.28142
G1 X160.599 Y149.716 E52.29438
G1 X159.726 Y149.507 E52.31678
G1 X159.215 Y149.402 E52.32979
G1 X158.688 Y149.304 E52.34316
G1 X158.096 Y149.208 E52.35812
G1 X157.242 Y149.091 E52.37962
G1 X156.649 Y149.021 E52.39452
G1 X156.036 Y148.961 E52.40988
G1 X154.881 Y148.875 E52.43877
G1 X153.801 Y148.828 E52.46574
G1 X152.386 Y148.805 E52.50104
G1 X151.446 Y148.819 E52.52449
G1 X150.266 Y148.866 E52.55395
G1 X149.204 Y148.941 E52.58051
G1 X148.492 Y149.005 E52.59834
G1 X147.908 Y149.069 E52.61300
G1 X147.322 Y149.146 E52.62774
