;FLAVOR:Repetier
;TIME:2387
;Generated with Cura_SteamEngine 2.5.0
M190 S50
M104 S185
M109 S185
G28 ;Home
G1 Z15.0 F6000 ;Move the platform down 15mm
;Prime the extruder
G92 E0
G1 F200 E3
G92 E0
;LAYER_COUNT:79
;LAYER:0
M107
G0 F5400 X2.246 Y16.032 Z0.3
;TYPE:SKIRT
G1 F1800 X-3.158 Y15.883 E0.33714
G1 X-8.579 Y16.041 E0.67535
G1 X-13.962 Y16.502 E1.01228
G1 X-19.343 Y17.273 E1.35128
G1 X-23.527 Y18.086 E1.61708
G1 X-24.024 Y18.152 E1.64835
G1 X-24.699 Y18.202 E1.69056
G1 X-25.282 Y18.205 E1.72692
G1 X-25.691 Y18.16 E1.75258
G1 X-26.941 Y17.958 E1.83154
G1 X-27.509 Y17.825 E1.86792
G1 X-28.151 Y17.57 E1.911
G1 X-29.234 Y17.033 E1.98639
G1 X-29.737 Y16.739 E2.02272
G1 X-30.249 Y16.329 E2.06363
G1 X-31.157 Y15.48 E2.14115
G1 X-31.554 Y15.054 E2.17746
G1 X-31.934 Y14.502 E2.21926
G1 X-34.807 Y9.531 E2.57731
G1 X-37.579 Y5.114 E2.90252
G1 X-37.854 Y4.601 E2.93882
G1 X-38.056 Y4.054 E2.97518
G1 X-38.182 Y3.485 E3.01153
G1 X-38.229 Y2.904 E3.04788
G1 X-38.196 Y2.323 E3.08417
G1 X-38.136 Y1.97 E3.1065
G1 X-36.562 Y-5.42 E3.5777
G1 X-36.402 Y-5.981 E3.61408
G1 X-36.188 Y-6.472 E3.64748
G1 X-34.698 Y-9.382 E3.85136
G1 X-32.284 Y-14.465 E4.20228
G1 X-31.999 Y-14.973 E4.23861
G1 X-31.548 Y-15.546 E4.28408
G1 X-30.7 Y-16.452 E4.36147
G1 X-30.273 Y-16.849 E4.39783
G1 X-29.96 Y-17.08 E4.42209
G1 X-29.383 Y-17.466 E4.46539
G1 X-28.878 Y-17.756 E4.5017
G1 X-28.494 Y-17.92 E4.52774
G1 X-27.326 Y-18.352 E4.6054
G1 X-26.767 Y-18.516 E4.64173
G1 X-26.398 Y-18.581 E4.6651
G1 X-25.781 Y-18.661 E4.7039
G1 X-25.136 Y-18.695 E4.74418
G1 X-24.449 Y-18.679 E4.78703
G1 X-23.717 Y-18.598 E4.83296
G1 X-20.551 Y-17.967 E5.03429
G1 X-15.164 Y-17.109 E5.37447
G1 X-9.785 Y-16.56 E5.71166
G1 X-4.368 Y-16.316 E6.04982
G1 X1.053 Y-16.379 E6.38791
G1 X6.449 Y-16.748 E6.72521
G1 X11.83 Y-17.422 E7.06341
G1 X17.15 Y-18.397 E7.4007
G1 X22.12 Y-19.588 E7.71942
G1 X22.621 Y-19.677 E7.75115
G1 X23.872 Y-19.822 E7.82969
G1 X24.454 Y-19.849 E7.86602
G1 X25.132 Y-19.779 E7.90853
G1 X26.395 Y-19.546 E7.98862
G1 X26.96 Y-19.402 E8.02499
G1 X27.607 Y-19.126 E8.06885
G1 X28.693 Y-18.553 E8.14543
G1 X29.189 Y-18.246 E8.1818
G1 X29.696 Y-17.818 E8.22318
G1 X30.575 Y-16.95 E8.30022
G1 X30.961 Y-16.513 E8.33658
G1 X31.25 Y-16.085 E8.36879
G1 X31.697 Y-15.327 E8.42367
G1 X31.908 Y-14.921 E8.4522
G1 X34.203 Y-9.854 E8.7991
G1 X35.915 Y-6.5 E9.03393
G1 X36.144 Y-5.964 E9.07028
G1 X36.28 Y-5.482 E9.10151
G1 X37.864 Y1.703 E9.56035
G1 X37.95 Y2.279 E9.59667
G1 X37.957 Y2.853 E9.63247
G1 X37.94 Y3.16 E9.65164
G1 X37.868 Y3.738 E9.68797
G1 X37.718 Y4.301 E9.7243
G1 X37.492 Y4.838 E9.76064
G1 X37.271 Y5.224 E9.78837
G1 X36.116 Y7.019 E9.92149
G1 X33.339 Y11.73 E10.26252
G1 X31.454 Y15.267 E10.51247
G1 X31.134 Y15.776 E10.54996
G1 X30.74 Y16.315 E10.5916
G1 X30.365 Y16.761 E10.62794
G1 X30.054 Y17.051 E10.65446
G1 X29.085 Y17.871 E10.73362
G1 X28.616 Y18.216 E10.76993
G1 X27.98 Y18.548 E10.81467
G1 X26.785 Y19.048 E10.89545
G1 X26.234 Y19.235 E10.93174
G1 X25.523 Y19.36 E10.97676
G1 X24.27 Y19.472 E11.05521
G1 X23.688 Y19.484 E11.09152
G1 X22.955 Y19.384 E11.13765
G1 X15.647 Y17.732 E11.6049
G1 X13.035 Y17.251 E11.77053
G1 X7.65 Y16.488 E12.10971
G1 X2.246 Y16.032 E12.44791
G0 F5400 X2.283 Y15.534
G1 F1800 X-3.176 Y15.384 E12.78848
G1 X-8.602 Y15.541 E13.127
G1 X-14.022 Y16.006 E13.46625
G1 X-19.431 Y16.78 E13.807
G1 X-23.623 Y17.595 E14.07332
G1 X-24.061 Y17.654 E14.10089
G1 X-24.736 Y17.704 E14.1431
G1 X-25.283 Y17.704 E14.17721
G1 X-25.611 Y17.666 E14.1978
G1 X-26.861 Y17.464 E14.27676
G1 X-27.394 Y17.337 E14.31093
G1 X-27.929 Y17.122 E14.34689
G1 X-29.012 Y16.585 E14.42228
G1 X-29.483 Y16.306 E14.45642
G1 X-29.907 Y15.964 E14.49039
G1 X-30.815 Y15.115 E14.56791
G1 X-31.187 Y14.713 E14.60207
G1 X-31.501 Y14.252 E14.63685
G1 X-34.378 Y9.273 E14.99547
G1 X-37.155 Y4.849 E15.32121
G1 X-37.412 Y4.365 E15.35538
G1 X-37.595 Y3.849 E15.38953
G1 X-37.701 Y3.312 E15.42366
G1 X-37.728 Y2.766 E15.45775
G1 X-37.647 Y2.074 E15.5012
G1 X-36.073 Y-5.316 E15.9724
G1 X-35.92 Y-5.842 E16.00656
G1 X-35.743 Y-6.244 E16.03396
G1 X-34.262 Y-9.137 E16.23664
G1 X-31.833 Y-14.251 E16.58971
G1 X-31.562 Y-14.727 E16.62387
G1 X-31.183 Y-15.205 E16.66191
G1 X-30.335 Y-16.111 E16.7393
G1 X-29.933 Y-16.482 E16.77341
G1 X-29.682 Y-16.665 E16.79278
G1 X-29.105 Y-17.051 E16.83608
G1 X-28.629 Y-17.321 E16.8702
G1 X-28.321 Y-17.451 E16.89105
G1 X-27.153 Y-17.883 E16.96871
G1 X-26.627 Y-18.035 E17.00286
G1 X-26.334 Y-18.085 E17.0214
G1 X-25.717 Y-18.165 E17.0602
G1 X-25.148 Y-18.195 E17.09573
G1 X-24.461 Y-18.179 E17.13858
G1 X-23.815 Y-18.108 E17.17911
G1 X-20.624 Y-17.472 E17.38203
G1 X-15.243 Y-16.615 E17.72183
G1 X-9.804 Y-16.06 E18.06278
G1 X-4.385 Y-15.816 E18.40107
G1 X1.075 Y-15.879 E18.74159
G1 X6.492 Y-16.249 E19.0802
G1 X11.894 Y-16.926 E19.41972
G1 X17.262 Y-17.91 E19.76006
G1 X22.236 Y-19.102 E20.07903
G1 X22.678 Y-19.18 E20.10702
G1 X23.929 Y-19.325 E20.18556
G1 X24.476 Y-19.348 E20.2197
G1 X25.041 Y-19.288 E20.25514
G1 X26.304 Y-19.055 E20.33523
G1 X26.834 Y-18.916 E20.3694
G1 X27.374 Y-18.684 E20.40605
G1 X28.46 Y-18.111 E20.48263
G1 X28.924 Y-17.821 E20.51675
G1 X29.345 Y-17.462 E20.55125
G1 X30.224 Y-16.594 E20.62829
G1 X30.584 Y-16.182 E20.66241
G1 X30.819 Y-15.831 E20.68876
G1 X31.266 Y-15.073 E20.74363
G1 X31.452 Y-14.715 E20.76879
G1 X33.748 Y-9.644 E21.11594
G1 X35.47 Y-6.272 E21.35206
G1 X35.683 Y-5.768 E21.38618
G1 X35.792 Y-5.374 E21.41168
G1 X37.376 Y1.811 E21.87051
G1 X37.455 Y2.352 E21.90461
G1 X37.458 Y2.825 E21.93411
G1 X37.441 Y3.132 E21.95328
G1 X37.371 Y3.675 E21.98743
G1 X37.223 Y4.202 E22.02156
G1 X36.999 Y4.702 E22.05573
G1 X36.851 Y4.954 E22.07395
G1 X35.685 Y6.767 E22.20838
G1 X32.893 Y11.502 E22.55118
G1 X31.012 Y15.032 E22.80063
G1 X30.73 Y15.481 E22.83369
G1 X30.336 Y16.02 E22.87533
G1 X29.982 Y16.437 E22.90944
G1 X29.731 Y16.67 E22.9308
G1 X28.762 Y17.49 E23.00996
G1 X28.32 Y17.812 E23.04406
G1 X27.787 Y18.086 E23.08144
G1 X26.592 Y18.586 E23.16222
G1 X26.073 Y18.76 E23.19636
G1 X25.479 Y18.862 E23.23394
G1 X24.226 Y18.974 E23.3124
G1 X23.679 Y18.983 E23.34651
G1 X23.065 Y18.897 E23.38518
G1 X15.726 Y17.238 E23.85441
G1 X13.121 Y16.758 E24.0196
G1 X7.708 Y15.991 E24.36054
G1 X2.283 Y15.534 E24.70005
G0 F5400 X2.304 Y15.034
G1 F1800 X-3.16 Y14.884 E25.04093
G1 X-8.64 Y15.043 E25.38282
G1 X-14.084 Y15.509 E25.72357
G1 X-19.515 Y16.287 E26.06572
G1 X-23.718 Y17.104 E26.33273
G1 X-24.098 Y17.155 E26.35665
G1 X-24.773 Y17.205 E26.39886
G1 X-25.531 Y17.172 E26.44617
G1 X-26.781 Y16.97 E26.52514
G1 X-27.277 Y16.85 E26.55696
G1 X-27.707 Y16.674 E26.58594
G1 X-28.79 Y16.137 E26.66132
G1 X-29.227 Y15.875 E26.6931
G1 X-29.566 Y15.599 E26.72036
G1 X-30.474 Y14.75 E26.79788
G1 X-30.817 Y14.374 E26.82962
G1 X-31.068 Y14.002 E26.85761
G1 X-33.946 Y9.022 E27.2163
G1 X-36.732 Y4.583 E27.54314
G1 X-36.968 Y4.131 E27.57494
G1 X-37.131 Y3.649 E27.60667
G1 X-37.216 Y3.146 E27.63848
G1 X-37.222 Y2.637 E27.67023
G1 X-37.158 Y2.178 E27.69913
G1 X-35.584 Y-5.212 E28.17033
G1 X-35.439 Y-5.701 E28.20213
G1 X-35.298 Y-6.017 E28.22371
G1 X-33.799 Y-8.944 E28.42879
G1 X-31.381 Y-14.036 E28.78033
G1 X-31.127 Y-14.478 E28.81212
G1 X-30.818 Y-14.863 E28.84291
G1 X-29.97 Y-15.769 E28.9203
G1 X-29.404 Y-16.249 E28.96658
G1 X-28.827 Y-16.635 E29.00987
G1 X-28.147 Y-16.982 E29.05748
G1 X-26.979 Y-17.414 E29.13514
G1 X-26.27 Y-17.589 E29.18068
G1 X-25.653 Y-17.669 E29.21948
G1 X-25.159 Y-17.695 E29.25033
G1 X-24.472 Y-17.679 E29.29319
G1 X-23.913 Y-17.617 E29.32826
G1 X-20.748 Y-16.986 E29.52952
G1 X-15.284 Y-16.116 E29.87457
G1 X-9.86 Y-15.562 E30.21458
G1 X-4.383 Y-15.316 E30.55649
G1 X1.097 Y-15.379 E30.89826
G1 X6.535 Y-15.751 E31.23818
G1 X11.976 Y-16.432 E31.58014
G1 X17.361 Y-17.42 E31.92157
G1 X22.353 Y-18.616 E32.2417
G1 X22.736 Y-18.683 E32.26594
G1 X23.987 Y-18.828 E32.34448
G1 X24.496 Y-18.847 E32.37625
G1 X24.951 Y-18.796 E32.4048
G1 X26.214 Y-18.563 E32.48489
G1 X26.706 Y-18.432 E32.51664
G1 X27.141 Y-18.241 E32.54627
G1 X28.227 Y-17.668 E32.62285
G1 X28.657 Y-17.396 E32.65458
G1 X28.994 Y-17.107 E32.68226
G1 X29.873 Y-16.239 E32.7593
G1 X30.206 Y-15.853 E32.79109
G1 X30.388 Y-15.577 E32.81171
G1 X30.835 Y-14.819 E32.86659
G1 X30.997 Y-14.509 E32.8884
G1 X33.299 Y-9.425 E33.23644
G1 X35.025 Y-6.045 E33.47312
G1 X35.22 Y-5.574 E33.50491
G1 X35.304 Y-5.267 E33.52476
G1 X36.888 Y1.918 E33.9836
G1 X36.958 Y2.423 E34.01539
G1 X36.959 Y2.798 E34.03878
G1 X36.942 Y3.105 E34.05795
G1 X36.874 Y3.61 E34.08973
G1 X36.728 Y4.098 E34.1215
G1 X36.43 Y4.683 E34.16244
G1 X35.276 Y6.477 E34.29546
G1 X32.449 Y11.273 E34.64265
G1 X30.571 Y14.796 E34.89162
G1 X30.327 Y15.186 E34.92031
G1 X29.933 Y15.725 E34.96195
G1 X29.601 Y16.111 E34.9937
G1 X29.408 Y16.288 E35.01003
G1 X28.439 Y17.108 E35.08919
G1 X28.026 Y17.406 E35.12095
G1 X27.594 Y17.625 E35.15116
G1 X26.399 Y18.125 E35.23194
G1 X25.915 Y18.284 E35.26371
G1 X25.434 Y18.364 E35.29412
G1 X24.181 Y18.476 E35.37257
G1 X23.672 Y18.482 E35.40432
G1 X23.175 Y18.409 E35.43564
G1 X15.824 Y16.747 E35.90564
G1 X13.211 Y16.266 E36.07133
G1 X7.767 Y15.495 E36.41422
G1 X2.304 Y15.034 E36.75612
G1 F1500 E33.75612
G0 F5400 X9.144 Y9.166
;TYPE:WALL-INNER
G1 F1500 E36.75612
G1 F1800 X-9.075 Y6.774 E37.90206
G1 X-10.014 Y6.692 E37.96084
G1 X-10.974 Y6.692 E38.02071
G1 X-11.931 Y6.776 E38.08062
G1 X-12.875 Y6.943 E38.14041
G1 X-13.802 Y7.192 E38.20027
G1 X-14.704 Y7.521 E38.26014
G1 X-15.573 Y7.926 E38.31993
G1 X-16.325 Y8.361 E38.37411
G1 X-16.391 Y8.399 E38.37886
G1 X-16.658 Y8.569 E38.3986
G1 X-16.994 Y8.783 E38.42344
G1 X-16.811 Y8.33
G1 X-16.8 Y8.254 E38.42791
G1 X-16.732 Y7.786 E38.4574
G1 X-16.79 Y7.238 E38.49176
G1 X-16.976 Y6.721 E38.52603
G1 X-17.285 Y6.264 E38.56043
G1 X-17.693 Y5.896 E38.5947
G1 X-18.177 Y5.638 E38.6289
G1 X-18.649 Y5.516 E38.6593
G1 X-27.795 Y4.317 E39.23455
G1 X-27.848 Y4.31 E39.23789
G1 X-28.448 Y4.231 E39.27563
G1 X-28.601 Y4.21 E39.28526
G1 X-28.439 Y4.161
G1 X-27.787 Y3.855 E39.31149
G1 X-27.743 Y3.825 E39.31468
G1 X-27.189 Y3.453 E39.3563
G1 X-26.66 Y2.965 E39.40118
G1 X-26.21 Y2.403 E39.44608
G1 X-25.85 Y1.779 E39.491
G1 X-25.588 Y1.108 E39.53593
G1 X-25.432 Y0.405 E39.58083
G1 X-25.383 Y-.31 E39.62553
G1 X-25.44 Y-1.028 E39.67045
G1 X-25.609 Y-1.73 E39.71548
G1 X-25.88 Y-2.397 E39.76037
G1 X-26.249 Y-3.014 E39.80521
G1 X-26.708 Y-3.57 E39.85017
G1 X-27.245 Y-4.049 E39.89505
G1 X-27.721 Y-4.36 E39.9305
G1 X-27.849 Y-4.443 E39.94002
G1 X-28.504 Y-4.739 E39.98484
G1 X-28.547 Y-4.751 E39.98763
G1 X-28.507 Y-4.755
G1 X-27.897 Y-4.829 E40.00495
G1 X-27.746 Y-4.847 E40.01343
G1 X-18.718 Y-5.945 E40.58059
G1 X-18.241 Y-6.061 E40.61121
G1 X-17.754 Y-6.316 E40.64549
G1 X-17.344 Y-6.679 E40.67964
G1 X-17.032 Y-7.134 E40.71405
G1 X-16.84 Y-7.649 E40.74832
G1 X-16.778 Y-8.195 E40.78259
G1 X-16.84 Y-8.665 E40.81215
G1 X-16.849 Y-8.741 E40.81693
G1 X-17.03 Y-9.196 E40.84747
G1 X-16.695 Y-8.978 E40.8485
G1 X-16.43 Y-8.806 E40.86395
G1 X-16.364 Y-8.767 E40.8684
G1 X-15.618 Y-8.325 E40.92247
G1 X-14.752 Y-7.912 E40.98231
G1 X-13.853 Y-7.574 E41.0422
G1 X-12.929 Y-7.316 E41.10203
G1 X-11.985 Y-7.14 E41.16192
G1 X-11.03 Y-7.047 E41.22175
G1 X-10.071 Y-7.038 E41.28156
G1 X-9.13 Y-7.11 E41.34042
G1 X-5.481 Y-7.554 E41.56966
G1 X-5.435 Y-7.559 E41.57254
G1 X-4.749 Y-7.642 E41.61564
G1 X9.089 Y-9.326 E42.48498
G1 X10.051 Y-9.487 E42.54581
G1 X11.017 Y-9.74 E42.60808
G1 X11.925 Y-10.069 E42.66831
G1 X15.24 Y-11.437 E42.89195
G1 X15.455 Y-11.525 E42.90644
G1 X15.827 Y-11.679 E42.93155
G1 X15.564 Y-11.262 E42.93563
G1 X15.492 Y-11.041 E42.94728
G1 X15.392 Y-10.733 E42.96748
G1 X15.351 Y-10.174 E43.00243
G1 X15.454 Y-9.622 E43.03745
G1 X15.686 Y-9.112 E43.07239
G1 X16.04 Y-8.678 E43.10732
G1 X16.486 Y-8.343 E43.1421
G1 X16.961 Y-8.146 E43.17417
G1 X28.146 Y-5.139 E43.89647
G1 X28.333 Y-5.089 E43.90854
G1 X28.919 Y-4.931 E43.94639
G1 X28.239 Y-4.74 E43.9652
G1 X28.063 Y-4.66 E43.97568
G1 X27.585 Y-4.444 E44.00839
G1 X26.991 Y-4.061 E44.05246
G1 X26.452 Y-3.581 E44.09747
G1 X25.993 Y-3.029 E44.14224
G1 X25.621 Y-2.412 E44.18717
G1 X25.348 Y-1.746 E44.23206
G1 X25.177 Y-1.047 E44.27694
G1 X25.115 Y-.328 E44.32194
G1 X25.162 Y0.388 E44.36669
G1 X25.316 Y1.091 E44.41157
G1 X25.575 Y1.765 E44.4566
G1 X25.934 Y2.389 E44.5015
G1 X26.381 Y2.953 E44.54638
G1 X26.909 Y3.442 E44.59126
G1 X27.506 Y3.847 E44.63624
G1 X28.117 Y4.138 E44.67845
G1 X28.156 Y4.156 E44.68113
G1 X28.845 Y4.364 E44.72601
G1 X29.028 Y4.39 E44.73754
G1 X28.867 Y4.436
G1 X28.287 Y4.604 E44.75989
G1 X28.245 Y4.616 E44.76253
G1 X16.902 Y7.901 E45.49897
G1 X16.442 Y8.097 E45.53016
G1 X16 Y8.433 E45.56478
G1 X15.65 Y8.869 E45.59965
G1 X15.419 Y9.377 E45.63445
G1 X15.321 Y9.926 E45.66923
G1 X15.357 Y10.482 E45.70397
G1 X15.464 Y10.809 E45.72543
G1 X15.531 Y11.013 E45.73882
G1 X15.805 Y11.445 E45.77072
G1 X15.421 Y11.292 E45.77266
G1 X15.222 Y11.213 E45.78358
G1 X11.822 Y9.856 E46.01187
G1 X10.984 Y9.562 E46.06726
G1 X10.086 Y9.326 E46.12516
G1 X9.144 Y9.166 E46.18475
G1 F1500 E43.18475
G0 F5400 X5.116 Y3.353
G1 F1500 E46.18475
G1 F1800 X5.116 Y-7.146 E46.83949
G1 X-4.691 Y-7.146 E47.45109
G1 X-5.383 Y-7.146 E47.49063
G1 X-5.383 Y-7.099 E47.49356
G1 X-5.383 Y3.353 E48.14537
G1 X5.116 Y3.353 E48.80012
G1 F1500 E45.80012
G0 F5400 X15.977 Y0.369
G1 F1500 E48.80012
G1 F1800 X16.172 Y0.905 E48.83569
G1 X16.485 Y1.382 E48.87127
G1 X16.901 Y1.773 E48.90687
G1 X17.394 Y2.057 E48.94235
G1 X17.94 Y2.221 E48.97791
G1 X18.508 Y2.253 E49.01338
G1 X19.07 Y2.155 E49.04896
G1 X19.594 Y1.929 E49.08455
G1 X20.052 Y1.589 E49.12012
G1 X20.418 Y1.151 E49.15572
G1 X20.674 Y0.642 E49.19125
G1 X20.805 Y0.087 E49.22681
G1 X20.805 Y-.48 E49.26217
G1 X20.674 Y-1.035 E49.29773
G1 X20.418 Y-1.544 E49.33326
G1 X20.052 Y-1.982 E49.36886
G1 X19.594 Y-2.322 E49.40443
G1 X19.07 Y-2.548 E49.44002
G1 X18.508 Y-2.646 E49.4756
G1 X17.94 Y-2.614 E49.51108
G1 X17.394 Y-2.45 E49.54663
G1 X16.901 Y-2.166 E49.58211
G1 X16.485 Y-1.775 E49.61771
G1 X16.172 Y-1.298 E49.65329
G1 X15.977 Y-.762 E49.68886
G1 X15.911 Y-.196 E49.7244
G1 X15.977 Y0.369 E49.75987
G1 F1500 E46.75987
G0 F5400 X-16.194 Y0.087
G1 F1500 E49.75987
G1 F1800 X-16.194 Y-.48 E49.79523
G1 X-16.325 Y-1.035 E49.8308
G1 X-16.581 Y-1.544 E49.86633
G1 X-16.947 Y-1.982 E49.90192
G1 X-17.405 Y-2.322 E49.93749
G1 X-17.929 Y-2.548 E49.97308
G1 X-18.491 Y-2.646 E50.00866
G1 X-19.059 Y-2.614 E50.04414
G1 X-19.605 Y-2.45 E50.07969
G1 X-20.098 Y-2.166 E50.11517
G1 X-20.514 Y-1.775 E50.15078
G1 X-20.827 Y-1.298 E50.18635
G1 X-21.022 Y-.762 E50.22192
G1 X-21.088 Y-.196 E50.25746
G1 X-21.022 Y0.369 E50.29294
G1 X-20.827 Y0.905 E50.32851
G1 X-20.514 Y1.382 E50.36408
G1 X-20.098 Y1.773 E50.39969
G1 X-19.605 Y2.057 E50.43517
G1 X-19.059 Y2.221 E50.47072
G1 X-18.491 Y2.253 E50.5062
G1 X-17.929 Y2.155 E50.54178
G1 X-17.405 Y1.929 E50.57737
G1 X-16.947 Y1.589 E50.61294
G1 X-16.581 Y1.151 E50.64853
G1 X-16.325 Y0.642 E50.68406
G1 X-16.194 Y0.087 E50.71963
G0 F5400 X-16.694 Y0.029
;TYPE:WALL-OUTER
G1 F1800 X-16.694 Y-.422 E50.74775
G1 X-16.798 Y-.863 E50.77601
G1 X-17.002 Y-1.268 E50.80429
G1 X-17.293 Y-1.616 E50.83258
G1 X-17.657 Y-1.886 E50.86084
G1 X-18.073 Y-2.066 E50.88911
G1 X-18.52 Y-2.144 E50.91741
G1 X-18.972 Y-2.118 E50.94564
G1 X-19.406 Y-1.988 E50.9739
G1 X-19.798 Y-1.762 E51.00211
G1 X-20.128 Y-1.451 E51.03039
G1 X-20.377 Y-1.072 E51.05867
G1 X-20.532 Y-.646 E51.08694
G1 X-20.585 Y-.196 E51.1152
G1 X-20.532 Y0.253 E51.14339
G1 X-20.377 Y0.679 E51.17167
G1 X-20.128 Y1.058 E51.19995
G1 X-19.798 Y1.369 E51.22822
G1 X-19.406 Y1.595 E51.25644
G1 X-18.972 Y1.725 E51.2847
G1 X-18.52 Y1.751 E51.31293
G1 X-18.073 Y1.673 E51.34123
G1 X-17.657 Y1.493 E51.36949
G1 X-17.293 Y1.223 E51.39776
G1 X-17.002 Y0.875 E51.42605
G1 X-16.798 Y0.47 E51.45433
G1 X-16.694 Y0.029 E51.48258
G0 F5400 X-16.694 Y-.221
G1 F1500 E48.48258
G0 F5400 X-18.359 Y6.107
G1 F1500 E51.48258
G1 F1800 X-18.744 Y6.008 E51.50738
G1 X-30.75 Y4.432 E52.26253
G1 X-31.161 Y4.352 E52.28864
G1 X-31.247 Y4.336 E52.29409
G1 X-31.333 Y4.319 E52.29956
G1 X-31.89 Y4.135 E52.33614
G1 X-31.975 Y4.095 E52.342
G1 X-32.43 Y3.879 E52.37341
G1 X-32.601 Y3.771 E52.38602
G1 X-32.929 Y3.562 E52.41028
G1 X-33.174 Y3.359 E52.43012
