;FLAVOR:Repetier
;TIME:4579
;Generated with Cura_SteamEngine 2.5.0
M190 S60
M104 S220
M109 S220
G28 ;Home
G1 Z15.0 F6000 ;Move the platform down 15mm
;Prime the extruder
G92 E0
G1 F200 E3
G92 E0
;LAYER_COUNT:40
;LAYER:0
M106 S255
G0 F3300 X1.157 Y33.22 Z0.3
;TYPE:WALL-INNER
G1 F1800 X3.472 Y33.059 E0.14472
G1 X5.028 Y32.84 E0.24271
G1 X5.26 Y34.147 E0.32549
G1 X5.304 Y34.401 E0.34157
G1 X5.556 Y34.348 E0.35185
G1 X8.384 Y33.749 E0.53212
G1 X10.725 Y33.079 E0.68398
G1 X13.014 Y32.248 E0.83584
G1 X15.238 Y31.259 E0.98763
G1 X16.726 Y30.467 E1.09275
G1 X18.124 Y32.887 E1.26704
G1 X18.253 Y33.111 E1.28316
G1 X18.472 Y32.974 E1.29347
G1 X21.195 Y31.268 E1.49385
G1 X23.397 Y29.656 E1.66404
G1 X25.478 Y27.889 E1.83429
G1 X27.425 Y25.977 E2.00447
G1 X29.229 Y23.932 E2.17453
G1 X30.88 Y21.759 E2.34472
G1 X32.369 Y19.474 E2.51481
G1 X33.691 Y17.086 E2.68503
G1 X34.837 Y14.611 E2.85512
G1 X35.801 Y12.058 E3.0253
G1 X36.579 Y9.442 E3.1955
G1 X37.166 Y6.777 E3.36568
G1 X37.559 Y4.077 E3.53584
G1 X37.756 Y1.355 E3.70603
G1 X37.757 Y-1.373 E3.87616
G1 X37.56 Y-4.095 E4.04635
G1 X37.167 Y-6.795 E4.21651
G1 X36.58 Y-9.46 E4.38669
G1 X35.802 Y-12.076 E4.55689
G1 X34.838 Y-14.628 E4.72702
G1 X33.692 Y-17.103 E4.89711
G1 X32.37 Y-19.492 E5.06738
G1 X30.881 Y-21.777 E5.23747
G1 X29.23 Y-23.95 E5.40766
G1 X27.425 Y-25.996 E5.57781
G1 X25.478 Y-27.908 E5.74799
G1 X23.398 Y-29.674 E5.91815
G1 X21.196 Y-31.286 E6.08833
G1 X18.472 Y-32.992 E6.28878
G1 X18.253 Y-33.129 E6.30489
G1 X18.124 Y-32.905 E6.3152
G1 X16.726 Y-30.485 E6.48949
G1 X15.239 Y-31.277 E6.59455
G1 X13.015 Y-32.266 E6.74634
G1 X10.726 Y-33.097 E6.89821
G1 X8.385 Y-33.766 E7.05004
G1 X5.556 Y-34.368 E7.23042
G1 X5.304 Y-34.421 E7.24648
G1 X5.26 Y-34.167 E7.25677
G1 X5.028 Y-32.859 E7.33961
G1 X3.472 Y-33.078 E7.4376
G1 X1.157 Y-33.239 E7.58232
G1 X-1.163 Y-33.239 E7.727
G1 X-3.478 Y-33.078 E7.87172
G1 X-5.034 Y-32.859 E7.96971
G1 X-5.264 Y-34.166 E8.05247
G1 X-5.308 Y-34.42 E8.06855
G1 X-5.56 Y-34.367 E8.07883
G1 X-8.39 Y-33.768 E8.25923
G1 X-10.731 Y-33.098 E8.41108
G1 X-13.02 Y-32.267 E8.56294
G1 X-15.244 Y-31.278 E8.71473
G1 X-16.732 Y-30.485 E8.81988
G1 X-18.129 Y-32.905 E8.99414
G1 X-18.258 Y-33.129 E9.01026
G1 X-18.477 Y-32.992 E9.02057
G1 X-21.199 Y-31.288 E9.22084
G1 X-23.402 Y-29.676 E9.39107
G1 X-25.481 Y-27.91 E9.56119
G1 X-27.429 Y-25.998 E9.73141
G1 X-29.234 Y-23.952 E9.90156
G1 X-30.884 Y-21.779 E10.07171
G1 X-32.375 Y-19.493 E10.24192
G1 X-33.696 Y-17.105 E10.41211
G1 X-34.843 Y-14.63 E10.58222
G1 X-35.807 Y-12.077 E10.75241
G1 X-36.585 Y-9.462 E10.92255
G1 X-37.172 Y-6.796 E11.09279
G1 X-37.564 Y-4.096 E11.26294
G1 X-37.762 Y-1.374 E11.43314
G1 X-37.762 Y1.354 E11.60326
G1 X-37.565 Y4.076 E11.77346
G1 X-37.173 Y6.776 E11.9436
G1 X-36.586 Y9.442 E12.11385
G1 X-35.808 Y12.057 E12.28399
G1 X-34.844 Y14.611 E12.45423
G1 X-33.697 Y17.086 E12.62435
G1 X-32.376 Y19.474 E12.79454
G1 X-30.885 Y21.759 E12.96469
G1 X-29.235 Y23.932 E13.13484
G1 X-27.43 Y25.978 E13.30499
G1 X-25.482 Y27.89 E13.47522
G1 X-23.403 Y29.656 E13.64533
G1 X-21.2 Y31.268 E13.81557
G1 X-18.477 Y32.974 E14.01596
G1 X-18.258 Y33.111 E14.03207
G1 X-18.129 Y32.887 E14.04238
G1 X-16.731 Y30.467 E14.21667
G1 X-15.245 Y31.258 E14.32165
G1 X-13.021 Y32.247 E14.47344
G1 X-10.732 Y33.078 E14.6253
G1 X-8.391 Y33.748 E14.77715
G1 X-5.561 Y34.349 E14.95758
G1 X-5.308 Y34.402 E14.9737
G1 X-5.264 Y34.147 E14.98402
G1 X-5.034 Y32.84 E15.06678
G1 X-3.478 Y33.059 E15.16477
G1 X-1.163 Y33.22 E15.30949
G1 X1.157 Y33.22 E15.45417
G1 F6600 E12.45417
G0 F3300 X3.436 Y54.13
G1 F6600 E15.45417
G1 F1800 X0.188 Y54.24 E15.65684
G1 X-3.062 Y54.153 E15.85959
G1 X-6.284 Y53.875 E16.06127
G1 X-9.506 Y53.401 E16.26437
G1 X-12.684 Y52.737 E16.46684
G1 X-15.791 Y51.891 E16.66765
G1 X-18.889 Y50.846 E16.87155
G1 X-21.889 Y49.629 E17.07344
G1 X-24.815 Y48.233 E17.27562
G1 X-27.674 Y46.651 E17.47939
G1 X-30.398 Y44.925 E17.6805
G1 X-33.04 Y43.021 E17.88359
G1 X-35.546 Y40.974 E18.08538
G1 X-37.946 Y38.763 E18.28888
G1 X-40.188 Y36.435 E18.49044
G1 X-42.296 Y33.965 E18.69295
G1 X-44.257 Y31.37 E18.89579
G1 X-46.042 Y28.684 E19.09691
G1 X-47.694 Y25.848 E19.30159
G1 X-49.139 Y22.982 E19.50176
G1 X-50.434 Y19.982 E19.70553
G1 X-51.535 Y16.942 E19.90716
G1 X-52.457 Y13.833 E20.1094
G1 X-53.192 Y10.66 E20.31251
G1 X-53.734 Y7.469 E20.51436
G1 X-54.087 Y4.224 E20.71792
G1 X-54.243 Y1.003 E20.91903
G1 X-54.206 Y-2.252 E21.12203
G1 X-53.975 Y-5.479 E21.32379
G1 X-53.549 Y-8.714 E21.52728
G1 X-52.934 Y-11.899 E21.72957
G1 X-52.133 Y-15.024 E21.93076
G1 X-51.14 Y-18.12 E22.13352
G1 X-49.959 Y-21.16 E22.33691
G1 X-48.611 Y-24.096 E22.53838
G1 X-47.076 Y-26.973 E22.74174
G1 X-45.383 Y-29.735 E22.94377
G1 X-43.52 Y-32.402 E23.14665
G1 X-41.515 Y-34.935 E23.34811
G1 X-39.342 Y-37.365 E23.55141
G1 X-37.045 Y-39.644 E23.7532
G1 X-34.605 Y-41.791 E23.95588
G1 X-32.056 Y-43.776 E24.15736
G1 X-29.363 Y-45.626 E24.36111
G1 X-26.589 Y-47.297 E24.56307
G1 X-23.717 Y-48.802 E24.76528
G1 X-20.768 Y-50.127 E24.96689
G1 X-17.712 Y-51.286 E25.17072
G1 X-14.617 Y-52.253 E25.37293
G1 X-11.482 Y-53.03 E25.57436
G1 X-8.264 Y-53.626 E25.77845
G1 X-5.056 Y-54.023 E25.98004
G1 X-1.826 Y-54.228 E26.18188
G1 X1.423 Y-54.24 E26.38449
G1 X4.664 Y-54.057 E26.58693
G1 X7.898 Y-53.68 E26.78998
G1 X11.083 Y-53.114 E26.99172
G1 X14.242 Y-52.355 E27.19433
G1 X17.344 Y-51.41 E27.39655
G1 X20.392 Y-50.279 E27.5993
G1 X23.353 Y-48.973 E27.80112
G1 X26.252 Y-47.483 E28.00439
G1 X29.034 Y-45.833 E28.2061
G1 X31.721 Y-44.016 E28.40839
G1 X34.297 Y-42.037 E28.61097
G1 X36.758 Y-39.903 E28.81411
G1 X39.081 Y-37.631 E29.01675
G1 X41.247 Y-35.244 E29.21776
G1 X43.291 Y-32.699 E29.42132
G1 X45.178 Y-30.038 E29.62476
G1 X46.874 Y-27.314 E29.82487
G1 X48.43 Y-24.447 E30.0283
G1 X49.808 Y-21.501 E30.23112
G1 X51.004 Y-18.483 E30.43358
G1 X52.014 Y-15.41 E30.6353
G1 X52.845 Y-12.263 E30.83828
G1 X53.48 Y-9.097 E31.03966
G1 X53.93 Y-5.861 E31.2434
G1 X54.182 Y-2.659 E31.44371
G1 X54.243 Y0.594 E31.64661
G1 X54.108 Y3.858 E31.85034
G1 X53.784 Y7.058 E32.05092
G1 X53.258 Y10.292 E32.25525
G1 X52.547 Y13.462 E32.45785
G1 X51.653 Y16.563 E32.65911
G1 X50.563 Y19.639 E32.86263
G1 X49.308 Y22.606 E33.06353
G1 X47.859 Y25.529 E33.26698
G1 X46.247 Y28.345 E33.46934
G1 X44.471 Y31.055 E33.6714
G1 X42.537 Y33.656 E33.87353
G1 X40.437 Y36.151 E34.0769
G1 X38.205 Y38.502 E34.27907
G1 X35.836 Y40.715 E34.48124
G1 X33.345 Y42.78 E34.68302
G1 X30.704 Y44.712 E34.88709
G1 X27.994 Y46.458 E35.08813
G1 X25.166 Y48.047 E35.29042
G1 X22.233 Y49.473 E35.49381
G1 X19.24 Y50.712 E35.69582
G1 X16.181 Y51.769 E35.89765
G1 X13.036 Y52.649 E36.10132
G1 X9.869 Y53.335 E36.3034
G1 X6.675 Y53.827 E36.50494
G1 X3.436 Y54.13 E36.70781
G0 F3300 X3.467 Y54.63
;TYPE:WALL-OUTER
G1 F1800 X0.192 Y54.74 E36.91217
G1 X-3.085 Y54.653 E37.1166
G1 X-6.35 Y54.371 E37.32097
G1 X-9.579 Y53.896 E37.52451
G1 X-12.8 Y53.223 E37.72972
G1 X-15.949 Y52.366 E37.93324
G1 X-19.054 Y51.318 E38.13761
G1 X-22.089 Y50.087 E38.34186
G1 X-25.055 Y48.672 E38.5468
G1 X-27.922 Y47.086 E38.75112
G1 X-30.681 Y45.338 E38.95481
G1 X-33.338 Y43.422 E39.15909
G1 X-35.883 Y41.344 E39.36399
G1 X-38.292 Y39.125 E39.56825
G1 X-40.559 Y36.771 E39.77206
G1 X-42.684 Y34.281 E39.9762
G1 X-44.665 Y31.659 E40.18114
G1 X-46.47 Y28.944 E40.38446
G1 X-48.126 Y26.1 E40.58969
G1 X-49.594 Y23.188 E40.79306
G1 X-50.898 Y20.168 E40.9982
G1 X-52.009 Y17.101 E41.20163
G1 X-52.942 Y13.955 E41.40627
G1 X-53.683 Y10.756 E41.61105
G1 X-54.229 Y7.541 E41.81442
G1 X-54.585 Y4.269 E42.01968
G1 X-54.743 Y0.997 E42.22396
G1 X-54.706 Y-2.277 E42.42815
G1 X-54.473 Y-5.529 E42.63148
G1 X-54.043 Y-8.792 E42.83673
G1 X-53.425 Y-11.994 E43.0401
G1 X-52.612 Y-15.168 E43.24443
G1 X-51.612 Y-18.286 E43.44863
G1 X-50.42 Y-21.353 E43.65383
G1 X-49.06 Y-24.317 E43.8572
G1 X-47.511 Y-27.22 E44.0624
G1 X-45.799 Y-30.013 E44.2667
G1 X-43.922 Y-32.699 E44.47105
G1 X-41.895 Y-35.26 E44.67474
G1 X-39.706 Y-37.708 E44.87953
G1 X-37.391 Y-40.005 E45.08291
G1 X-34.924 Y-42.175 E45.28781
G1 X-32.347 Y-44.183 E45.49155
G1 X-29.635 Y-46.046 E45.69673
G1 X-26.829 Y-47.736 E45.90101
G1 X-23.937 Y-49.251 E46.10461
G1 X-20.953 Y-50.592 E46.30863
G1 X-17.885 Y-51.755 E46.51325
G1 X-14.753 Y-52.734 E46.71789
G1 X-11.576 Y-53.521 E46.922
G1 X-8.35 Y-54.119 E47.12661
G1 X-5.098 Y-54.521 E47.33096
G1 X-1.843 Y-54.728 E47.53436
G1 X1.432 Y-54.74 E47.7386
G1 X4.717 Y-54.555 E47.94378
G1 X7.959 Y-54.177 E48.14733
G1 X11.189 Y-53.603 E48.35192
G1 X14.372 Y-52.838 E48.55607
G1 X17.511 Y-51.882 E48.76071
G1 X20.571 Y-50.746 E48.96426
G1 X23.582 Y-49.418 E49.16949
G1 X26.486 Y-47.925 E49.37312
G1 X29.3 Y-46.257 E49.57713
G1 X32.026 Y-44.413 E49.78237
G1 X34.612 Y-42.427 E49.98571
G1 X37.091 Y-40.277 E50.19035
G1 X39.439 Y-37.98 E50.39519
G1 X41.63 Y-35.565 E50.59854
G1 X43.691 Y-32.999 E50.80379
G1 X45.586 Y-30.327 E51.00808
G1 X47.309 Y-27.56 E51.21136
G1 X48.879 Y-24.668 E51.41657
G1 X50.267 Y-21.7 E51.62091
G1 X51.474 Y-18.655 E51.82517
G1 X52.492 Y-15.557 E52.02854
G1 X53.332 Y-12.375 E52.23377
G1 X53.973 Y-9.179 E52.43705
G1 X54.426 Y-5.919 E52.64231
G1 X54.682 Y-2.668 E52.84568
G1 X54.743 Y0.606 E53.04989
G1 X54.608 Y3.879 E53.25418
G1 X54.278 Y7.138 E53.45846
G1 X53.751 Y10.38 E53.66329
G1 X53.033 Y13.581 E53.86787
G1 X52.129 Y16.716 E54.07135
G1 X51.03 Y19.818 E54.27658
G1 X49.76 Y22.82 E54.47986
G1 X48.301 Y25.763 E54.6847
G1 X46.674 Y28.605 E54.88893
G1 X44.883 Y31.339 E55.09275
G1 X42.92 Y33.978 E55.29787
G1 X40.813 Y36.481 E55.5019
G1 X38.564 Y38.85 E55.70561
G1 X36.16 Y41.096 E55.91078
G1 X33.649 Y43.177 E56.11416
G1 X30.993 Y45.12 E56.31939
G1 X28.248 Y46.889 E56.52304
G1 X25.393 Y48.493 E56.72726
G1 X22.446 Y49.926 E56.93162
G1 X19.412 Y51.182 E57.1364
G1 X16.326 Y52.248 E57.34001
G1 X13.16 Y53.134 E57.54504
G1 X9.969 Y53.825 E57.74865
G1 X6.73 Y54.324 E57.95303
G1 X3.467 Y54.63 E58.15741
G0 F3300 X3.218 Y54.638
G1 F6600 E55.15741
G0 F3300 X5.706 Y33.805
G1 F6600 E58.15741
G1 F1800 X5.958 Y33.752 E58.17347
G1 X8.263 Y33.263 E58.32041
G1 X10.571 Y32.603 E58.47012
G1 X12.827 Y31.784 E58.61979
G1 X15.019 Y30.809 E58.7694
G1 X16.918 Y29.799 E58.90354
G1 X18.298 Y32.188 E59.07559
G1 X18.427 Y32.412 E59.09171
G1 X18.646 Y32.275 E59.10201
G1 X20.914 Y30.854 E59.26892
G1 X23.087 Y29.263 E59.43688
G1 X25.141 Y27.52 E59.60487
G1 X27.062 Y25.633 E59.7728
G1 X28.842 Y23.615 E59.94061
G1 X30.471 Y21.471 E60.10853
G1 X31.94 Y19.216 E60.27637
G1 X33.245 Y16.86 E60.44433
G1 X34.376 Y14.417 E60.61222
G1 X35.327 Y11.898 E60.78013
G1 X36.095 Y9.317 E60.94806
G1 X36.674 Y6.687 E61.116
G1 X37.062 Y4.023 E61.28389
G1 X37.256 Y1.337 E61.45183
G1 X37.257 Y-1.355 E61.61971
G1 X37.063 Y-4.041 E61.78766
G1 X36.675 Y-6.705 E61.95554
G1 X36.096 Y-9.335 E62.12349
G1 X35.328 Y-11.916 E62.29142
G1 X34.377 Y-14.434 E62.45927
G1 X33.246 Y-16.877 E62.62716
G1 X31.941 Y-19.234 E62.79518
G1 X30.472 Y-21.489 E62.96301
G1 X28.843 Y-23.633 E63.13093
G1 X27.062 Y-25.652 E63.29883
G1 X25.141 Y-27.539 E63.46676
G1 X23.088 Y-29.281 E63.63467
G1 X20.915 Y-30.872 E63.80262
G1 X18.646 Y-32.293 E63.96958
G1 X18.427 Y-32.43 E63.98569
G1 X18.298 Y-32.206 E63.996
G1 X16.918 Y-29.817 E64.16806
G1 X15.02 Y-30.827 E64.30214
G1 X12.828 Y-31.802 E64.45175
G1 X10.572 Y-32.621 E64.60142
G1 X8.264 Y-33.281 E64.75113
G1 X5.958 Y-33.771 E64.89815
G1 X5.706 Y-33.824 E64.9142
G1 X5.662 Y-33.57 E64.92449
G1 X5.436 Y-32.297 E65.00512
G1 X3.42 Y-32.58 E65.13208
G1 X1.14 Y-32.739 E65.27461
G1 X-1.146 Y-32.739 E65.41717
G1 X-3.426 Y-32.58 E65.55971
G1 X-5.442 Y-32.297 E65.68666
G1 X-5.667 Y-33.57 E65.76728
G1 X-5.711 Y-33.824 E65.78336
G1 X-5.963 Y-33.771 E65.79363
G1 X-8.269 Y-33.282 E65.94064
G1 X-10.577 Y-32.622 E66.09034
G1 X-12.833 Y-31.803 E66.24002
G1 X-15.025 Y-30.828 E66.38963
G1 X-16.923 Y-29.817 E66.52374
G1 X-18.303 Y-32.206 E66.69579
G1 X-18.432 Y-32.43 E66.71191
G1 X-18.651 Y-32.293 E66.72222
G1 X-20.918 Y-30.874 E66.88901
G1 X-23.092 Y-29.283 E67.05701
G1 X-25.144 Y-27.541 E67.22487
G1 X-27.066 Y-25.654 E67.39284
G1 X-28.847 Y-23.635 E67.56074
G1 X-30.475 Y-21.491 E67.72863
G1 X-31.946 Y-19.235 E67.89658
G1 X-33.25 Y-16.879 E68.06451
G1 X-34.382 Y-14.436 E68.23242
G1 X-35.333 Y-11.917 E68.40034
G1 X-36.101 Y-9.337 E68.56821
G1 X-36.68 Y-6.706 E68.73621
G1 X-37.067 Y-4.042 E68.90409
G1 X-37.262 Y-1.356 E69.07204
G1 X-37.262 Y1.336 E69.23992
G1 X-37.068 Y4.022 E69.40786
G1 X-36.681 Y6.686 E69.57574
G1 X-36.102 Y9.317 E69.74374
G1 X-35.334 Y11.897 E69.91162
G1 X-34.383 Y14.417 E70.07959
G1 X-33.251 Y16.86 E70.2475
G1 X-31.947 Y19.216 E70.41543
G1 X-30.476 Y21.471 E70.58334
G1 X-28.848 Y23.615 E70.75122
G1 X-27.067 Y25.634 E70.91912
G1 X-25.145 Y27.521 E71.08709
G1 X-23.093 Y29.263 E71.25495
G1 X-20.919 Y30.854 E71.42296
G1 X-18.651 Y32.275 E71.58986
G1 X-18.432 Y32.412 E71.60597
G1 X-18.303 Y32.188 E71.61628
G1 X-16.923 Y29.799 E71.78834
G1 X-15.026 Y30.808 E71.92233
G1 X-12.834 Y31.783 E72.07195
G1 X-10.578 Y32.602 E72.22162
G1 X-8.27 Y33.262 E72.37132
G1 X-5.963 Y33.752 E72.5184
G1 X-5.711 Y33.805 E72.53446
G1 X-5.667 Y33.551 E72.54475
G1 X-5.442 Y32.278 E72.62537
G1 X-3.426 Y32.561 E72.75233
G1 X-1.146 Y32.72 E72.89486
G1 X1.14 Y32.72 E73.03742
G1 X3.42 Y32.561 E73.17995
G1 X5.436 Y32.278 E73.30691
G1 X5.662 Y33.551 E73.38754
G1 X5.706 Y33.805 E73.39783
G0 F3300 X5.951 Y33.754
G0 X6.142 Y34.426
;TYPE:SKIN
G1 F1800 X21.341 Y49.625 E74.73829
G1 X21.429 Y49.713
G0 F3300 X21.841 Y49.418
G1 F1800 X6.726 Y34.303 E76.07135
G1 X6.638 Y34.215
G0 F3300 X7.31 Y34.18
G1 F1800 X22.331 Y49.201 E77.39611
G1 X22.419 Y49.289
G0 F3300 X22.807 Y48.97
G1 F1800 X7.894 Y34.057 E78.71135
G1 X7.806 Y33.969
G0 F3300 X8.474 Y33.93
G1 F1800 X23.283 Y48.739 E80.01742
G1 X23.371 Y48.827
G0 F3300 X23.758 Y48.507
G1 F1800 X9.024 Y33.773 E81.31688
G1 X8.936 Y33.685
G0 F3300 X9.574 Y33.615
G1 F1800 X24.234 Y48.276 E82.60985
G1 X24.322 Y48.364
G0 F3300 X24.71 Y48.045
G1 F1800 X10.124 Y33.458 E83.89629
G1 X10.036 Y33.37
G0 F3300 X10.674 Y33.301
G1 F1800 X25.18 Y47.808 E85.17568
G1 X25.268 Y47.896
G0 F3300 X25.633 Y47.553
G1 F1800 X11.199 Y33.119 E86.44868
G1 X11.111 Y33.031
G0 F3300 X11.718 Y32.931
G1 F1800 X26.086 Y47.299 E87.71586
G1 X26.174 Y47.387
G0 F3300 X26.539 Y47.045
G1 F1800 X12.237 Y32.743 E88.97721
G1 X12.149 Y32.655
G0 F3300 X12.755 Y32.554
G1 F1800 X26.991 Y46.79 E90.23274
G1 X27.079 Y46.878
G0 F3300 X27.444 Y46.536
G1 F1800 X13.263 Y32.355 E91.48343
G1 X13.175 Y32.267
G0 F3300 X13.753 Y32.138
G1 F1800 X27.897 Y46.282 E92.73084
G1 X27.985 Y46.37
G0 F3300 X28.327 Y46.005
G1 F1800 X14.242 Y31.92 E93.97306
G1 X14.154 Y31.832
G0 F3300 X14.731 Y31.702
G1 F1800 X28.757 Y45.727 E95.21003
G1 X28.845 Y45.815
G0 F3300 X29.187 Y45.45
G1 F1800 X15.221 Y31.485 E96.44171
G1 X15.133 Y31.397
G0 F3300 X15.689 Y31.245
G1 F1800 X29.617 Y45.173 E97.67008
G1 X29.705 Y45.261
G0 F3300 X30.047 Y44.896
G1 F1800 X18.402 Y33.251 E98.6971
G1 X18.314 Y33.163
G0 F3300 X18.837 Y32.979
G1 F1800 X30.477 Y44.619 E99.72368
G1 X30.565 Y44.707
G0 F3300 X30.89 Y44.325
G1 F1800 X19.272 Y32.707 E100.74832
G1 X19.184 Y32.619
G0 F3300 X19.707 Y32.434
G1 F1800 X31.298 Y44.026 E101.77062
G1 X31.386 Y44.114
G0 F3300 X31.707 Y43.728
G1 F1800 X20.141 Y32.162 E102.79068
G1 X20.053 Y32.074
G0 F3300 X20.576 Y31.89
G1 F1800 X32.115 Y43.429 E103.80835
G1 X32.203 Y43.517
G0 F3300 X32.524 Y43.13
G1 F1800 X21.011 Y31.618 E104.82369
G1 X20.923 Y31.53
G0 F3300 X21.438 Y31.337
G1 F1800 X32.932 Y42.832 E105.83744
G1 X33.02 Y42.92
G0 F3300 X33.335 Y42.527
G1 F1800 X21.846 Y31.038 E106.8507
G1 X21.758 Y30.95
G0 F3300 X22.254 Y30.74
G1 F1800 X33.721 Y42.206 E107.86198
G1 X33.809 Y42.294
G0 F3300 X34.108 Y41.886
G1 F1800 X22.662 Y30.44 E108.87145
G1 X22.574 Y30.352
G0 F3300 X23.07 Y30.141
G1 F1800 X34.494 Y41.565 E109.87898
G1 X34.582 Y41.653
G0 F3300 X34.881 Y41.245
G1 F1800 X23.478 Y29.842 E110.88466
G1 X23.39 Y29.754
G0 F3300 X23.864 Y29.521
G1 F1800 X35.268 Y40.925 E111.89043
G1 X35.356 Y41.013
G0 F3300 X35.654 Y40.604
G1 F1800 X24.246 Y29.196 E112.89655
G1 X24.158 Y29.108
G0 F3300 X24.629 Y28.871
G1 F1800 X36.022 Y40.265 E113.90139
G1 X36.11 Y40.353
G0 F3300 X36.388 Y39.923
G1 F1800 X25.011 Y28.547 E114.90473
