;FLAVOR:Repetier
;TIME:4155
;Generated with Cura_SteamEngine 2.5.0
M104 S220
M109 S220
G28 ;Home
G1 Z15.0 F6000 ;Move the platform down 15mm
;Prime the extruder
G92 E0
G1 F200 E3
G92 E0
;LAYER_COUNT:89
;LAYER:0
M106 S255
G0 F4950 X4.955 Y7.036 Z0.3
G0 X5.054 Y6.974
;TYPE:SKIRT
G1 F1800 X4.955 Y7.036 E0.00728
G1 X4.902 Y7.132 E0.01412
G1 X4.871 Y15.096 E0.51078
G1 X4.83 Y15.337 E0.52603
G1 X4.714 Y15.552 E0.54126
G1 X4.536 Y15.718 E0.55644
G1 X4.313 Y15.818 E0.57168
G1 X4.121 Y15.843 E0.58376
G1 X-24.564 Y15.843 E2.37263
G1 X-24.805 Y15.803 E2.38787
G1 X-25.02 Y15.688 E2.40308
G1 X-25.187 Y15.51 E2.4183
G1 X-25.288 Y15.288 E2.43351
G1 X-25.314 Y15.097 E2.44553
G1 X-25.352 Y7.029 E2.94868
G1 X-25.41 Y6.93 E2.95583
G1 X-25.505 Y6.877 E2.96262
G1 X-30.023 Y6.842 E3.24438
G1 X-30.123 Y6.834 E3.25063
G1 X-31.481 Y6.64 E3.33618
G1 X-31.649 Y6.596 E3.34701
G1 X-32.389 Y6.305 E3.3966
G1 X-32.599 Y6.18 E3.41184
G1 X-32.72 Y6.05 E3.42292
G1 X-32.875 Y5.838 E3.4393
G1 X-32.986 Y5.62 E3.45455
G1 X-33.016 Y5.474 E3.46385
G1 X-33.043 Y5.218 E3.4799
G1 X-33.029 Y4.974 E3.49514
G1 X-32.983 Y4.835 E3.50427
G1 X-32.877 Y4.596 E3.52058
G1 X-32.743 Y4.392 E3.5358
G1 X-32.627 Y4.29 E3.54543
G1 X-32.416 Y4.139 E3.56161
G1 X-32.197 Y4.031 E3.57684
G1 X-32.06 Y4.003 E3.58556
G1 X-31.8 Y3.975 E3.60187
G1 X-31.525 Y3.997 E3.61907
G1 X-30.348 Y4.314 E3.69509
G1 X-29.373 Y4.275 E3.75594
G1 X-28.455 Y3.943 E3.81682
G1 X-27.671 Y3.347 E3.87824
G1 X-27.1 Y2.541 E3.93984
G1 X-26.801 Y1.617 E4.0004
G1 X-26.79 Y0.641 E4.06127
G1 X-27.073 Y-.3 E4.12255
G1 X-27.622 Y-1.11 E4.18357
G1 X-28.392 Y-1.72 E4.24484
G1 X-29.301 Y-2.072 E4.30563
G1 X-30.28 Y-2.135 E4.3668
G1 X-31.235 Y-1.904 E4.42808
G1 X-32.102 Y-1.379 E4.49129
G1 X-32.575 Y-.931 E4.53192
G1 X-32.855 Y-.763 E4.55228
G1 X-33.093 Y-.684 E4.56792
G1 X-33.439 Y-.654 E4.58958
G1 X-33.674 Y-.689 E4.60439
G1 X-33.907 Y-.764 E4.61966
G1 X-34.028 Y-.842 E4.62864
G1 X-34.225 Y-.997 E4.64427
G1 X-34.389 Y-1.177 E4.65945
G1 X-34.448 Y-1.286 E4.66718
G1 X-34.547 Y-1.513 E4.68263
G1 X-34.609 Y-1.845 E4.70369
G1 X-34.597 Y-2.126 E4.72123
G1 X-34.52 Y-2.427 E4.74061
G1 X-29.272 Y-13.014 E5.47751
G1 X-29.226 Y-13.094 E5.48326
G1 X-28.383 Y-14.373 E5.57879
G1 X-28.297 Y-14.481 E5.5874
G1 X-27.758 Y-15.04 E5.63583
G1 X-27.687 Y-15.104 E5.64179
G1 X-27.079 Y-15.592 E5.69041
G1 X-26.966 Y-15.667 E5.69886
G1 X-25.614 Y-16.395 E5.79462
G1 X-25.44 Y-16.463 E5.80627
G1 X-23.941 Y-16.838 E5.90264
G1 X-23.805 Y-16.859 E5.91122
G1 X-23.025 Y-16.907 E5.95995
G1 X-22.883 Y-16.902 E5.96882
G1 X-21.357 Y-16.705 E6.06477
G1 X-21.18 Y-16.659 E6.07618
G1 X-19.749 Y-16.099 E6.17201
G1 X-19.586 Y-16.011 E6.18356
G1 X-18.323 Y-15.109 E6.28035
G1 X-18.218 Y-15.018 E6.28901
G1 X-17.687 Y-14.464 E6.33687
G1 X-17.6 Y-14.355 E6.34557
G1 X-16.758 Y-13.066 E6.44158
G1 X-16.677 Y-12.9 E6.4531
G1 X-16.173 Y-11.434 E6.54978
G1 X-16.135 Y-11.252 E6.56137
G1 X-16.1 Y-10.83 E6.58778
G1 X-16.1 Y-12.906 E6.71724
G1 X-16.06 Y-13.147 E6.73248
G1 X-15.945 Y-13.362 E6.74768
G1 X-15.767 Y-13.529 E6.7629
G1 X-15.545 Y-13.63 E6.77811
G1 X-15.35 Y-13.656 E6.79038
G1 X13.335 Y-13.656 E8.57926
G1 X13.576 Y-13.616 E8.59449
G1 X13.791 Y-13.501 E8.6097
G1 X13.958 Y-13.323 E8.62492
G1 X14.059 Y-13.101 E8.64013
G1 X14.085 Y-12.91 E8.65215
G1 X14.124 Y-4.841 E9.15536
G1 X14.181 Y-4.745 E9.16233
G1 X14.273 Y-4.693 E9.16892
G1 X30.011 Y-4.656 E10.15038
G1 X30.114 Y-4.649 E10.15682
G1 X31.471 Y-4.458 E10.24228
G1 X31.64 Y-4.413 E10.25319
G1 X32.389 Y-4.119 E10.30337
G1 X32.599 Y-3.994 E10.31861
G1 X32.724 Y-3.859 E10.33008
G1 X32.878 Y-3.645 E10.34652
G1 X32.986 Y-3.426 E10.36175
G1 X33.014 Y-3.289 E10.37047
G1 X33.042 Y-3.035 E10.38641
G1 X33.029 Y-2.791 E10.40165
G1 X32.983 Y-2.65 E10.4109
G1 X32.878 Y-2.412 E10.42712
G1 X32.745 Y-2.208 E10.44231
G1 X32.629 Y-2.105 E10.45198
G1 X32.417 Y-1.953 E10.46825
G1 X32.198 Y-1.845 E10.48348
G1 X32.06 Y-1.817 E10.49226
G1 X31.8 Y-1.789 E10.50856
G1 X31.525 Y-1.811 E10.52577
G1 X30.353 Y-2.127 E10.60147
G1 X29.379 Y-2.089 E10.66226
G1 X28.456 Y-1.758 E10.72341
G1 X27.678 Y-1.17 E10.78422
G1 X27.104 Y-.364 E10.84593
G1 X26.803 Y0.561 E10.90659
G1 X26.79 Y1.543 E10.96784
G1 X27.069 Y2.479 E11.02875
G1 X27.621 Y3.294 E11.09014
G1 X28.383 Y3.9 E11.15085
G1 X29.301 Y4.258 E11.2123
G1 X30.275 Y4.322 E11.27317
G1 X31.231 Y4.092 E11.33449
G1 X32.108 Y3.564 E11.39833
G1 X32.699 Y3.046 E11.44734
G1 X32.906 Y2.917 E11.46255
G1 X33.116 Y2.864 E11.47606
G1 X33.368 Y2.838 E11.49186
G1 X33.612 Y2.853 E11.5071
G1 X33.743 Y2.896 E11.5157
G1 X33.969 Y2.994 E11.53106
G1 X34.175 Y3.126 E11.54632
G1 X34.261 Y3.219 E11.55422
G1 X34.415 Y3.415 E11.56976
G1 X34.532 Y3.629 E11.58497
G1 X34.574 Y3.835 E11.59809
G1 X34.597 Y4.24 E11.62338
G1 X34.571 Y4.483 E11.63862
G1 X34.475 Y4.694 E11.65308
G1 X29.057 Y12.951 E12.26897
G1 X28.961 Y13.07 E12.2785
G1 X25.351 Y16.687 E12.59719
G1 X25.153 Y16.829 E12.61239
G1 X24.818 Y16.907 E12.63384
G1 X11.07 Y16.864 E13.4912
G1 X10.786 Y16.807 E13.50927
G1 X9.976 Y16.473 E13.56391
G1 X9.733 Y16.312 E13.58209
G1 X9.112 Y15.694 E13.63672
G1 X8.949 Y15.451 E13.65497
G1 X8.611 Y14.643 E13.70959
G1 X8.553 Y14.365 E13.7273
G1 X8.507 Y11.131 E13.929
G1 X8.346 Y9.958 E14.00284
G1 X7.884 Y8.883 E14.07581
G1 X7.556 Y8.413 E14.11155
G1 X7.199 Y8.029 E14.14425
G1 X6.243 Y7.342 E14.21767
G1 X5.214 Y6.966 E14.28599
G1 X5.054 Y6.974 E14.29598
G0 F4950 X4.899 Y6.481
G1 F1800 X4.58 Y6.682 E14.31949
G1 X4.403 Y7.002 E14.3423
G1 X4.371 Y15.094 E14.84694
G1 X4.331 Y15.228 E14.85566
G1 X4.226 Y15.32 E14.86437
G1 X4.121 Y15.343 E14.87107
G1 X-24.564 Y15.343 E16.65995
G1 X-24.698 Y15.304 E16.66865
G1 X-24.791 Y15.198 E16.67744
G1 X-24.814 Y15.094 E16.68408
G1 X-24.853 Y6.891 E17.19565
G1 X-25.048 Y6.562 E17.2195
G1 X-25.37 Y6.378 E17.24263
G1 X-30.019 Y6.342 E17.53256
G1 X-30.052 Y6.339 E17.53463
G1 X-31.41 Y6.145 E17.62018
G1 X-31.466 Y6.131 E17.62378
G1 X-32.206 Y5.84 E17.67337
G1 X-32.317 Y5.755 E17.68209
G1 X-32.472 Y5.543 E17.69846
G1 X-32.519 Y5.421 E17.70662
G1 X-32.546 Y5.165 E17.72267
G1 X-32.526 Y5.038 E17.73069
G1 X-32.42 Y4.799 E17.74699
G1 X-32.336 Y4.697 E17.75523
G1 X-32.125 Y4.546 E17.77141
G1 X-32.007 Y4.5 E17.77931
G1 X-31.747 Y4.472 E17.79562
G1 X-31.655 Y4.48 E17.80138
G1 X-30.407 Y4.817 E17.882
G1 X-29.275 Y4.771 E17.95265
G1 X-28.213 Y4.387 E18.02307
G1 X-27.308 Y3.699 E18.09397
G1 X-26.647 Y2.767 E18.16523
G1 X-26.302 Y1.7 E18.23516
G1 X-26.289 Y0.569 E18.3057
G1 X-26.617 Y-.518 E18.3765
G1 X-27.251 Y-1.454 E18.447
G1 X-28.141 Y-2.16 E18.51785
G1 X-29.19 Y-2.566 E18.588
G1 X-30.322 Y-2.639 E18.65874
G1 X-31.426 Y-2.372 E18.72957
G1 X-32.409 Y-1.777 E18.80123
G1 X-32.919 Y-1.294 E18.84503
G1 X-33.012 Y-1.238 E18.8518
G1 X-33.25 Y-1.159 E18.86744
G1 X-33.366 Y-1.149 E18.8747
G1 X-33.601 Y-1.184 E18.88952
G1 X-33.719 Y-1.235 E18.89754
G1 X-33.916 Y-1.39 E18.91317
G1 X-33.99 Y-1.486 E18.92073
G1 X-34.089 Y-1.713 E18.93617
G1 X-34.11 Y-1.824 E18.94322
G1 X-34.098 Y-2.105 E18.96076
G1 X-34.072 Y-2.205 E18.9672
G1 X-28.824 Y-12.792 E19.7041
G1 X-28.809 Y-12.819 E19.70603
G1 X-27.966 Y-14.098 E19.80156
G1 X-27.937 Y-14.134 E19.80444
G1 X-27.398 Y-14.693 E19.85287
G1 X-27.374 Y-14.714 E19.85485
G1 X-26.766 Y-15.202 E19.90347
G1 X-26.729 Y-15.227 E19.90626
G1 X-25.377 Y-15.955 E20.00202
G1 X-25.319 Y-15.978 E20.00591
G1 X-23.82 Y-16.353 E20.10227
G1 X-23.774 Y-16.36 E20.10517
G1 X-22.994 Y-16.408 E20.15391
G1 X-22.947 Y-16.406 E20.15684
G1 X-21.421 Y-16.209 E20.2528
G1 X-21.362 Y-16.194 E20.2566
G1 X-19.931 Y-15.634 E20.35243
G1 X-19.877 Y-15.604 E20.35628
G1 X-18.614 Y-14.702 E20.45307
G1 X-18.579 Y-14.672 E20.45594
G1 X-18.048 Y-14.118 E20.5038
G1 X-18.019 Y-14.082 E20.50668
G1 X-17.177 Y-12.793 E20.6027
G1 X-17.15 Y-12.737 E20.60657
G1 X-16.646 Y-11.271 E20.70325
G1 X-16.633 Y-11.211 E20.70708
G1 X-16.506 Y-9.679 E20.80295
G1 X-16.506 Y-9.633 E20.80581
G1 X-16.584 Y-8.861 E20.8542
G1 X-16.592 Y-8.819 E20.85687
G1 X-17.217 Y-6.581 E21.00178
G1 X-17.155 Y-5.846 E21.04778
G1 X-16.937 Y-5.343 E21.08197
G1 X-16.649 Y-5.117 E21.1048
G1 X-16.293 Y-5.056 E21.12732
G1 X-15.943 Y-5.176 E21.15039
G1 X-15.698 Y-5.441 E21.1729
G1 X-15.6 Y-5.826 E21.19768
G1 X-15.6 Y-12.906 E21.6392
G1 X-15.561 Y-13.04 E21.64791
G1 X-15.455 Y-13.133 E21.6567
G1 X-15.35 Y-13.156 E21.66341
G1 X13.335 Y-13.156 E23.45228
G1 X13.469 Y-13.117 E23.46098
G1 X13.562 Y-13.011 E23.46978
G1 X13.585 Y-12.907 E23.47642
G1 X13.625 Y-4.703 E23.98805
G1 X13.819 Y-4.376 E24.01176
G1 X14.139 Y-4.193 E24.03475
G1 X30.01 Y-4.156 E25.02451
G1 X30.044 Y-4.154 E25.02664
G1 X31.401 Y-3.963 E25.1121
G1 X31.457 Y-3.948 E25.11571
G1 X32.206 Y-3.654 E25.16589
G1 X32.318 Y-3.567 E25.17474
G1 X32.472 Y-3.353 E25.19118
G1 X32.517 Y-3.234 E25.19911
G1 X32.545 Y-2.98 E25.21505
G1 X32.526 Y-2.852 E25.22312
G1 X32.421 Y-2.614 E25.23934
G1 X32.338 Y-2.512 E25.24754
G1 X32.126 Y-2.36 E25.26381
G1 X32.007 Y-2.314 E25.27177
G1 X31.747 Y-2.286 E25.28807
G1 X31.655 Y-2.294 E25.29383
G1 X30.412 Y-2.63 E25.37413
G1 X29.279 Y-2.584 E25.44485
G1 X28.217 Y-2.204 E25.51519
G1 X27.316 Y-1.523 E25.58562
G1 X26.653 Y-.592 E25.6569
G1 X26.303 Y0.48 E25.72723
G1 X26.289 Y1.612 E25.79783
G1 X26.613 Y2.697 E25.86844
G1 X27.248 Y3.636 E25.93913
G1 X28.132 Y4.339 E26.00957
G1 X29.192 Y4.752 E26.08051
G1 X30.317 Y4.826 E26.15082
G1 X31.423 Y4.56 E26.22176
G1 X32.404 Y3.969 E26.29319
G1 X33.028 Y3.422 E26.34493
G1 X33.167 Y3.361 E26.3544
G1 X33.419 Y3.335 E26.3702
G1 X33.544 Y3.355 E26.37809
G1 X33.77 Y3.453 E26.39346
G1 X33.868 Y3.528 E26.40115
G1 X34.022 Y3.724 E26.4167
G1 X34.075 Y3.864 E26.42603
G1 X34.098 Y4.269 E26.45133
G1 X34.057 Y4.42 E26.46109
G1 X28.639 Y12.677 E27.07697
G1 X28.607 Y12.717 E27.08017
G1 X24.997 Y16.334 E27.39886
G1 X24.819 Y16.407 E27.41086
G1 X11.071 Y16.364 E28.26822
G1 X10.977 Y16.345 E28.2742
G1 X10.167 Y16.011 E28.32884
G1 X10.086 Y15.957 E28.33492
G1 X9.465 Y15.339 E28.38955
G1 X9.41 Y15.258 E28.39566
G1 X9.072 Y14.45 E28.45028
G1 X9.053 Y14.358 E28.45614
G1 X9.006 Y11.096 E28.65958
G1 X8.832 Y9.823 E28.73971
G1 X8.321 Y8.636 E28.8203
G1 X7.949 Y8.101 E28.86094
G1 X7.528 Y7.65 E28.89942
G1 X6.481 Y6.897 E28.97984
G1 X5.291 Y6.462 E29.05886
G1 X4.899 Y6.481 E29.08333
G1 F6600 E26.08333
G0 F4950 X-20.656 Y-5.844
;TYPE:SUPPORT
G1 F6600 E29.08333
G1 F1800 X-25.343 Y-5.844 E29.37563
G1 X-27.69 Y-9.91 E29.6684
G1 X-25.346 Y-13.969 E29.96071
G1 X-20.653 Y-13.969 E30.25338
G1 X-18.309 Y-9.91 E30.54569
G1 X-20.656 Y-5.844 E30.83846
G0 F4950 X-21.405 Y-7.162
G1 F1800 X-20.9 Y-7.525 E30.87725
G1 X-20.563 Y-7.868 E30.90724
G1 X-20.232 Y-8.363 E30.94437
G1 X-20.02 Y-8.83 E30.97635
G1 X-19.853 Y-9.42 E31.01459
G1 X-19.825 Y-10.007 E31.05124
G1 X-19.891 Y-10.521 E31.08356
G1 X-20.036 Y-11.062 E31.11849
G1 X-20.305 Y-11.578 E31.15478
G1 X-20.589 Y-11.97 E31.18497
G1 X-20.91 Y-12.305 E31.2139
G1 X-21.409 Y-12.664 E31.25224
G1 X-21.93 Y-12.888 E31.2876
G1 X-22.443 Y-13.032 E31.32083
G1 X-22.999 Y-13.078 E31.35562
G1 X-23.566 Y-13.026 E31.39113
G1 X-24.023 Y-12.921 E31.42037
G1 X-24.57 Y-12.668 E31.45796
G1 X-25.07 Y-12.313 E31.4962
G1 X-25.411 Y-11.971 E31.52632
G1 X-25.749 Y-11.487 E31.56313
G1 X-25.97 Y-11.039 E31.59429
G1 X-26.126 Y-10.486 E31.63012
G1 X-26.169 Y-10.004 E31.6603
G1 X-26.132 Y-9.368 E31.70003
G1 X-25.995 Y-8.841 E31.73399
G1 X-25.75 Y-8.323 E31.76972
G1 X-25.447 Y-7.882 E31.80309
G1 X-25.079 Y-7.504 E31.83599
G1 X-24.594 Y-7.174 E31.87257
G1 X-24.12 Y-6.931 E31.90579
G1 X-23.521 Y-6.779 E31.94433
G1 X-22.979 Y-6.731 E31.97826
G1 X-22.51 Y-6.764 E32.00758
G1 X-21.881 Y-6.928 E32.04812
G1 X-21.405 Y-7.162 E32.0812
G0 F4950 X-22.088 Y-6.666
G1 F1800 X-20.412 Y-6.666 E32.18572
G0 F4950 X-19.998 Y-7.382
G1 F1800 X-19.998 Y-8.394 E32.24883
G0 F4950 X-19.998 Y-11.423
G1 F1800 X-19.998 Y-12.434 E32.31188
G0 F4950 X-20.517 Y-13.332
G1 F1800 X-25.481 Y-13.332 E32.62145
G0 F4950 X-26.664 Y-11.287
G1 F1800 X-26.664 Y-8.531 E32.79332
G0 F4950 X-25.588 Y-6.666
G1 F1800 X-23.898 Y-6.666 E32.89871
G0 F4950 X-26.067 Y-4.594
;TYPE:WALL-INNER
G1 F1800 X-19.932 Y-4.594 E33.28131
G1 X-18.657 Y-6.804 E33.44042
G1 X-18.604 Y-6.895 E33.44699
G1 X-18.351 Y-7.332 E33.47848
G1 X-18.119 Y-7.734 E33.50742
G1 X-17.755 Y-8.365 E33.55285
G1 X-17.701 Y-8.459 E33.55961
G1 X-17.726 Y-8.348
G1 X-17.979 Y-7.654 E33.56893
G1 X-18.13 Y-7.205 E33.57767
G1 X-18.22 Y-6.674 E33.60155
G1 X-18.22 Y-6.568 E33.6078
G1 X-18.221 Y-6.134 E33.63487
G1 X-18.131 Y-5.596 E33.66888
G1 X-17.944 Y-5.064 E33.70405
G1 X-17.735 Y-4.719 E33.72921
G1 X-17.435 Y-4.415 E33.75584
G1 X-17.058 Y-4.188 E33.78329
G1 X-16.645 Y-4.067 E33.81012
G1 X-16.215 Y-4.044 E33.83698
G1 X-15.785 Y-4.132 E33.86435
G1 X-15.394 Y-4.323 E33.89149
G1 X-15.062 Y-4.602 E33.91853
G1 X-14.81 Y-4.954 E33.94553
G1 X-14.65 Y-5.357 E33.97257
G1 X-14.6 Y-5.747 E33.99709
G1 X-14.6 Y-12.156 E34.39677
G1 X12.585 Y-12.156 E36.0921
G1 X12.585 Y-4.853 E36.54754
G1 X12.644 Y-4.433 E36.57399
G1 X12.825 Y-4.011 E36.60263
G1 X13.109 Y-3.65 E36.63127
G1 X13.474 Y-3.378 E36.65966
G1 X13.88 Y-3.211 E36.68704
G1 X14.278 Y-3.157 E36.71208
G1 X27.081 Y-3.157 E37.51051
G1 X27.133 Y-3.157 E37.51376
G1 X27.739 Y-3.157 E37.55155
G1 X27.894 Y-3.156 E37.56121
G1 X27.739 Y-3.087
G1 X27.133 Y-2.697 E37.58748
G1 X27.094 Y-2.663 E37.59059
G1 X26.592 Y-2.22 E37.63234
G1 X26.132 Y-1.665 E37.67729
G1 X25.758 Y-1.05 E37.72218
G1 X25.484 Y-.385 E37.76704
G1 X25.312 Y0.314 E37.81193
G1 X25.249 Y1.03 E37.85675
G1 X25.292 Y1.749 E37.90167
G1 X25.447 Y2.455 E37.94675
G1 X25.704 Y3.126 E37.99156
G1 X26.062 Y3.754 E38.03664
G1 X26.51 Y4.317 E38.08151
G1 X27.036 Y4.808 E38.12638
G1 X27.633 Y5.213 E38.17137
G1 X28.282 Y5.523 E38.21622
G1 X28.973 Y5.732 E38.26124
G1 X29.684 Y5.833 E38.30603
G1 X30.404 Y5.828 E38.35093
G1 X31.116 Y5.712 E38.39592
G1 X31.535 Y5.576 E38.42339
G1 X31.801 Y5.49 E38.44083
G1 X32.34 Y5.219 E38.47845
G1 X32.055 Y5.655 E38.48728
G1 X31.902 Y5.889 E38.50145
G1 X27.935 Y11.96 E38.95372
G1 X27.87 Y12.04 E38.96015
G1 X24.509 Y15.407 E39.25683
G1 X11.55 Y15.407 E40.06499
G1 X11.218 Y15.375 E40.08579
G1 X10.943 Y15.292 E40.10371
G1 X10.679 Y15.152 E40.12234
G1 X10.454 Y14.969 E40.14043
G1 X10.266 Y14.741 E40.15886
G1 X10.128 Y14.484 E40.17705
G1 X10.041 Y14.201 E40.19551
G1 X10.008 Y13.877 E40.21582
G1 X10.006 Y11.059 E40.39156
G1 X9.955 Y10.316 E40.438
G1 X9.8 Y9.554 E40.4865
G1 X9.54 Y8.82 E40.53506
G1 X9.185 Y8.128 E40.58356
G1 X8.74 Y7.489 E40.63212
G1 X8.213 Y6.917 E40.68063
G1 X7.612 Y6.422 E40.72918
G1 X6.952 Y6.011 E40.77767
G1 X6.24 Y5.694 E40.82627
G1 X5.466 Y5.469 E40.87654
G1 X5.04 Y5.433 E40.9032
G1 X4.597 Y5.512 E40.93126
G1 X4.192 Y5.699 E40.95908
G1 X3.845 Y5.982 E40.98701
G1 X3.582 Y6.344 E41.01491
G1 X3.422 Y6.747 E41.04195
G1 X3.371 Y7.138 E41.06654
G1 X3.371 Y14.343 E41.51587
G1 X-23.814 Y14.343 E43.2112
G1 X-23.814 Y7.04 E43.66663
G1 X-23.873 Y6.619 E43.69314
G1 X-24.054 Y6.197 E43.72178
G1 X-24.338 Y5.837 E43.75038
G1 X-24.702 Y5.565 E43.77871
G1 X-25.11 Y5.396 E43.80625
G1 X-25.51 Y5.344 E43.83141
G1 X-27.082 Y5.344 E43.92944
G1 X-27.125 Y5.344 E43.93212
G1 X-27.73 Y5.344 E43.96985
G1 X-27.897 Y5.343 E43.98027
G1 X-27.73 Y5.268
G1 X-27.125 Y4.877 E44.00707
G1 X-27.093 Y4.849 E44.00964
G1 X-26.586 Y4.399 E44.05192
G1 X-26.126 Y3.845 E44.09682
G1 X-25.754 Y3.227 E44.14181
G1 X-25.481 Y2.562 E44.18664
G1 X-25.31 Y1.863 E44.23151
G1 X-25.248 Y1.144 E44.27652
G1 X-25.295 Y0.426 E44.32139
G1 X-25.449 Y-.277 E44.36627
G1 X-25.709 Y-.95 E44.41126
G1 X-26.068 Y-1.574 E44.45616
G1 X-26.515 Y-2.138 E44.50104
G1 X-27.043 Y-2.628 E44.54596
G1 X-27.641 Y-3.032 E44.59097
G1 X-28.291 Y-3.341 E44.63585
G1 X-28.981 Y-3.548 E44.68077
G1 X-29.694 Y-3.648 E44.72567
G1 X-30.415 Y-3.641 E44.77064
G1 X-31.125 Y-3.523 E44.81553
G1 X-31.811 Y-3.301 E44.86049
G1 X-31.909 Y-3.251 E44.86735
G1 X-32.454 Y-2.975 E44.90545
G1 X-32.613 Y-2.862 E44.91761
G1 X-32.538 Y-3.015
G1 X-32.268 Y-3.562 E44.94096
G1 X-29.34 Y-9.489 E45.35323
G1 X-29.134 Y-9.907 E45.38229
G1 X-27.945 Y-12.314 E45.54971
G1 X-27.589 Y-12.935 E45.59435
G1 X-27.185 Y-13.472 E45.63626
G1 X-26.913 Y-13.754 E45.66069
G1 X-27.103 Y-13.425
G1 X-27.436 Y-12.848 E45.6723
G1 X-27.794 Y-12.228 E45.68786
