;-- START GCODE --
;Sliced for Type A Machines Series 1
;Sliced at: Thu 15-06-2017 07:16:25
;Basic settings:
;	Layer height: 0.15
;	Walls: 0.8
;	Fill: 2.1
;	Print Speed: 20
;	Support: 0
;	Retraction Speed: 30
;	Retraction Distance: 1.8
;Print time: 2 hours 45 minutes
;Filament used: 4.606m 13.0g
;Settings based on: Fenner Drive NinjaFlex
G21        ;metric values
G90        ;absolute positioning
G28     ;move to endstops
G29		;allows for auto-levelling
G1 Z15.0 F12000 ;move the platform down 15mm
G1 X150 Y5 F12000 ;center
M109 S240 ;Heat To temp
G1 X150 Y5 Z0.3 ;move the platform to purge extrusion
G92 E0 ;zero the extruded length
G1 F200 X250 E30 ;extrude 30mm of feed stock
G92 E0 ;zero the extruded length again
G1 X150 Y150  Z25 F12000 ;recenter and begin
G1 F12000

;Layer count: 33
;LAYER:0
M107
G1 F1800 E-1.80000
G0 F12000 X112.822 Y114.927 Z0.200
;TYPE:WALL-INNER
G1 F1800 E0.00000
G1 F1200 X115.131 Y112.628 E0.06502
G1 X117.575 Y110.472 E0.13006
G1 X120.168 Y108.446 E0.19573
G1 X122.846 Y106.600 E0.26064
G1 X125.715 Y104.866 E0.32754
G1 X128.545 Y103.384 E0.39129
G1 X131.525 Y102.038 E0.45654
G1 X134.575 Y100.877 E0.52167
G1 X137.693 Y99.898 E0.58689
G1 X140.860 Y99.107 E0.65203
G1 X144.085 Y98.505 E0.71750
G1 X147.326 Y98.100 E0.78268
G1 X150.581 Y97.888 E0.84778
G1 X153.865 Y97.871 E0.91331
G1 X153.944 Y97.870 E0.91489
G1 X157.107 Y98.048 E0.97811
G1 X160.365 Y98.423 E1.04356
G1 X163.592 Y98.991 E1.10894
G1 X166.759 Y99.747 E1.17392
G1 X169.893 Y100.698 E1.23928
G1 X172.958 Y101.830 E1.30448
G1 X175.962 Y103.149 E1.36996
G1 X178.855 Y104.632 E1.43483
G1 X181.671 Y106.295 E1.50010
G1 X184.387 Y108.126 E1.56546
G1 X186.984 Y110.114 E1.63073
G1 X189.457 Y112.253 E1.69598
G1 X191.804 Y114.541 E1.76139
G1 X193.993 Y116.948 E1.82632
G1 X196.046 Y119.495 E1.89160
G1 X197.943 Y122.160 E1.95688
G1 X199.675 Y124.934 E2.02215
G1 X201.233 Y127.793 E2.08712
G1 X202.632 Y130.772 E2.15280
G1 X203.841 Y133.810 E2.21805
G1 X204.862 Y136.901 E2.28301
G1 X205.702 Y140.061 E2.34827
G1 X206.351 Y143.277 E2.41374
G1 X206.803 Y146.494 E2.47857
G1 X207.065 Y149.765 E2.54405
G1 X207.131 Y153.041 E2.60944
G1 X207.133 Y153.110 E2.61082
G1 X207.001 Y156.304 E2.67461
G1 X206.997 Y156.387 E2.67627
G1 X206.677 Y159.554 E2.73979
G1 X206.158 Y162.776 E2.80492
G1 X205.449 Y165.957 E2.86996
G1 X204.548 Y169.099 E2.93519
G1 X203.456 Y172.197 E3.00074
G1 X202.187 Y175.210 E3.06598
G1 X200.741 Y178.136 E3.13112
G1 X199.126 Y180.966 E3.19614
G1 X197.328 Y183.722 E3.26181
G1 X195.394 Y186.331 E3.32662
G1 X193.279 Y188.851 E3.39227
G1 X191.046 Y191.210 E3.45710
G1 X188.653 Y193.453 E3.52255
G1 X186.084 Y195.588 E3.58921
G1 X183.433 Y197.528 E3.65477
G1 X180.761 Y199.249 E3.71819
G1 X177.911 Y200.856 E3.78349
G1 X174.962 Y202.295 E3.84897
G1 X171.959 Y203.544 E3.91387
G1 X168.873 Y204.615 E3.97906
G1 X165.720 Y205.502 E4.04443
G1 X162.524 Y206.199 E4.10970
G1 X159.204 Y206.717 E4.17676
G1 X156.051 Y207.012 E4.23996
G1 X152.689 Y207.130 E4.30709
G1 X149.501 Y207.046 E4.37073
G1 X146.239 Y206.769 E4.43606
G1 X143.026 Y206.300 E4.50086
G1 X139.814 Y205.634 E4.56632
G1 X136.648 Y204.778 E4.63177
G1 X133.565 Y203.743 E4.69667
G1 X130.449 Y202.484 E4.76374
G1 X127.573 Y201.112 E4.82733
G1 X124.708 Y199.533 E4.89261
G1 X121.951 Y197.792 E4.95768
G1 X119.287 Y195.878 E5.02314
G1 X116.751 Y193.812 E5.08842
G1 X114.349 Y191.604 E5.15353
G1 X112.073 Y189.248 E5.21890
G1 X109.957 Y186.776 E5.28384
G1 X107.978 Y184.166 E5.34920
G1 X106.171 Y181.457 E5.41419
G1 X104.511 Y178.616 E5.47985
G1 X103.035 Y175.699 E5.54509
G1 X101.739 Y172.710 E5.61011
G1 X100.624 Y169.644 E5.67521
G1 X99.690 Y166.511 E5.74045
G1 X98.943 Y163.311 E5.80603
G1 X98.392 Y160.095 E5.87114
G1 X98.035 Y156.855 E5.93619
G1 X97.867 Y153.491 E6.00341
G1 X97.904 Y150.234 E6.06841
G1 X98.131 Y147.057 E6.13197
G1 X98.552 Y143.825 E6.19702
G1 X99.171 Y140.593 E6.26269
G1 X99.978 Y137.425 E6.32793
G1 X100.965 Y134.332 E6.39272
G1 X102.153 Y131.263 E6.45839
G1 X103.502 Y128.309 E6.52320
G1 X105.043 Y125.412 E6.58868
G1 X106.753 Y122.614 E6.65412
G1 X108.608 Y119.949 E6.71892
G1 X110.637 Y117.377 E6.78429
G1 X112.822 Y114.927 E6.84980
G1 F1800 E5.04980
G0 F12000 X121.307 Y123.337
G1 F1800 E6.84980
G1 F1200 X119.458 Y125.455 E6.90591
G1 X117.717 Y127.736 E6.96318
G1 X116.124 Y130.140 E7.02073
G1 X116.077 Y130.211 E7.02243
G1 X114.692 Y132.659 E7.07856
G1 X113.443 Y135.246 E7.13588
G1 X113.407 Y135.323 E7.13758
G1 X112.365 Y137.932 E7.19364
G1 X111.473 Y140.674 E7.25119
G1 X110.770 Y143.472 E7.30876
G1 X110.256 Y146.309 E7.36630
G1 X109.935 Y149.175 E7.42385
G1 X109.809 Y152.044 E7.48116
G1 X109.805 Y152.127 E7.48282
G1 X109.877 Y155.010 E7.54037
G1 X110.138 Y157.810 E7.59649
G1 X110.592 Y160.647 E7.65382
G1 X111.238 Y163.458 E7.71138
G1 X112.097 Y166.297 E7.77057
G1 X113.096 Y168.926 E7.82670
G1 X114.296 Y171.548 E7.88424
G1 X115.663 Y174.074 E7.94156
G1 X117.210 Y176.520 E7.99931
G1 X118.914 Y178.847 E8.05687
G1 X120.769 Y181.055 E8.11442
G1 X122.820 Y183.184 E8.17342
G1 X124.906 Y185.069 E8.22952
G1 X127.168 Y186.856 E8.28705
G1 X129.546 Y188.488 E8.34461
G1 X132.029 Y189.955 E8.40216
G1 X134.595 Y191.246 E8.45948
G1 X137.264 Y192.372 E8.51729
G1 X139.976 Y193.303 E8.57451
G1 X140.057 Y193.332 E8.57623
G1 X142.774 Y194.060 E8.63236
G1 X145.603 Y194.621 E8.68992
G1 X148.464 Y194.991 E8.74749
G1 X151.326 Y195.165 E8.80471
G1 X151.412 Y195.171 E8.80643
G1 X154.214 Y195.148 E8.86235
G1 X154.298 Y195.147 E8.86402
G1 X157.100 Y194.934 E8.92010
G1 X159.955 Y194.527 E8.97765
G1 X162.776 Y193.926 E9.03521
G1 X165.550 Y193.138 E9.09276
G1 X168.264 Y192.165 E9.15030
G1 X170.973 Y190.980 E9.20930
G1 X173.465 Y189.679 E9.26540
G1 X175.928 Y188.178 E9.32296
G1 X178.283 Y186.515 E9.38050
G1 X180.521 Y184.697 E9.43804
G1 X182.631 Y182.730 E9.49560
G1 X184.605 Y180.627 E9.55316
G1 X186.430 Y178.396 E9.61068
G1 X188.101 Y176.046 E9.66823
G1 X189.610 Y173.587 E9.72580
G1 X190.950 Y171.035 E9.78332
G1 X192.144 Y168.330 E9.84233
G1 X193.098 Y165.685 E9.89844
G1 X193.896 Y162.914 E9.95599
G1 X194.505 Y160.095 E10.01354
G1 X194.923 Y157.241 E10.07110
G1 X195.147 Y154.367 E10.12863
G1 X195.176 Y151.498 E10.18589
G1 X195.177 Y151.413 E10.18758
G1 X195.012 Y148.605 E10.24372
G1 X194.653 Y145.743 E10.30128
G1 X194.100 Y142.913 E10.35882
G1 X193.359 Y140.127 E10.41635
G1 X192.432 Y137.396 E10.47391
G1 X191.321 Y134.734 E10.53147
G1 X190.038 Y132.162 E10.58883
G1 X188.575 Y129.666 E10.64657
G1 X186.952 Y127.283 E10.70410
G1 X185.172 Y125.015 E10.76164
G1 X183.241 Y122.872 E10.81921
G1 X181.172 Y120.863 E10.87676
G1 X178.971 Y119.000 E10.93430
G1 X176.650 Y117.289 E10.99185
G1 X174.218 Y115.739 E11.04940
G1 X171.698 Y114.362 E11.10671
G1 X169.069 Y113.147 E11.16450
G1 X166.375 Y112.118 E11.22205
G1 X163.548 Y111.252 E11.28106
G1 X160.821 Y110.620 E11.33692
G1 X157.978 Y110.154 E11.39441
G1 X157.894 Y110.140 E11.39611
G1 X155.094 Y109.878 E11.45223
G1 X152.139 Y109.799 E11.51122
G1 X149.258 Y109.920 E11.56877
G1 X146.464 Y110.227 E11.62486
G1 X143.624 Y110.732 E11.68242
G1 X140.824 Y111.426 E11.73999
G1 X138.079 Y112.308 E11.79753
G1 X135.400 Y113.372 E11.85505
G1 X132.732 Y114.648 E11.91407
G1 X130.285 Y116.033 E11.97018
G1 X127.883 Y117.609 E12.02752
G1 X125.576 Y119.357 E12.08528
G1 X123.346 Y121.298 E12.14428
G1 X121.307 Y123.337 E12.20182
G0 F12000 X121.482 Y123.501
;TYPE:WALL-OUTER
G1 F1200 X119.644 Y125.607 E12.25760
G1 X117.860 Y127.943 E12.31626
G1 X116.282 Y130.337 E12.37348
G1 X114.905 Y132.770 E12.42927
G1 X113.627 Y135.419 E12.48796
G1 X112.591 Y138.014 E12.54372
G1 X111.704 Y140.741 E12.60095
G1 X111.005 Y143.523 E12.65819
G1 X110.493 Y146.344 E12.71541
G1 X110.174 Y149.194 E12.77264
G1 X110.049 Y152.053 E12.82975
G1 X110.045 Y152.130 E12.83129
G1 X110.117 Y154.996 E12.88850
G1 X110.376 Y157.780 E12.94430
G1 X110.829 Y160.608 E13.00145
G1 X111.471 Y163.403 E13.05868
G1 X112.324 Y166.220 E13.11742
G1 X113.317 Y168.833 E13.17320
G1 X114.511 Y171.441 E13.23044
G1 X115.874 Y173.959 E13.28758
G1 X117.409 Y176.385 E13.34487
G1 X119.103 Y178.699 E13.40210
G1 X120.948 Y180.894 E13.45933
G1 X122.987 Y183.011 E13.51798
G1 X125.061 Y184.886 E13.57378
G1 X127.311 Y186.663 E13.63099
G1 X129.675 Y188.285 E13.68821
G1 X132.144 Y189.744 E13.74544
G1 X134.702 Y191.031 E13.80258
G1 X137.349 Y192.147 E13.85991
G1 X140.056 Y193.077 E13.91703
G1 X142.829 Y193.826 E13.97435
G1 X145.642 Y194.384 E14.03158
G1 X148.487 Y194.752 E14.08883
G1 X151.343 Y194.926 E14.14593
G1 X151.419 Y194.931 E14.14745
G1 X154.287 Y194.907 E14.20468
G1 X157.074 Y194.695 E14.26046
G1 X159.913 Y194.290 E14.31769
G1 X162.718 Y193.693 E14.37492
G1 X165.477 Y192.909 E14.43216
G1 X168.175 Y191.942 E14.48936
G1 X170.869 Y190.763 E14.54804
G1 X173.347 Y189.470 E14.60382
G1 X175.796 Y187.977 E14.66106
G1 X178.138 Y186.324 E14.71826
G1 X180.364 Y184.516 E14.77549
G1 X182.462 Y182.560 E14.83273
G1 X184.424 Y180.469 E14.88996
G1 X186.239 Y178.250 E14.94716
G1 X187.901 Y175.913 E15.00439
G1 X189.401 Y173.468 E15.06164
G1 X190.734 Y170.930 E15.11885
G1 X191.921 Y168.241 E15.17750
G1 X192.869 Y165.611 E15.23329
G1 X193.663 Y162.855 E15.29053
G1 X194.269 Y160.052 E15.34776
G1 X194.684 Y157.214 E15.40500
G1 X194.907 Y154.356 E15.46220
G1 X194.937 Y151.418 E15.52084
G1 X194.773 Y148.627 E15.57663
G1 X194.416 Y145.781 E15.63387
G1 X193.866 Y142.967 E15.69109
G1 X193.129 Y140.196 E15.74831
G1 X192.207 Y137.481 E15.80553
G1 X191.102 Y134.834 E15.86277
G1 X189.824 Y132.271 E15.91993
G1 X188.372 Y129.795 E15.97721
G1 X186.758 Y127.425 E16.03443
G1 X184.988 Y125.170 E16.09164
G1 X183.068 Y123.039 E16.14888
G1 X181.011 Y121.041 E16.20610
G1 X178.822 Y119.189 E16.26332
G1 X176.514 Y117.487 E16.32055
G1 X174.096 Y115.946 E16.37777
G1 X171.516 Y114.536 E16.43645
G1 X168.976 Y113.368 E16.49224
G1 X166.297 Y112.345 E16.54947
G1 X163.486 Y111.484 E16.60813
G1 X160.768 Y110.854 E16.66381
G1 X160.694 Y110.836 E16.66533
G1 X157.862 Y110.378 E16.72258
G1 X155.079 Y110.118 E16.77836
G1 X152.141 Y110.039 E16.83701
G1 X149.276 Y110.159 E16.89424
G1 X146.498 Y110.465 E16.95001
G1 X143.674 Y110.967 E17.00725
G1 X140.890 Y111.657 E17.06449
G1 X138.160 Y112.534 E17.12171
G1 X135.496 Y113.592 E17.17891
G1 X132.843 Y114.861 E17.23760
G1 X130.410 Y116.238 E17.29339
G1 X127.953 Y117.851 E17.35205
G1 X125.727 Y119.543 E17.40785
G1 X123.510 Y121.473 E17.46650
G1 X121.482 Y123.501 E17.52374
G1 F1800 E15.72374
G0 F12000 X112.643 Y114.767
G1 F1800 E17.52374
G1 F1200 X114.970 Y112.450 E17.58927
G1 X117.427 Y110.283 E17.65465
G1 X120.020 Y108.257 E17.72032
G1 X122.717 Y106.398 E17.78569
G1 X125.604 Y104.653 E17.85300
G1 X128.440 Y103.168 E17.91689
G1 X131.425 Y101.820 E17.98225
G1 X134.501 Y100.649 E18.04793
G1 X137.629 Y99.666 E18.11337
G1 X140.812 Y98.872 E18.17883
G1 X144.045 Y98.268 E18.24447
G1 X147.298 Y97.862 E18.30989
G1 X150.581 Y97.648 E18.37554
G1 X153.939 Y97.630 E18.44256
G1 X157.141 Y97.810 E18.50656
G1 X160.399 Y98.185 E18.57200
G1 X163.630 Y98.754 E18.63747
G1 X166.831 Y99.518 E18.70315
G1 X169.966 Y100.469 E18.76852
G1 X173.052 Y101.609 E18.83418
G1 X176.052 Y102.926 E18.89956
G1 X178.980 Y104.427 E18.96522
G1 X181.802 Y106.094 E19.03063
G1 X184.530 Y107.933 E19.09628
G1 X187.131 Y109.924 E19.16165
G1 X189.620 Y112.077 E19.22733
G1 X191.966 Y114.364 E19.29271
G1 X194.180 Y116.798 E19.35837
G1 X196.237 Y119.349 E19.42377
G1 X198.140 Y122.024 E19.48928
G1 X199.883 Y124.815 E19.55495
G1 X201.451 Y127.691 E19.62031
G1 X202.849 Y130.670 E19.68598
G1 X204.092 Y133.790 E19.75301
G1 X205.092 Y136.831 E19.81689
G1 X205.935 Y140.005 E19.88243
G1 X206.585 Y143.223 E19.94794
G1 X207.042 Y146.475 E20.01348
G1 X207.305 Y149.755 E20.07914
G1 X207.373 Y153.111 E20.14613
G1 X207.237 Y156.399 E20.21180
G1 X206.916 Y159.577 E20.27554
G1 X206.394 Y162.818 E20.34106
G1 X205.680 Y166.023 E20.40658
G1 X204.775 Y169.179 E20.47210
G1 X203.683 Y172.276 E20.53764
G1 X202.409 Y175.302 E20.60316
G1 X200.951 Y178.253 E20.66884
G1 X199.328 Y181.097 E20.73419
G1 X197.529 Y183.853 E20.79987
G1 X195.578 Y186.485 E20.86525
G1 X193.462 Y189.006 E20.93093
G1 X191.210 Y191.385 E20.99631
G1 X188.810 Y193.634 E21.06194
G1 X186.226 Y195.782 E21.12900
G1 X183.572 Y197.724 E21.19463
G1 X180.886 Y199.454 E21.25838
G1 X178.020 Y201.069 E21.32403
G1 X175.068 Y202.510 E21.38959
G1 X172.036 Y203.771 E21.45512
G1 X168.942 Y204.846 E21.52048
G1 X165.775 Y205.736 E21.58613
G1 X162.574 Y206.434 E21.65151
G1 X159.240 Y206.954 E21.71885
G1 X156.060 Y207.252 E21.78259
G1 X152.692 Y207.370 E21.84984
G1 X149.492 Y207.286 E21.91373
G1 X149.415 Y207.283 E21.91526
G1 X146.218 Y207.008 E21.97930
G1 X142.976 Y206.535 E22.04468
G1 X139.754 Y205.867 E22.11035
G1 X136.590 Y205.011 E22.17576
G1 X133.472 Y203.965 E22.24139
G1 X130.357 Y202.706 E22.30844
G1 X127.468 Y201.328 E22.37231
G1 X124.587 Y199.740 E22.43796
G1 X121.812 Y197.988 E22.50345
G1 X119.084 Y196.026 E22.57051
G1 X116.535 Y193.945 E22.63618
G1 X114.181 Y191.777 E22.70004
G1 X111.905 Y189.420 E22.76543
G1 X109.765 Y186.921 E22.83109
G1 X107.786 Y184.309 E22.89648
G1 X105.960 Y181.572 E22.96214
G1 X104.304 Y178.737 E23.02766
G1 X102.821 Y175.808 E23.09318
G1 X101.515 Y172.795 E23.15871
G1 X100.393 Y169.710 E23.22422
G1 X99.455 Y166.563 E23.28976
G1 X98.709 Y163.366 E23.35527
G1 X98.154 Y160.130 E23.42079
G1 X97.795 Y156.872 E23.48620
G1 X97.627 Y153.510 E23.55338
G1 X97.664 Y150.229 E23.61886
G1 X97.893 Y147.030 E23.68286
G1 X98.316 Y143.780 E23.74826
G1 X98.935 Y140.548 E23.81393
G1 X99.743 Y137.372 E23.87933
G1 X100.741 Y134.245 E23.94484
G1 X101.926 Y131.183 E24.01036
G1 X103.290 Y128.196 E24.07589
G1 X104.831 Y125.298 E24.14139
G1 X106.586 Y122.425 E24.20857
G1 X108.423 Y119.795 E24.27259
G1 X110.453 Y117.223 E24.33798
G1 X112.643 Y114.767 E24.40365
G0 F12000 X112.800 Y115.078
;TYPE:SKIN
G1 F1200 X112.800 Y136.616 E24.83346
G0 F12000 X112.560 Y137.216
G1 F1200 X112.560 Y115.347 E25.26988
G0 F12000 X112.320 Y115.616
G1 F1200 X112.320 Y137.817 E25.71293
G0 F12000 X112.080 Y138.535
G1 F1200 X112.080 Y115.885 E26.16493
G0 F12000 X111.840 Y116.154
G1 F1200 X111.840 Y139.274 E26.62632
G1 F1800 E24.82632
G0 F12000 X113.040 Y136.015
G1 F1800 E26.62632
G1 F1200 X113.040 Y114.828 E27.04913
G0 F12000 X113.280 Y114.589
G1 F1200 X113.280 Y135.414 E27.46471
G0 F12000 X113.520 Y134.896
G1 F1200 X113.520 Y114.350 E27.87473
G0 F12000 X113.760 Y114.111
G1 F1200 X113.760 Y134.398 E28.27958
G0 F12000 X114.000 Y133.901
G1 F1200 X114.000 Y113.872 E28.67928
G0 F12000 X114.240 Y113.633
G1 F1200 X114.240 Y133.403 E29.07381
G0 F12000 X114.480 Y132.905
G1 F1200 X114.480 Y113.394 E29.46317
G0 F12000 X114.720 Y113.155
G1 F1200 X114.720 Y132.439 E29.84801
G0 F12000 X114.960 Y132.015
G1 F1200 X114.960 Y112.916 E30.22915
G0 F12000 X115.200 Y112.679
G1 F1200 X115.200 Y131.591 E30.60656
G0 F12000 X115.440 Y131.167
G1 F1200 X115.440 Y112.467 E30.97974
G0 F12000 X115.680 Y112.255
G1 F1200 X115.680 Y130.743 E31.34868
G0 F12000 X115.920 Y130.319
G1 F1200 X115.920 Y112.043 E31.71340
G0 F12000 X116.160 Y111.832
G1 F1200 X116.160 Y129.935 E32.07467
G0 F12000 X116.400 Y129.572
G1 F1200 X116.400 Y111.620 E32.43292
G0 F12000 X116.640 Y111.408
G1 F1200 X116.640 Y129.210 E32.78818
G0 F12000 X116.880 Y128.848
G1 F1200 X116.880 Y111.197 E33.14042
G0 F12000 X117.120 Y110.985
G1 F1200 X117.120 Y128.485 E33.48965
G0 F12000 X117.360 Y128.123
G1 F1200 X117.360 Y110.773 E33.83589
G0 F12000 X117.600 Y110.561
G1 F1200 X117.600 Y127.761 E34.17913
G0 F12000 X117.840 Y127.437
G1 F1200 X117.840 Y110.371 E34.51971
G0 F12000 X118.080 Y110.184
G1 F1200 X118.080 Y127.122 E34.85772
G0 F12000 X118.320 Y126.808
G1 F1200 X118.320 Y109.996 E35.19322
G0 F12000 X118.560 Y109.809
G1 F1200 X118.560 Y126.494 E35.52619
G0 F12000 X118.800 Y126.179
G1 F1200 X118.800 Y109.621 E35.85662
G0 F12000 X119.040 Y109.434
G1 F1200 X119.040 Y125.865 E36.18452
G0 F12000 X119.280 Y125.550
G1 F1200 X119.280 Y109.247 E36.50987
G0 F12000 X119.520 Y109.059
G1 F1200 X119.520 Y125.257 E36.83311
G0 F12000 X119.760 Y124.982
G1 F1200 X119.760 Y108.872 E37.15461
G1 F1800 E35.35461
G0 F12000 X111.600 Y116.423
G1 F1800 E37.15461
G1 F1200 X111.600 Y140.012 E37.62535
G0 F12000 X111.360 Y140.780
G1 F1200 X111.360 Y116.692 E38.10605
G0 F12000 X111.120 Y116.961
G1 F1200 X111.120 Y141.736 E38.60046
G0 F12000 X110.880 Y142.692
G1 F1200 X110.880 Y117.231 E39.10857
G0 F12000 X110.640 Y117.508
G1 F1200 X110.640 Y143.716 E39.63158
G0 F12000 X110.400 Y145.039
G1 F1200 X110.400 Y117.812 E40.17492
G0 F12000 X110.160 Y118.117
G1 F1200 X110.160 Y146.413 E40.73960
G1 F1800 E38.93960
G0 F12000 X109.920 Y148.555
G1 F1800 E40.73960
G1 F1200 X109.920 Y118.421 E41.34095
G0 F12000 X109.680 Y118.725
G1 F1200 X109.680 Y186.270 E42.68889
G0 F12000 X109.440 Y185.954
G1 F1200 X109.440 Y119.029 E44.02445
G0 F12000 X109.200 Y119.334
G1 F1200 X109.200 Y185.637 E45.34760
G0 F12000 X108.960 Y185.321
G1 F1200 X108.960 Y119.638 E46.65837
G0 F12000 X108.720 Y119.942
G1 F1200 X108.720 Y185.004 E47.95675
G0 F12000 X108.480 Y184.687
G1 F1200 X108.480 Y120.279 E49.24208
G0 F12000 X108.240 Y120.624
G1 F1200 X108.240 Y184.371 E50.51423
G0 F12000 X108.000 Y184.046
G1 F1200 X108.000 Y120.969 E51.77299
G0 F12000 X107.760 Y121.314
G1 F1200 X107.760 Y183.686 E53.01770
G0 F12000 X107.520 Y183.327
G1 F1200 X107.520 Y121.658 E54.24837
G0 F12000 X107.280 Y122.003
G1 F1200 X107.280 Y182.967 E55.46497
G0 F12000 X107.040 Y182.607
G1 F1200 X107.040 Y122.348 E56.66750
G0 F12000 X106.800 Y122.697
G1 F1200 X106.800 Y182.248 E57.85591
G0 F12000 X106.560 Y181.888
G1 F1200 X106.560 Y123.090 E59.02929
G0 F12000 X106.320 Y123.483
G1 F1200 X106.320 Y181.528 E60.18764
G0 F12000 X106.080 Y181.135
G1 F1200 X106.080 Y123.875 E61.33032
G0 F12000 X105.840 Y124.268
G1 F1200 X105.840 Y180.724 E62.45696
G0 F12000 X105.600 Y180.313
G1 F1200 X105.600 Y124.661 E63.56756
G0 F12000 X105.360 Y125.054
G1 F1200 X105.360 Y179.902 E64.66211
G0 F12000 X105.120 Y179.491
G1 F1200 X105.120 Y125.447 E65.74062
G0 F12000 X104.880 Y125.897
G1 F1200 X104.880 Y179.080 E66.80194
G0 F12000 X104.640 Y178.669
G1 F1200 X104.640 Y126.348 E67.84606
G0 F12000 X104.400 Y126.799
G1 F1200 X104.400 Y178.210 E68.87202
G0 F12000 X104.160 Y177.736
G1 F1200 X104.160 Y127.250 E69.87953
G0 F12000 X103.920 Y127.702
G1 F1200 X103.920 Y177.262 E70.86855
G0 F12000 X103.680 Y176.788
G1 F1200 X103.680 Y128.153 E71.83911
G0 F12000 X103.440 Y128.646
G1 F1200 X103.440 Y176.313 E72.79036
G0 F12000 X103.200 Y175.839
G1 F1200 X103.200 Y129.172 E73.72165
G0 F12000 X102.960 Y129.698
G1 F1200 X102.960 Y175.316 E74.63201
G0 F12000 X102.720 Y174.761
G1 F1200 X102.720 Y130.223 E75.52081
G0 F12000 X102.480 Y130.749
G1 F1200 X102.480 Y174.207 E76.38806
G0 F12000 X102.240 Y173.653
G1 F1200 X102.240 Y131.274 E77.23378
G0 F12000 X102.000 Y131.890
G1 F1200 X102.000 Y173.099 E78.05615
G0 F12000 X101.760 Y172.520
G1 F1200 X101.760 Y132.510 E78.85459
G0 F12000 X101.520 Y133.130
G1 F1200 X101.520 Y171.860 E79.62749
G0 F12000 X101.280 Y171.200
G1 F1200 X101.280 Y133.750 E80.37485
G0 F12000 X101.040 Y134.372
G1 F1200 X101.040 Y170.540 E81.09662
G0 F12000 X100.800 Y169.880
G1 F1200 X100.800 Y135.124 E81.79021
G0 F12000 X100.560 Y135.875
G1 F1200 X100.560 Y169.134 E82.45393
G0 F12000 X100.320 Y168.329
G1 F1200 X100.320 Y136.627 E83.08658
G0 F12000 X100.080 Y137.378
G1 F1200 X100.080 Y167.525 E83.68820
G1 F1800 E81.88820
G0 F12000 X111.360 Y164.153
G1 F1800 E83.68820
G1 F1200 X111.360 Y188.286 E84.16980
G0 F12000 X111.600 Y188.566
G1 F1200 X111.600 Y164.947 E84.64114
G0 F12000 X111.840 Y165.741
G1 F1200 X111.840 Y188.846 E85.10222
G0 F12000 X112.080 Y189.127
G1 F1200 X112.080 Y166.489 E85.55399
G0 F12000 X112.320 Y167.121
G1 F1200 X112.320 Y189.383 E85.99825
G0 F12000 X112.560 Y189.631
G1 F1200 X112.560 Y167.752 E86.43487
G0 F12000 X112.800 Y168.384
G1 F1200 X112.800 Y189.880 E86.86385
G0 F12000 X113.040 Y190.128
G1 F1200 X113.040 Y169.006 E87.28536
G0 F12000 X113.280 Y169.530
G1 F1200 X113.280 Y190.377 E87.70138
G0 F12000 X113.520 Y190.625
G1 F1200 X113.520 Y170.054 E88.11190
G0 F12000 X113.760 Y170.578
G1 F1200 X113.760 Y190.874 E88.51693
G0 F12000 X114.000 Y191.122
G1 F1200 X114.000 Y171.103 E88.91643
G0 F12000 X114.240 Y171.621
G1 F1200 X114.240 Y191.371 E89.31056
G0 F12000 X114.480 Y191.610
G1 F1200 X114.480 Y172.064 E89.70062
G0 F12000 X114.720 Y172.508
G1 F1200 X114.720 Y191.831 E90.08624
G0 F12000 X114.960 Y192.052
G1 F1200 X114.960 Y172.952 E90.46740
G0 F12000 X115.200 Y173.396
G1 F1200 X115.200 Y192.272 E90.84409
G0 F12000 X115.440 Y192.493
G1 F1200 X115.440 Y173.839 E91.21635
G0 F12000 X115.680 Y174.261
G1 F1200 X115.680 Y192.713 E91.58458
G0 F12000 X115.920 Y192.934
G1 F1200 X115.920 Y174.640 E91.94965
G0 F12000 X116.160 Y175.019
G1 F1200 X116.160 Y193.155 E92.31158
G0 F12000 X116.400 Y193.375
G1 F1200 X116.400 Y175.398 E92.67033
G0 F12000 X116.640 Y175.777
G1 F1200 X116.640 Y193.596 E93.02593
G0 F12000 X116.880 Y193.808
G1 F1200 X116.880 Y176.157 E93.37817
G0 F12000 X117.120 Y176.536
G1 F1200 X117.120 Y194.004 E93.72676
G0 F12000 X117.360 Y194.199
G1 F1200 X117.360 Y176.868 E94.07262
G0 F12000 X117.600 Y177.195
G1 F1200 X117.600 Y194.395 E94.41587
G0 F12000 X117.840 Y194.590
G1 F1200 X117.840 Y177.523 E94.75646
G0 F12000 X118.080 Y177.850
G1 F1200 X118.080 Y194.786 E95.09443
G0 F12000 X118.320 Y194.982
G1 F1200 X118.320 Y178.178 E95.42978
G0 F12000 X118.560 Y178.505
G1 F1200 X118.560 Y195.177 E95.76248
G0 F12000 X118.800 Y195.373
G1 F1200 X118.800 Y178.833 E96.09256
G0 F12000 X119.040 Y179.127
G1 F1200 X119.040 Y195.568 E96.42066
G0 F12000 X119.280 Y195.764
G1 F1200 X119.280 Y179.413 E96.74696
G0 F12000 X119.520 Y179.699
G1 F1200 X119.520 Y195.942 E97.07110
G0 F12000 X119.760 Y196.115
G1 F1200 X119.760 Y179.984 E97.39302
G1 F1800 E95.59302
G0 F12000 X110.880 Y187.725
G1 F1800 E97.39302
G1 F1200 X110.880 Y162.277 E97.90086
G0 F12000 X110.640 Y161.234
G1 F1200 X110.640 Y187.444 E98.42391
G0 F12000 X110.400 Y187.164
G1 F1200 X110.400 Y159.977 E98.96645
G1 F1800 E97.16645
G0 F12000 X110.160 Y158.476
G1 F1800 E98.96645
G1 F1200 X110.160 Y186.883 E99.53334
G0 F12000 X109.920 Y186.587
G1 F1200 X109.920 Y156.374 E100.13628
G1 F1800 E98.33628
G0 F12000 X111.120 Y163.321
G1 F1800 E100.13628
G1 F1200 X111.120 Y188.005 E100.62887
G1 F1800 E98.82887
G0 F12000 X120.240 Y180.556
G1 F1800 E100.62887
G1 F1200 X120.240 Y196.459 E100.94624
G0 F12000 X120.000 Y196.287
G1 F1200 X120.000 Y180.270 E101.26587
G0 F12000 X120.480 Y180.841
G1 F1200 X120.480 Y196.632 E101.58100
G0 F12000 X120.720 Y196.804
G1 F1200 X120.720 Y181.125 E101.89389
G0 F12000 X120.960 Y181.374
G1 F1200 X120.960 Y196.977 E102.20526
G0 F12000 X121.200 Y197.149
G1 F1200 X121.200 Y181.623 E102.51510
G0 F12000 X121.440 Y181.873
G1 F1200 X121.440 Y197.322 E102.82340
G0 F12000 X121.680 Y197.494
G1 F1200 X121.680 Y182.122 E103.13017
G0 F12000 X121.920 Y182.371
G1 F1200 X121.920 Y197.667 E103.43542
G0 F12000 X122.160 Y197.825
G1 F1200 X122.160 Y182.620 E103.73885
G0 F12000 X122.400 Y182.870
G1 F1200 X122.400 Y197.976 E104.04031
G0 F12000 X122.640 Y198.128
G1 F1200 X122.640 Y183.119 E104.33983
G0 F12000 X122.880 Y183.352
G1 F1200 X122.880 Y198.279 E104.63771
G0 F12000 X123.120 Y198.431
G1 F1200 X123.120 Y183.569 E104.93430
G0 F12000 X123.360 Y183.786
G1 F1200 X123.360 Y198.582 E105.22957
G0 F12000 X123.600 Y198.734
G1 F1200 X123.600 Y184.003 E105.52354
G0 F12000 X123.840 Y184.220
G1 F1200 X123.840 Y198.885 E105.81620
G0 F12000 X124.080 Y199.037
G1 F1200 X124.080 Y184.437 E106.10756
G0 F12000 X124.320 Y184.654
G1 F1200 X124.320 Y199.188 E106.39760
G0 F12000 X124.560 Y199.340
G1 F1200 X124.560 Y184.871 E106.68634
G0 F12000 X124.800 Y185.087
G1 F1200 X124.800 Y199.487 E106.97371
G0 F12000 X125.040 Y199.619
G1 F1200 X125.040 Y185.283 E107.25980
G0 F12000 X125.280 Y185.473
G1 F1200 X125.280 Y199.752 E107.54475
G0 F12000 X125.520 Y199.884
G1 F1200 X125.520 Y185.662 E107.82857
G0 F12000 X125.760 Y185.852
G1 F1200 X125.760 Y200.016 E108.11123
G0 F12000 X126.000 Y200.149
G1 F1200 X126.000 Y186.041 E108.39277
G0 F12000 X126.240 Y186.231
G1 F1200 X126.240 Y200.281 E108.67315
G0 F12000 X126.480 Y200.413
G1 F1200 X126.480 Y186.420 E108.95240
G0 F12000 X126.720 Y186.610
G1 F1200 X126.720 Y200.545 E109.23048
G0 F12000 X126.960 Y200.678
G1 F1200 X126.960 Y186.799 E109.50745
G0 F12000 X127.200 Y186.980
G1 F1200 X127.200 Y200.810 E109.78345
G0 F12000 X127.440 Y200.942
G1 F1200 X127.440 Y187.145 E110.05878
G0 F12000 X127.680 Y187.310
G1 F1200 X127.680 Y201.069 E110.33336
G0 F12000 X127.920 Y201.184
G1 F1200 X127.920 Y187.475 E110.60693
G0 F12000 X128.160 Y187.639
G1 F1200 X128.160 Y201.299 E110.87953
G0 F12000 X128.400 Y201.413
G1 F1200 X128.400 Y187.804 E111.15112
G0 F12000 X128.640 Y187.969
G1 F1200 X128.640 Y201.528 E111.42170
G0 F12000 X128.880 Y201.642
G1 F1200 X128.880 Y188.133 E111.69129
G0 F12000 X129.120 Y188.298
G1 F1200 X129.120 Y201.757 E111.95988
G0 F12000 X129.360 Y201.871
G1 F1200 X129.360 Y188.463 E112.22745
G0 F12000 X129.600 Y188.618
G1 F1200 X129.600 Y201.986 E112.49422
G0 F12000 X129.840 Y202.100
G1 F1200 X129.840 Y188.760 E112.76043
G0 F12000 X130.080 Y188.902
G1 F1200 X130.080 Y202.215 E113.02611
G0 F12000 X130.320 Y202.329
G1 F1200 X130.320 Y189.043 E113.29125
G0 F12000 X130.560 Y189.185
G1 F1200 X130.560 Y202.438 E113.55572
G0 F12000 X130.800 Y202.535
G1 F1200 X130.800 Y189.327 E113.81930
G0 F12000 X131.040 Y189.469
G1 F1200 X131.040 Y202.632 E114.08199
G0 F12000 X131.280 Y202.729
G1 F1200 X131.280 Y189.611 E114.34377
G0 F12000 X131.520 Y189.753
G1 F1200 X131.520 Y202.826 E114.60466
G0 F12000 X131.760 Y202.923
G1 F1200 X131.760 Y189.894 E114.86466
G0 F12000 X132.000 Y190.035
G1 F1200 X132.000 Y203.020 E115.12379
G0 F12000 X132.240 Y203.117
G1 F1200 X132.240 Y190.156 E115.38244
G0 F12000 X132.480 Y190.277
G1 F1200 X132.480 Y203.214 E115.64062
G0 F12000 X132.720 Y203.311
G1 F1200 X132.720 Y190.397 E115.89833
G0 F12000 X132.960 Y190.518
G1 F1200 X132.960 Y203.408 E116.15556
G0 F12000 X133.200 Y203.505
G1 F1200 X133.200 Y190.639 E116.41232
G0 F12000 X133.440 Y190.760
G1 F1200 X133.440 Y203.602 E116.66859
G0 F12000 X133.680 Y203.692
G1 F1200 X133.680 Y190.880 E116.92427
G0 F12000 X133.920 Y191.001
G1 F1200 X133.920 Y203.773 E117.17915
G0 F12000 X134.160 Y203.853
G1 F1200 X134.160 Y191.122 E117.43321
G0 F12000 X134.400 Y191.243
G1 F1200 X134.400 Y203.934 E117.68647
G0 F12000 X134.640 Y204.014
G1 F1200 X134.640 Y191.357 E117.93906
G0 F12000 X134.880 Y191.458
G1 F1200 X134.880 Y204.095 E118.19124
G0 F12000 X135.120 Y204.175
G1 F1200 X135.120 Y191.559 E118.44301
G0 F12000 X135.360 Y191.660
G1 F1200 X135.360 Y204.256 E118.69438
G0 F12000 X135.600 Y204.336
G1 F1200 X135.600 Y191.762 E118.94530
G0 F12000 X135.840 Y191.863
G1 F1200 X135.840 Y204.417 E119.19583
G0 F12000 X136.080 Y204.497
G1 F1200 X136.080 Y191.964 E119.44594
G0 F12000 X136.320 Y192.065
G1 F1200 X136.320 Y204.578 E119.69565
G0 F12000 X136.560 Y204.658
G1 F1200 X136.560 Y192.167 E119.94492
G0 F12000 X136.800 Y192.268
G1 F1200 X136.800 Y204.731 E120.19364
G0 F12000 X137.040 Y204.796
G1 F1200 X137.040 Y192.369 E120.44163
G0 F12000 X137.280 Y192.467
G1 F1200 X137.280 Y204.860 E120.68895
G0 F12000 X137.520 Y204.925
G1 F1200 X137.520 Y192.549 E120.93592
G0 F12000 X137.760 Y192.632
G1 F1200 X137.760 Y204.990 E121.18254
G0 F12000 X138.000 Y205.055
G1 F1200 X138.000 Y192.714 E121.42882
G0 F12000 X138.240 Y192.797
G1 F1200 X138.240 Y205.120 E121.67474
G0 F12000 X138.480 Y205.185
G1 F1200 X138.480 Y192.879 E121.92032
G0 F12000 X138.720 Y192.962
G1 F1200 X138.720 Y205.250 E122.16554
G0 F12000 X138.960 Y205.315
G1 F1200 X138.960 Y193.044 E122.41042
G0 F12000 X139.200 Y193.127
G1 F1200 X139.200 Y205.380 E122.65494
G0 F12000 X139.440 Y205.445
G1 F1200 X139.440 Y193.210 E122.89910
G0 F12000 X139.680 Y193.292
G1 F1200 X139.680 Y205.510 E123.14293
G0 F12000 X139.920 Y205.569
G1 F1200 X139.920 Y193.375 E123.38627
G0 F12000 X140.160 Y193.447
G1 F1200 X140.160 Y205.619 E123.62917
G0 F12000 X140.400 Y205.669
G1 F1200 X140.400 Y193.512 E123.87178
G0 F12000 X140.640 Y193.576
G1 F1200 X140.640 Y205.718 E124.11409
G0 F12000 X140.880 Y205.768
G1 F1200 X140.880 Y193.640 E124.35612
G0 F12000 X141.120 Y193.704
G1 F1200 X141.120 Y205.818 E124.59786
G0 F12000 X141.360 Y205.868
G1 F1200 X141.360 Y193.769 E124.83931
G0 F12000 X141.600 Y193.833
G1 F1200 X141.600 Y205.917 E125.08046
G0 F12000 X141.840 Y205.967
G1 F1200 X141.840 Y193.897 E125.32133
G0 F12000 X142.080 Y193.961
G1 F1200 X142.080 Y206.017 E125.56192
G0 F12000 X142.320 Y206.066
G1 F1200 X142.320 Y194.026 E125.80219
G0 F12000 X142.560 Y194.090
G1 F1200 X142.560 Y206.116 E126.04218
G0 F12000 X142.800 Y206.166
G1 F1200 X142.800 Y194.151 E126.28196
G0 F12000 X143.040 Y194.199
G1 F1200 X143.040 Y206.216 E126.52177
G0 F12000 X143.280 Y206.251
G1 F1200 X143.280 Y194.246 E126.76134
G0 F12000 X143.520 Y194.294
G1 F1200 X143.520 Y206.286 E127.00066
G0 F12000 X143.760 Y206.321
G1 F1200 X143.760 Y194.342 E127.23971
G0 F12000 X144.000 Y194.389
G1 F1200 X144.000 Y206.356 E127.47852
G0 F12000 X144.240 Y206.391
G1 F1200 X144.240 Y194.437 E127.71708
G0 F12000 X144.480 Y194.485
G1 F1200 X144.480 Y206.426 E127.95537
G0 F12000 X144.720 Y206.462
G1 F1200 X144.720 Y194.532 E128.19345
G0 F12000 X144.960 Y194.580
G1 F1200 X144.960 Y206.497 E128.43127
G0 F12000 X145.200 Y206.532
G1 F1200 X145.200 Y194.627 E128.66884
G0 F12000 X145.440 Y194.675
G1 F1200 X145.440 Y206.567 E128.90616
G0 F12000 X145.680 Y206.602
G1 F1200 X145.680 Y194.715 E129.14338
G0 F12000 X145.920 Y194.746
G1 F1200 X145.920 Y206.637 E129.38068
G0 F12000 X146.160 Y206.672
G1 F1200 X146.160 Y194.778 E129.61803
G0 F12000 X146.400 Y194.809
G1 F1200 X146.400 Y206.698 E129.85529
G0 F12000 X146.640 Y206.718
G1 F1200 X146.640 Y194.840 E130.09233
G0 F12000 X146.880 Y194.871
G1 F1200 X146.880 Y206.738 E130.32915
G0 F12000 X147.120 Y206.759
G1 F1200 X147.120 Y194.902 E130.56577
G0 F12000 X147.360 Y194.933
G1 F1200 X147.360 Y206.779 E130.80217
G0 F12000 X147.600 Y206.799
G1 F1200 X147.600 Y194.964 E131.03835
G0 F12000 X147.840 Y194.995
G1 F1200 X147.840 Y206.820 E131.27433
G0 F12000 X148.080 Y206.840
G1 F1200 X148.080 Y195.026 E131.51009
G0 F12000 X148.320 Y195.058
G1 F1200 X148.320 Y206.861 E131.74563
G0 F12000 X148.560 Y206.881
G1 F1200 X148.560 Y195.082 E131.98109
G0 F12000 X148.800 Y195.096
G1 F1200 X148.800 Y206.901 E132.21668
G0 F12000 X149.040 Y206.922
G1 F1200 X149.040 Y195.111 E132.45238
G0 F12000 X149.280 Y195.126
G1 F1200 X149.280 Y206.942 E132.68818
G0 F12000 X149.520 Y206.962
G1 F1200 X149.520 Y195.140 E132.92410
G0 F12000 X149.760 Y195.155
G1 F1200 X149.760 Y206.968 E133.15984
G0 F12000 X150.000 Y206.974
G1 F1200 X150.000 Y195.170 E133.39540
G0 F12000 X150.240 Y195.184
G1 F1200 X150.240 Y206.981 E133.63082
G0 F12000 X150.480 Y206.987
G1 F1200 X150.480 Y195.199 E133.86607
G0 F12000 X150.720 Y195.213
G1 F1200 X150.720 Y206.993 E134.10115
G0 F12000 X150.960 Y207.000
G1 F1200 X150.960 Y195.228 E134.33607
G0 F12000 X151.200 Y195.243
G1 F1200 X151.200 Y207.006 E134.57081
G0 F12000 X151.440 Y207.013
G1 F1200 X151.440 Y195.254 E134.80548
G0 F12000 X151.680 Y195.252
G1 F1200 X151.680 Y207.019 E135.04030
G0 F12000 X151.920 Y207.025
G1 F1200 X151.920 Y195.250 E135.27528
G0 F12000 X152.160 Y195.248
G1 F1200 X152.160 Y207.032 E135.51045
G0 F12000 X152.400 Y207.038
G1 F1200 X152.400 Y195.246 E135.74577
G0 F12000 X152.640 Y195.244
G1 F1200 X152.640 Y207.044 E135.98125
G0 F12000 X152.880 Y207.040
G1 F1200 X152.880 Y195.242 E136.21669
G0 F12000 X153.120 Y195.240
G1 F1200 X153.120 Y207.031 E136.45199
G0 F12000 X153.360 Y207.023
G1 F1200 X153.360 Y195.238 E136.68718
G0 F12000 X153.600 Y195.236
G1 F1200 X153.600 Y207.014 E136.92222
G0 F12000 X153.840 Y207.006
G1 F1200 X153.840 Y195.234 E137.15714
G0 F12000 X154.080 Y195.232
G1 F1200 X154.080 Y206.998 E137.39195
G0 F12000 X154.320 Y206.989
G1 F1200 X154.320 Y195.229 E137.62663
G0 F12000 X154.560 Y195.211
G1 F1200 X154.560 Y206.981 E137.86151
G0 F12000 X154.800 Y206.972
G1 F1200 X154.800 Y195.192 E138.09660
G0 F12000 X155.040 Y195.174
G1 F1200 X155.040 Y206.964 E138.33188
G0 F12000 X155.280 Y206.955
G1 F1200 X155.280 Y195.156 E138.56734
G0 F12000 X155.520 Y195.138
G1 F1200 X155.520 Y206.947 E138.80300
G0 F12000 X155.760 Y206.939
G1 F1200 X155.760 Y195.119 E139.03888
G0 F12000 X156.000 Y195.101
G1 F1200 X156.000 Y206.930 E139.27494
G0 F12000 X156.240 Y206.911
G1 F1200 X156.240 Y195.083 E139.51098
G0 F12000 X156.480 Y195.064
G1 F1200 X156.480 Y206.888 E139.74694
G0 F12000 X156.720 Y206.866
G1 F1200 X156.720 Y195.046 E139.98282
G0 F12000 X156.960 Y195.028
G1 F1200 X156.960 Y206.844 E140.21863
G0 F12000 X157.200 Y206.821
G1 F1200 X157.200 Y195.003 E140.45447
G0 F12000 X157.440 Y194.969
G1 F1200 X157.440 Y206.799 E140.69055
G0 F12000 X157.680 Y206.776
G1 F1200 X157.680 Y194.935 E140.92685
G0 F12000 X157.920 Y194.901
G1 F1200 X157.920 Y206.754 E141.16339
G0 F12000 X158.160 Y206.732
G1 F1200 X158.160 Y194.867 E141.40016
G0 F12000 X158.400 Y194.832
G1 F1200 X158.400 Y206.709 E141.63718
G0 F12000 X158.640 Y206.687
G1 F1200 X158.640 Y194.798 E141.87444
G0 F12000 X158.880 Y194.764
G1 F1200 X158.880 Y206.664 E142.11192
G0 F12000 X159.120 Y206.642
G1 F1200 X159.120 Y194.730 E142.34964
G0 F12000 X159.360 Y194.696
G1 F1200 X159.360 Y206.608 E142.58735
G0 F12000 X159.600 Y206.570
G1 F1200 X159.600 Y194.661 E142.82501
G0 F12000 X159.840 Y194.627
G1 F1200 X159.840 Y206.533 E143.06261
G0 F12000 X160.080 Y206.495
G1 F1200 X160.080 Y194.586 E143.30026
G0 F12000 X160.320 Y194.535
G1 F1200 X160.320 Y206.458 E143.53820
G0 F12000 X160.560 Y206.421
G1 F1200 X160.560 Y194.484 E143.77642
G0 F12000 X160.800 Y194.433
G1 F1200 X160.800 Y206.383 E144.01489
G0 F12000 X161.040 Y206.346
G1 F1200 X161.040 Y194.382 E144.25365
G0 F12000 X161.280 Y194.331
G1 F1200 X161.280 Y206.308 E144.49266
G0 F12000 X161.520 Y206.271
G1 F1200 X161.520 Y194.280 E144.73195
G0 F12000 X161.760 Y194.229
G1 F1200 X161.760 Y206.233 E144.97151
G0 F12000 X162.000 Y206.196
G1 F1200 X162.000 Y194.178 E145.21134
G0 F12000 X162.240 Y194.127
G1 F1200 X162.240 Y206.158 E145.45143
G0 F12000 X162.480 Y206.121
G1 F1200 X162.480 Y194.076 E145.69180
G0 F12000 X162.720 Y194.024
G1 F1200 X162.720 Y206.070 E145.93219
G0 F12000 X162.960 Y206.018
G1 F1200 X162.960 Y193.961 E146.17280
G0 F12000 X163.200 Y193.892
G1 F1200 X163.200 Y205.966 E146.41375
G0 F12000 X163.440 Y205.913
G1 F1200 X163.440 Y193.824 E146.65500
G0 F12000 X163.680 Y193.756
G1 F1200 X163.680 Y205.861 E146.89657
G0 F12000 X163.920 Y205.809
G1 F1200 X163.920 Y193.688 E147.13846
G0 F12000 X164.160 Y193.619
G1 F1200 X164.160 Y205.757 E147.38068
G0 F12000 X164.400 Y205.704
G1 F1200 X164.400 Y193.551 E147.62321
G0 F12000 X164.640 Y193.483
G1 F1200 X164.640 Y205.652 E147.86605
G0 F12000 X164.880 Y205.600
G1 F1200 X164.880 Y193.415 E148.10922
G0 F12000 X165.120 Y193.346
G1 F1200 X165.120 Y205.547 E148.35270
G0 F12000 X165.360 Y205.495
G1 F1200 X165.360 Y193.278 E148.59651
G0 F12000 X165.600 Y193.208
G1 F1200 X165.600 Y205.443 E148.84067
G0 F12000 X165.840 Y205.381
G1 F1200 X165.840 Y193.122 E149.08531
G0 F12000 X166.080 Y193.036
G1 F1200 X166.080 Y205.314 E149.33033
G0 F12000 X166.320 Y205.246
G1 F1200 X166.320 Y192.950 E149.57571
G0 F12000 X166.560 Y192.864
G1 F1200 X166.560 Y205.179 E149.82147
G0 F12000 X166.800 Y205.111
G1 F1200 X166.800 Y192.778 E150.06759
G0 F12000 X167.040 Y192.692
G1 F1200 X167.040 Y205.044 E150.31409
G0 F12000 X167.280 Y204.976
G1 F1200 X167.280 Y192.606 E150.56094
G0 F12000 X167.520 Y192.520
G1 F1200 X167.520 Y204.909 E150.80818
G0 F12000 X167.760 Y204.841
G1 F1200 X167.760 Y192.435 E151.05576
G0 F12000 X168.000 Y192.349
G1 F1200 X168.000 Y204.774 E151.30371
G0 F12000 X168.240 Y204.706
G1 F1200 X168.240 Y192.263 E151.55202
G0 F12000 X168.480 Y192.162
G1 F1200 X168.480 Y204.639 E151.80101
G0 F12000 X168.720 Y204.571
G1 F1200 X168.720 Y192.057 E152.05075
G0 F12000 X168.960 Y191.952
G1 F1200 X168.960 Y204.498 E152.30111
G0 F12000 X169.200 Y204.414
G1 F1200 X169.200 Y191.847 E152.55190
G0 F12000 X169.440 Y191.742
G1 F1200 X169.440 Y204.331 E152.80313
G0 F12000 X169.680 Y204.248
G1 F1200 X169.680 Y191.637 E153.05480
G0 F12000 X169.920 Y191.532
G1 F1200 X169.920 Y204.164 E153.30688
G0 F12000 X170.160 Y204.081
G1 F1200 X170.160 Y191.427 E153.55941
G0 F12000 X170.400 Y191.322
G1 F1200 X170.400 Y203.998 E153.81237
G0 F12000 X170.640 Y203.914
G1 F1200 X170.640 Y191.217 E154.06575
G0 F12000 X170.880 Y191.112
G1 F1200 X170.880 Y203.831 E154.31957
G0 F12000 X171.120 Y203.747
G1 F1200 X171.120 Y190.997 E154.57401
G0 F12000 X171.360 Y190.872
G1 F1200 X171.360 Y203.664 E154.82929
G0 F12000 X171.600 Y203.581
G1 F1200 X171.600 Y190.747 E155.08541
G0 F12000 X171.840 Y190.621
G1 F1200 X171.840 Y203.497 E155.34236
G0 F12000 X172.080 Y203.403
G1 F1200 X172.080 Y190.496 E155.59993
G0 F12000 X172.320 Y190.371
G1 F1200 X172.320 Y203.304 E155.85803
G0 F12000 X172.560 Y203.204
G1 F1200 X172.560 Y190.246 E156.11662
G0 F12000 X172.800 Y190.120
G1 F1200 X172.800 Y203.104 E156.37573
G0 F12000 X173.040 Y203.004
G1 F1200 X173.040 Y189.995 E156.63534
G0 F12000 X173.280 Y189.870
G1 F1200 X173.280 Y202.904 E156.89544
G0 F12000 X173.520 Y202.804
G1 F1200 X173.520 Y189.744 E157.15607
G0 F12000 X173.760 Y189.597
G1 F1200 X173.760 Y202.704 E157.41763
G0 F12000 X174.000 Y202.604
G1 F1200 X174.000 Y189.451 E157.68012
G0 F12000 X174.240 Y189.305
G1 F1200 X174.240 Y202.505 E157.94354
G0 F12000 X174.480 Y202.405
G1 F1200 X174.480 Y189.158 E158.20789
G0 F12000 X174.720 Y189.012
G1 F1200 X174.720 Y202.305 E158.47317
G0 F12000 X174.960 Y202.202
G1 F1200 X174.960 Y188.865 E158.73933
G0 F12000 X175.200 Y188.719
G1 F1200 X175.200 Y202.085 E159.00606
G0 F12000 X175.440 Y201.968
G1 F1200 X175.440 Y188.573 E159.27337
G0 F12000 X175.680 Y188.426
G1 F1200 X175.680 Y201.851 E159.54128
G0 F12000 X175.920 Y201.734
G1 F1200 X175.920 Y188.280 E159.80977
G0 F12000 X176.160 Y188.116
G1 F1200 X176.160 Y201.617 E160.07920
G0 F12000 X176.400 Y201.500
G1 F1200 X176.400 Y187.947 E160.34966
G0 F12000 X176.640 Y187.777
G1 F1200 X176.640 Y201.383 E160.62118
G0 F12000 X176.880 Y201.266
G1 F1200 X176.880 Y187.608 E160.89374
G0 F12000 X177.120 Y187.438
G1 F1200 X177.120 Y201.148 E161.16734
G0 F12000 X177.360 Y201.031
G1 F1200 X177.360 Y187.269 E161.44198
G0 F12000 X177.600 Y187.100
G1 F1200 X177.600 Y200.914 E161.71765
G0 F12000 X177.840 Y200.797
G1 F1200 X177.840 Y186.930 E161.99438
G0 F12000 X178.080 Y186.761
G1 F1200 X178.080 Y200.664 E162.27183
G0 F12000 X178.320 Y200.529
G1 F1200 X178.320 Y186.592 E162.54996
G0 F12000 X178.560 Y186.398
G1 F1200 X178.560 Y200.394 E162.82926
G0 F12000 X178.800 Y200.258
G1 F1200 X178.800 Y186.203 E163.10975
G0 F12000 X179.040 Y186.008
G1 F1200 X179.040 Y200.123 E163.39143
G0 F12000 X179.280 Y199.988
G1 F1200 X179.280 Y185.813 E163.67430
G0 F12000 X179.520 Y185.618
G1 F1200 X179.520 Y199.852 E163.95836
G0 F12000 X179.760 Y199.717
G1 F1200 X179.760 Y185.423 E164.24361
G0 F12000 X180.000 Y185.228
G1 F1200 X180.000 Y199.582 E164.53006
G0 F12000 X180.240 Y199.447
G1 F1200 X180.240 Y185.033 E164.81771
G0 F12000 X180.480 Y184.838
G1 F1200 X180.480 Y199.311 E165.10653
G0 F12000 X180.720 Y199.176
G1 F1200 X180.720 Y184.626 E165.39689
G0 F12000 X180.960 Y184.402
G1 F1200 X180.960 Y199.022 E165.68865
G0 F12000 X181.200 Y198.867
G1 F1200 X181.200 Y184.179 E165.98177
G0 F12000 X181.440 Y183.955
G1 F1200 X181.440 Y198.712 E166.27626
G0 F12000 X181.680 Y198.558
G1 F1200 X181.680 Y183.731 E166.57215
G0 F12000 X181.920 Y183.507
G1 F1200 X181.920 Y198.403 E166.86941
G0 F12000 X182.160 Y198.249
G1 F1200 X182.160 Y183.284 E167.16806
G0 F12000 X182.400 Y183.060
G1 F1200 X182.400 Y198.094 E167.46808
G0 F12000 X182.640 Y197.940
G1 F1200 X182.640 Y182.836 E167.76949
G0 F12000 X182.880 Y182.587
G1 F1200 X182.880 Y197.785 E168.07278
G0 F12000 X183.120 Y197.631
G1 F1200 X183.120 Y182.331 E168.37811
G0 F12000 X183.360 Y182.076
G1 F1200 X183.360 Y197.476 E168.68544
G0 F12000 X183.600 Y197.302
G1 F1200 X183.600 Y181.820 E168.99440
G0 F12000 X183.840 Y181.564
G1 F1200 X183.840 Y197.127 E169.30497
G0 F12000 X184.080 Y196.951
G1 F1200 X184.080 Y181.308 E169.61715
G0 F12000 X184.320 Y181.052
G1 F1200 X184.320 Y196.775 E169.93091
G0 F12000 X184.560 Y196.599
G1 F1200 X184.560 Y180.797 E170.24626
G0 F12000 X184.800 Y180.520
G1 F1200 X184.800 Y196.424 E170.56364
G0 F12000 X185.040 Y196.248
G1 F1200 X185.040 Y180.227 E170.88336
G0 F12000 X185.280 Y179.933
G1 F1200 X185.280 Y196.072 E171.20543
G0 F12000 X185.520 Y195.897
G1 F1200 X185.520 Y179.640 E171.52986
G0 F12000 X185.760 Y179.347
G1 F1200 X185.760 Y195.721 E171.85662
G0 F12000 X186.000 Y195.545
G1 F1200 X186.000 Y179.053 E172.18573
G0 F12000 X186.240 Y178.760
G1 F1200 X186.240 Y195.349 E172.51678
G0 F12000 X186.480 Y195.150
G1 F1200 X186.480 Y178.466 E172.84973
G0 F12000 X186.720 Y178.132
G1 F1200 X186.720 Y194.950 E173.18535
G0 F12000 X186.960 Y194.751
G1 F1200 X186.960 Y177.794 E173.52375
G0 F12000 X187.200 Y177.457
G1 F1200 X187.200 Y194.552 E173.86490
G0 F12000 X187.440 Y194.352
G1 F1200 X187.440 Y177.119 E174.20880
G0 F12000 X187.680 Y176.782
G1 F1200 X187.680 Y194.153 E174.55546
G0 F12000 X187.920 Y193.953
G1 F1200 X187.920 Y176.444 E174.90487
G0 F12000 X188.160 Y176.107
G1 F1200 X188.160 Y193.754 E175.25703
G0 F12000 X188.400 Y193.555
G1 F1200 X188.400 Y175.718 E175.61299
G0 F12000 X188.640 Y175.326
G1 F1200 X188.640 Y193.350 E175.97268
G0 F12000 X188.880 Y193.125
G1 F1200 X188.880 Y174.935 E176.33568
G0 F12000 X189.120 Y174.544
G1 F1200 X189.120 Y192.900 E176.70199
G0 F12000 X189.360 Y192.675
G1 F1200 X189.360 Y174.153 E177.07162
G0 F12000 X189.600 Y173.762
G1 F1200 X189.600 Y192.450 E177.44456
G0 F12000 X189.840 Y192.226
G1 F1200 X189.840 Y173.328 E177.82169
G0 F12000 X190.080 Y172.871
G1 F1200 X190.080 Y192.001 E178.20345
G0 F12000 X190.320 Y191.776
G1 F1200 X190.320 Y172.414 E178.58984
G0 F12000 X190.560 Y171.957
G1 F1200 X190.560 Y191.551 E178.98086
G0 F12000 X190.800 Y191.326
G1 F1200 X190.800 Y171.500 E179.37651
G0 F12000 X191.040 Y171.038
G1 F1200 X191.040 Y191.095 E179.77677
G0 F12000 X191.280 Y190.841
G1 F1200 X191.280 Y170.494 E180.18281
G0 F12000 X191.520 Y169.950
G1 F1200 X191.520 Y190.588 E180.59467
G0 F12000 X191.760 Y190.334
G1 F1200 X191.760 Y169.406 E181.01231
G0 F12000 X192.000 Y168.863
G1 F1200 X192.000 Y190.081 E181.43574
G0 F12000 X192.240 Y189.827
G1 F1200 X192.240 Y168.310 E181.86513
G0 F12000 X192.480 Y167.644
G1 F1200 X192.480 Y189.574 E182.30277
G0 F12000 X192.720 Y189.320
G1 F1200 X192.720 Y166.979 E182.74861
G0 F12000 X192.960 Y166.314
G1 F1200 X192.960 Y189.067 E183.20267
G0 F12000 X193.200 Y188.813
G1 F1200 X193.200 Y165.633 E183.66525
G0 F12000 X193.440 Y164.799
G1 F1200 X193.440 Y188.529 E184.13881
G0 F12000 X193.680 Y188.243
G1 F1200 X193.680 Y163.965 E184.62330
G0 F12000 X193.920 Y163.131
G1 F1200 X193.920 Y187.957 E185.11873
G0 F12000 X194.160 Y187.671
G1 F1200 X194.160 Y162.086 E185.62931
G0 F12000 X194.400 Y160.976
G1 F1200 X194.400 Y187.385 E186.15633
G0 F12000 X194.640 Y187.099
G1 F1200 X194.640 Y159.748 E186.70215
G1 F1800 E184.90215
G0 F12000 X194.880 Y158.109
G1 F1800 E186.70215
G1 F1200 X194.880 Y186.813 E187.27496
G0 F12000 X195.120 Y186.527
G1 F1200 X195.120 Y155.789 E187.88837
G1 F1800 E186.08837
G0 F12000 X195.120 Y149.005
G1 F1800 E187.88837
G1 F1200 X195.120 Y118.481 E188.49751
G0 F12000 X195.360 Y118.778
G1 F1200 X195.360 Y186.236 E189.84371
G0 F12000 X195.600 Y185.913
G1 F1200 X195.600 Y119.076 E191.17752
G0 F12000 X195.840 Y119.373
G1 F1200 X195.840 Y185.589 E192.49893
G0 F12000 X196.080 Y185.265
G1 F1200 X196.080 Y119.689 E193.80757
G1 F1800 E192.00757
G0 F12000 X194.880 Y118.183
G1 F1800 E193.80757
G1 F1200 X194.880 Y146.875 E194.38015
G1 F1800 E192.58015
G0 F12000 X194.640 Y145.237
G1 F1800 E194.38015
G1 F1200 X194.640 Y117.886 E194.92597
G0 F12000 X194.400 Y117.588
G1 F1200 X194.400 Y144.009 E195.45323
G0 F12000 X194.160 Y142.812
G1 F1200 X194.160 Y117.290 E195.96255
G0 F12000 X193.920 Y116.994
G1 F1200 X193.920 Y141.909 E196.45975
G0 F12000 X193.680 Y141.007
G1 F1200 X193.680 Y116.730 E196.94422
G0 F12000 X193.440 Y116.466
G1 F1200 X193.440 Y140.104 E197.41595
G0 F12000 X193.200 Y139.397
G1 F1200 X193.200 Y116.202 E197.87883
G0 F12000 X192.960 Y115.938
G1 F1200 X192.960 Y138.690 E198.33287
G0 F12000 X192.720 Y137.984
G1 F1200 X192.720 Y115.674 E198.77809
G0 F12000 X192.480 Y115.410
G1 F1200 X192.480 Y137.294 E199.21481
G0 F12000 X192.240 Y136.718
G1 F1200 X192.240 Y115.146 E199.64530
G0 F12000 X192.000 Y114.882
G1 F1200 X192.000 Y136.143 E200.06959
G0 F12000 X191.760 Y135.568
G1 F1200 X191.760 Y114.618 E200.48767
G0 F12000 X191.520 Y114.382
G1 F1200 X191.520 Y134.992 E200.89896
G0 F12000 X191.280 Y134.463
G1 F1200 X191.280 Y114.148 E201.30437
G0 F12000 X191.040 Y113.914
G1 F1200 X191.040 Y133.982 E201.70485
G0 F12000 X190.800 Y133.500
G1 F1200 X190.800 Y113.680 E202.10038
G0 F12000 X190.560 Y113.446
G1 F1200 X190.560 Y133.019 E202.49098
G0 F12000 X190.320 Y132.538
G1 F1200 X190.320 Y113.212 E202.87665
G0 F12000 X190.080 Y112.978
G1 F1200 X190.080 Y132.066 E203.25757
G0 F12000 X189.840 Y131.657
G1 F1200 X189.840 Y112.744 E203.63500
G0 F12000 X189.600 Y112.511
G1 F1200 X189.600 Y131.248 E204.00892
G0 F12000 X189.360 Y130.838
G1 F1200 X189.360 Y112.281 E204.37924
G0 F12000 X189.120 Y112.074
G1 F1200 X189.120 Y130.429 E204.74554
G0 F12000 X188.880 Y130.020
G1 F1200 X188.880 Y111.866 E205.10782
G0 F12000 X188.640 Y111.658
G1 F1200 X188.640 Y129.612 E205.46611
G0 F12000 X188.400 Y129.260
G1 F1200 X188.400 Y111.451 E205.82151
G0 F12000 X188.160 Y111.243
G1 F1200 X188.160 Y128.907 E206.17401
G0 F12000 X187.920 Y128.555
G1 F1200 X187.920 Y111.036 E206.52362
G0 F12000 X187.680 Y110.828
G1 F1200 X187.680 Y128.202 E206.87034
G0 F12000 X187.440 Y127.850
G1 F1200 X187.440 Y110.620 E207.21418
G0 F12000 X187.200 Y110.413
G1 F1200 X187.200 Y127.497 E207.55511
G0 F12000 X186.960 Y127.156
G1 F1200 X186.960 Y110.205 E207.89339
G0 F12000 X186.720 Y110.018
G1 F1200 X186.720 Y126.851 E208.22931
G0 F12000 X186.480 Y126.545
G1 F1200 X186.480 Y109.835 E208.56277
G0 F12000 X186.240 Y109.651
G1 F1200 X186.240 Y126.239 E208.89381
G0 F12000 X186.000 Y125.933
G1 F1200 X186.000 Y109.467 E209.22240
G0 F12000 X185.760 Y109.284
G1 F1200 X185.760 Y125.628 E209.54857
G0 F12000 X185.520 Y125.322
G1 F1200 X185.520 Y109.100 E209.87229
G0 F12000 X185.280 Y108.916
G1 F1200 X185.280 Y125.016 E210.19359
G0 F12000 X185.040 Y124.743
G1 F1200 X185.040 Y108.732 E210.51310
G0 F12000 X184.800 Y108.549
G1 F1200 X184.800 Y124.477 E210.83096
G0 F12000 X184.560 Y124.210
G1 F1200 X184.560 Y108.365 E211.14717
G0 F12000 X184.320 Y108.183
G1 F1200 X184.320 Y123.944 E211.46169
G0 F12000 X184.080 Y123.678
G1 F1200 X184.080 Y108.022 E211.77413
G0 F12000 X183.840 Y107.860
G1 F1200 X183.840 Y123.412 E212.08448
G0 F12000 X183.600 Y123.145
G1 F1200 X183.600 Y107.698 E212.39275
G0 F12000 X183.360 Y107.536
G1 F1200 X183.360 Y122.879 E212.69893
G0 F12000 X183.120 Y122.638
G1 F1200 X183.120 Y107.375 E213.00352
G0 F12000 X182.880 Y107.213
G1 F1200 X182.880 Y122.404 E213.30667
G0 F12000 X182.640 Y122.171
G1 F1200 X182.640 Y107.051 E213.60841
G0 F12000 X182.400 Y106.889
G1 F1200 X182.400 Y121.938 E213.90873
G0 F12000 X182.160 Y121.705
G1 F1200 X182.160 Y106.727 E214.20763
G0 F12000 X181.920 Y106.566
G1 F1200 X181.920 Y121.472 E214.50510
G0 F12000 X181.680 Y121.239
G1 F1200 X181.680 Y106.404 E214.80115
G0 F12000 X181.440 Y106.257
G1 F1200 X181.440 Y121.005 E215.09546
G0 F12000 X181.200 Y120.776
G1 F1200 X181.200 Y106.116 E215.38801
G0 F12000 X180.960 Y105.974
G1 F1200 X180.960 Y120.573 E215.67935
G0 F12000 X180.720 Y120.370
G1 F1200 X180.720 Y105.832 E215.96947
G0 F12000 X180.480 Y105.690
G1 F1200 X180.480 Y120.167 E216.25838
G1 F1800 E214.45838
G0 F12000 X196.320 Y120.026
G1 F1800 E216.25838
G1 F1200 X196.320 Y184.942 E217.55385
G0 F12000 X196.560 Y184.618
G1 F1200 X196.560 Y120.363 E218.83613
G0 F12000 X196.800 Y120.700
G1 F1200 X196.800 Y184.295 E220.10523
G0 F12000 X197.040 Y183.971
G1 F1200 X197.040 Y121.037 E221.36115
G0 F12000 X197.280 Y121.374
G1 F1200 X197.280 Y183.642 E222.60377
G0 F12000 X197.520 Y183.274
G1 F1200 X197.520 Y121.711 E223.83233
G0 F12000 X197.760 Y122.049
G1 F1200 X197.760 Y182.906 E225.04680
G0 F12000 X198.000 Y182.538
G1 F1200 X198.000 Y122.411 E226.24670
G0 F12000 X198.240 Y122.795
G1 F1200 X198.240 Y182.170 E227.43159
G0 F12000 X198.480 Y181.802
G1 F1200 X198.480 Y123.180 E228.60145
G0 F12000 X198.720 Y123.564
G1 F1200 X198.720 Y181.435 E229.75633
G0 F12000 X198.960 Y181.067
G1 F1200 X198.960 Y123.949 E230.89618
G0 F12000 X199.200 Y124.333
G1 F1200 X199.200 Y180.668 E232.02041
G0 F12000 X199.440 Y180.248
G1 F1200 X199.440 Y124.717 E233.12859
G0 F12000 X199.680 Y125.118
G1 F1200 X199.680 Y179.827 E234.22037
G0 F12000 X199.920 Y179.406
G1 F1200 X199.920 Y125.559 E235.29494
G0 F12000 X200.160 Y125.999
G1 F1200 X200.160 Y178.986 E236.35236
G0 F12000 X200.400 Y178.565
G1 F1200 X200.400 Y126.439 E237.39259
G0 F12000 X200.640 Y126.879
G1 F1200 X200.640 Y178.144 E238.41564
G0 F12000 X200.880 Y177.665
G1 F1200 X200.880 Y127.319 E239.42034
G0 F12000 X201.120 Y127.759
G1 F1200 X201.120 Y177.180 E240.40659
G0 F12000 X201.360 Y176.694
G1 F1200 X201.360 Y128.262 E241.37311
G0 F12000 X201.600 Y128.773
G1 F1200 X201.600 Y176.209 E242.31974
G0 F12000 X201.840 Y175.723
G1 F1200 X201.840 Y129.284 E243.24648
G0 F12000 X202.080 Y129.795
G1 F1200 X202.080 Y175.237 E244.15333
G0 F12000 X202.320 Y174.679
G1 F1200 X202.320 Y130.306 E245.03884
G0 F12000 X202.560 Y130.818
G1 F1200 X202.560 Y174.109 E245.90276
G0 F12000 X202.800 Y173.539
G1 F1200 X202.800 Y131.420 E246.74329
G0 F12000 X203.040 Y132.023
G1 F1200 X203.040 Y172.969 E247.56041
G0 F12000 X203.280 Y172.399
G1 F1200 X203.280 Y132.626 E248.35412
G0 F12000 X203.520 Y133.229
G1 F1200 X203.520 Y171.763 E249.12311
G0 F12000 X203.760 Y171.082
G1 F1200 X203.760 Y133.832 E249.86647
G0 F12000 X204.000 Y134.559
G1 F1200 X204.000 Y170.401 E250.58174
G0 F12000 X204.240 Y169.720
G1 F1200 X204.240 Y135.285 E251.26893
G0 F12000 X204.480 Y136.012
G1 F1200 X204.480 Y169.032 E251.92788
G0 F12000 X204.720 Y168.196
G1 F1200 X204.720 Y136.738 E252.55566
G0 F12000 X204.960 Y137.596
G1 F1200 X204.960 Y167.359 E253.14961
G0 F12000 X205.200 Y166.523
G1 F1200 X205.200 Y138.500 E253.70884
G0 F12000 X205.440 Y139.404
G1 F1200 X205.440 Y165.615 E254.23191
G0 F12000 X205.680 Y164.536
G1 F1200 X205.680 Y140.379 E254.71399
G0 F12000 X205.920 Y141.567
G1 F1200 X205.920 Y163.458 E255.15084
G0 F12000 X206.160 Y162.237
G1 F1200 X206.160 Y142.754 E255.53965
G0 F12000 X206.400 Y144.229
G1 F1200 X206.400 Y160.749 E255.86932
G1 F1800 E254.06932
G0 F12000 X206.640 Y159.094
G1 F1800 E255.86932
G1 F1200 X206.640 Y145.938 E256.13187
G1 F1800 E254.33187
G0 F12000 X206.880 Y148.512
G1 F1800 E256.13187
G1 F1200 X206.880 Y156.713 E256.29553
G1 F1800 E254.49553
G0 F12000 X180.240 Y119.963
G1 F1800 E256.29553
G1 F1200 X180.240 Y105.548 E256.58319
G0 F12000 X180.000 Y105.407
G1 F1200 X180.000 Y119.760 E256.86962
G0 F12000 X179.760 Y119.557
G1 F1200 X179.760 Y105.265 E257.15483
G0 F12000 X179.520 Y105.123
G1 F1200 X179.520 Y119.354 E257.43883
G0 F12000 X179.280 Y119.151
G1 F1200 X179.280 Y104.981 E257.72161
G0 F12000 X179.040 Y104.839
G1 F1200 X179.040 Y118.948 E258.00317
G0 F12000 X178.800 Y118.769
G1 F1200 X178.800 Y104.699 E258.28395
G0 F12000 X178.560 Y104.576
G1 F1200 X178.560 Y118.592 E258.56365
G0 F12000 X178.320 Y118.415
G1 F1200 X178.320 Y104.453 E258.84228
G0 F12000 X178.080 Y104.330
G1 F1200 X178.080 Y118.238 E259.11983
G0 F12000 X177.840 Y118.061
G1 F1200 X177.840 Y104.207 E259.39630
G0 F12000 X177.600 Y104.084
G1 F1200 X177.600 Y117.884 E259.67170
G0 F12000 X177.360 Y117.707
G1 F1200 X177.360 Y103.961 E259.94601
G0 F12000 X177.120 Y103.838
G1 F1200 X177.120 Y117.530 E260.21925
G0 F12000 X176.880 Y117.353
G1 F1200 X176.880 Y103.715 E260.49141
G0 F12000 X176.640 Y103.592
G1 F1200 X176.640 Y117.182 E260.76261
G0 F12000 X176.400 Y117.029
G1 F1200 X176.400 Y103.469 E261.03322
G0 F12000 X176.160 Y103.346
G1 F1200 X176.160 Y116.876 E261.30322
G0 F12000 X175.920 Y116.723
G1 F1200 X175.920 Y103.223 E261.57263
G0 F12000 X175.680 Y103.117
G1 F1200 X175.680 Y116.570 E261.84110
G0 F12000 X175.440 Y116.417
G1 F1200 X175.440 Y103.012 E262.10861
G0 F12000 X175.200 Y102.907
G1 F1200 X175.200 Y116.264 E262.37517
G0 F12000 X174.960 Y116.111
G1 F1200 X174.960 Y102.801 E262.64078
G0 F12000 X174.720 Y102.696
G1 F1200 X174.720 Y115.958 E262.90544
G0 F12000 X174.480 Y115.805
G1 F1200 X174.480 Y102.591 E263.16914
G0 F12000 X174.240 Y102.486
G1 F1200 X174.240 Y115.655 E263.43194
G0 F12000 X174.000 Y115.524
G1 F1200 X174.000 Y102.380 E263.69424
G0 F12000 X173.760 Y102.275
G1 F1200 X173.760 Y115.393 E263.95603
G0 F12000 X173.520 Y115.262
G1 F1200 X173.520 Y102.170 E264.21729
G0 F12000 X173.280 Y102.064
G1 F1200 X173.280 Y115.131 E264.47806
G0 F12000 X173.040 Y115.000
G1 F1200 X173.040 Y101.959 E264.73830
G0 F12000 X172.800 Y101.863
G1 F1200 X172.800 Y114.869 E264.99785
G0 F12000 X172.560 Y114.737
G1 F1200 X172.560 Y101.774 E265.25654
G0 F12000 X172.320 Y101.686
G1 F1200 X172.320 Y114.606 E265.51438
G0 F12000 X172.080 Y114.475
G1 F1200 X172.080 Y101.597 E265.77137
G0 F12000 X171.840 Y101.508
G1 F1200 X171.840 Y114.344 E266.02753
G0 F12000 X171.600 Y114.224
G1 F1200 X171.600 Y101.420 E266.28305
G0 F12000 X171.360 Y101.331
G1 F1200 X171.360 Y114.113 E266.53812
G0 F12000 X171.120 Y114.002
G1 F1200 X171.120 Y101.242 E266.79276
G0 F12000 X170.880 Y101.154
G1 F1200 X170.880 Y113.891 E267.04694
G0 F12000 X170.640 Y113.780
G1 F1200 X170.640 Y101.065 E267.30069
G0 F12000 X170.400 Y100.976
G1 F1200 X170.400 Y113.669 E267.55399
G0 F12000 X170.160 Y113.558
G1 F1200 X170.160 Y100.888 E267.80683
G0 F12000 X169.920 Y100.799
G1 F1200 X169.920 Y113.447 E268.05924
G0 F12000 X169.680 Y113.336
G1 F1200 X169.680 Y100.722 E268.31096
G0 F12000 X169.440 Y100.649
G1 F1200 X169.440 Y113.225 E268.56193
G0 F12000 X169.200 Y113.114
G1 F1200 X169.200 Y100.576 E268.81214
G0 F12000 X168.960 Y100.504
G1 F1200 X168.960 Y113.015 E269.06181
G0 F12000 X168.720 Y112.923
G1 F1200 X168.720 Y100.431 E269.31110
G0 F12000 X168.480 Y100.358
G1 F1200 X168.480 Y112.832 E269.56003
G0 F12000 X168.240 Y112.740
G1 F1200 X168.240 Y100.285 E269.80859
G0 F12000 X168.000 Y100.212
G1 F1200 X168.000 Y112.648 E270.05676
G0 F12000 X167.760 Y112.557
G1 F1200 X167.760 Y100.139 E270.30457
G0 F12000 X167.520 Y100.066
G1 F1200 X167.520 Y112.465 E270.55201
G0 F12000 X167.280 Y112.373
G1 F1200 X167.280 Y99.993 E270.79907
G0 F12000 X167.040 Y99.921
G1 F1200 X167.040 Y112.282 E271.04574
G0 F12000 X166.800 Y112.190
G1 F1200 X166.800 Y99.848 E271.29204
G0 F12000 X166.560 Y99.787
G1 F1200 X166.560 Y112.098 E271.53772
G0 F12000 X166.320 Y112.012
G1 F1200 X166.320 Y99.729 E271.78284
G0 F12000 X166.080 Y99.672
G1 F1200 X166.080 Y111.938 E272.02762
G0 F12000 X165.840 Y111.865
G1 F1200 X165.840 Y99.615 E272.27208
G0 F12000 X165.600 Y99.558
G1 F1200 X165.600 Y111.791 E272.51621
G0 F12000 X165.360 Y111.718
G1 F1200 X165.360 Y99.500 E272.76003
G0 F12000 X165.120 Y99.443
G1 F1200 X165.120 Y111.645 E273.00353
G0 F12000 X164.880 Y111.571
G1 F1200 X164.880 Y99.386 E273.24670
G0 F12000 X164.640 Y99.329
G1 F1200 X164.640 Y111.498 E273.48955
G0 F12000 X164.400 Y111.424
G1 F1200 X164.400 Y99.271 E273.73207
G0 F12000 X164.160 Y99.214
G1 F1200 X164.160 Y111.351 E273.97428
G0 F12000 X163.920 Y111.277
G1 F1200 X163.920 Y99.157 E274.21615
G0 F12000 X163.680 Y99.100
G1 F1200 X163.680 Y111.204 E274.45769
G0 F12000 X163.440 Y111.140
G1 F1200 X163.440 Y99.050 E274.69896
G0 F12000 X163.200 Y99.008
G1 F1200 X163.200 Y111.084 E274.93995
G0 F12000 X162.960 Y111.029
G1 F1200 X162.960 Y98.966 E275.18068
G0 F12000 X162.720 Y98.924
G1 F1200 X162.720 Y110.973 E275.42113
G0 F12000 X162.480 Y110.917
G1 F1200 X162.480 Y98.881 E275.66133
G0 F12000 X162.240 Y98.839
G1 F1200 X162.240 Y110.862 E275.90126
G0 F12000 X162.000 Y110.806
G1 F1200 X162.000 Y98.797 E276.14091
G0 F12000 X161.760 Y98.755
G1 F1200 X161.760 Y110.750 E276.38028
G0 F12000 X161.520 Y110.695
G1 F1200 X161.520 Y98.712 E276.61942
G0 F12000 X161.280 Y98.670
G1 F1200 X161.280 Y110.639 E276.85827
G0 F12000 X161.040 Y110.583
G1 F1200 X161.040 Y98.628 E277.09685
G0 F12000 X160.800 Y98.585
G1 F1200 X160.800 Y110.531 E277.33524
G0 F12000 X160.560 Y110.492
G1 F1200 X160.560 Y98.543 E277.57370
G0 F12000 X160.320 Y98.503
G1 F1200 X160.320 Y110.453 E277.81217
G0 F12000 X160.080 Y110.413
G1 F1200 X160.080 Y98.475 E278.05041
G0 F12000 X159.840 Y98.448
G1 F1200 X159.840 Y110.374 E278.28840
G0 F12000 X159.600 Y110.335
G1 F1200 X159.600 Y98.420 E278.52618
G0 F12000 X159.360 Y98.392
G1 F1200 X159.360 Y110.295 E278.76372
G0 F12000 X159.120 Y110.256
G1 F1200 X159.120 Y98.365 E279.00102
G0 F12000 X158.880 Y98.337
G1 F1200 X158.880 Y110.217 E279.23809
G0 F12000 X158.640 Y110.177
G1 F1200 X158.640 Y98.309 E279.47493
G0 F12000 X158.400 Y98.282
G1 F1200 X158.400 Y110.138 E279.71153
G0 F12000 X158.160 Y110.099
G1 F1200 X158.160 Y98.254 E279.94791
G0 F12000 X157.920 Y98.227
G1 F1200 X157.920 Y110.059 E280.18403
G0 F12000 X157.680 Y110.036
G1 F1200 X157.680 Y98.199 E280.42025
G0 F12000 X157.440 Y98.171
G1 F1200 X157.440 Y110.013 E280.65657
G0 F12000 X157.200 Y109.991
G1 F1200 X157.200 Y98.144 E280.89299
G0 F12000 X156.960 Y98.124
G1 F1200 X156.960 Y109.968 E281.12935
G0 F12000 X156.720 Y109.946
G1 F1200 X156.720 Y98.111 E281.36553
G0 F12000 X156.480 Y98.097
G1 F1200 X156.480 Y109.923 E281.60153
G0 F12000 X156.240 Y109.901
G1 F1200 X156.240 Y98.084 E281.83735
G0 F12000 X156.000 Y98.070
G1 F1200 X156.000 Y109.878 E282.07299
G0 F12000 X155.760 Y109.856
G1 F1200 X155.760 Y98.057 E282.30846
G0 F12000 X155.520 Y98.043
G1 F1200 X155.520 Y109.833 E282.54374
G0 F12000 X155.280 Y109.811
G1 F1200 X155.280 Y98.030 E282.77884
G0 F12000 X155.040 Y98.016
G1 F1200 X155.040 Y109.792 E283.01384
G0 F12000 X154.800 Y109.786
G1 F1200 X154.800 Y98.003 E283.24899
G0 F12000 X154.560 Y97.989
G1 F1200 X154.560 Y109.779 E283.48427
G0 F12000 X154.320 Y109.773
G1 F1200 X154.320 Y97.976 E283.71969
G0 F12000 X154.080 Y97.962
G1 F1200 X154.080 Y109.766 E283.95525
G0 F12000 X153.840 Y109.760
G1 F1200 X153.840 Y97.954 E284.19085
G0 F12000 X153.600 Y97.955
G1 F1200 X153.600 Y109.754 E284.42632
G0 F12000 X153.360 Y109.747
G1 F1200 X153.360 Y97.957 E284.66160
G0 F12000 X153.120 Y97.958
G1 F1200 X153.120 Y109.741 E284.89674
G0 F12000 X152.880 Y109.734
G1 F1200 X152.880 Y97.959 E285.13172
G0 F12000 X152.640 Y97.960
G1 F1200 X152.640 Y109.728 E285.36657
G0 F12000 X152.400 Y109.721
G1 F1200 X152.400 Y97.962 E285.60123
G0 F12000 X152.160 Y97.963
G1 F1200 X152.160 Y109.715 E285.83575
G0 F12000 X151.920 Y109.725
G1 F1200 X151.920 Y97.964 E286.07046
G0 F12000 X151.680 Y97.966
G1 F1200 X151.680 Y109.735 E286.30532
G0 F12000 X151.440 Y109.745
G1 F1200 X151.440 Y97.967 E286.54036
G0 F12000 X151.200 Y97.968
G1 F1200 X151.200 Y109.755 E286.77559
G0 F12000 X150.960 Y109.765
G1 F1200 X150.960 Y97.970 E287.01097
G0 F12000 X150.720 Y97.971
G1 F1200 X150.720 Y109.775 E287.24653
G0 F12000 X150.480 Y109.785
G1 F1200 X150.480 Y97.979 E287.48213
G0 F12000 X150.240 Y97.994
G1 F1200 X150.240 Y109.795 E287.71763
G0 F12000 X150.000 Y109.805
G1 F1200 X150.000 Y98.010 E287.95301
G0 F12000 X149.760 Y98.025
G1 F1200 X149.760 Y109.815 E288.18830
G0 F12000 X149.520 Y109.825
G1 F1200 X149.520 Y98.041 E288.42346
G0 F12000 X149.280 Y98.057
G1 F1200 X149.280 Y109.835 E288.65850
G0 F12000 X149.040 Y109.860
G1 F1200 X149.040 Y98.072 E288.89374
G0 F12000 X148.800 Y98.088
G1 F1200 X148.800 Y109.886 E289.12919
G0 F12000 X148.560 Y109.913
G1 F1200 X148.560 Y98.104 E289.36485
G0 F12000 X148.320 Y98.119
G1 F1200 X148.320 Y109.939 E289.60073
G0 F12000 X148.080 Y109.965
G1 F1200 X148.080 Y98.135 E289.83681
G0 F12000 X147.840 Y98.150
G1 F1200 X147.840 Y109.992 E290.07313
G0 F12000 X147.600 Y110.018
G1 F1200 X147.600 Y98.166 E290.30965
G0 F12000 X147.360 Y98.182
G1 F1200 X147.360 Y110.045 E290.54639
G0 F12000 X147.120 Y110.071
G1 F1200 X147.120 Y98.210 E290.78309
G0 F12000 X146.880 Y98.240
G1 F1200 X146.880 Y110.097 E291.01971
G0 F12000 X146.640 Y110.124
G1 F1200 X146.640 Y98.270 E291.25626
G0 F12000 X146.400 Y98.300
G1 F1200 X146.400 Y110.153 E291.49280
G0 F12000 X146.160 Y110.195
G1 F1200 X146.160 Y98.330 E291.72958
G0 F12000 X145.920 Y98.359
G1 F1200 X145.920 Y110.238 E291.96664
G0 F12000 X145.680 Y110.281
G1 F1200 X145.680 Y98.389 E292.20396
G0 F12000 X145.440 Y98.419
G1 F1200 X145.440 Y110.323 E292.44152
G0 F12000 X145.200 Y110.366
G1 F1200 X145.200 Y98.449 E292.67933
G0 F12000 X144.960 Y98.479
G1 F1200 X144.960 Y110.409 E292.91741
G0 F12000 X144.720 Y110.452
G1 F1200 X144.720 Y98.509 E293.15574
G0 F12000 X144.480 Y98.539
G1 F1200 X144.480 Y110.494 E293.39432
G0 F12000 X144.240 Y110.537
G1 F1200 X144.240 Y98.569 E293.63315
G0 F12000 X144.000 Y98.605
G1 F1200 X144.000 Y110.580 E293.87213
G0 F12000 X143.760 Y110.622
G1 F1200 X143.760 Y98.650 E294.11104
G0 F12000 X143.520 Y98.695
G1 F1200 X143.520 Y110.672 E294.35006
G0 F12000 X143.280 Y110.732
G1 F1200 X143.280 Y98.740 E294.58937
G0 F12000 X143.040 Y98.785
G1 F1200 X143.040 Y110.791 E294.82896
G0 F12000 X142.800 Y110.851
G1 F1200 X142.800 Y98.829 E295.06887
G0 F12000 X142.560 Y98.874
G1 F1200 X142.560 Y110.910 E295.30907
G0 F12000 X142.320 Y110.970
G1 F1200 X142.320 Y98.919 E295.54956
G0 F12000 X142.080 Y98.964
G1 F1200 X142.080 Y111.029 E295.79033
G0 F12000 X141.840 Y111.089
G1 F1200 X141.840 Y99.009 E296.03140
G0 F12000 X141.600 Y99.054
G1 F1200 X141.600 Y111.148 E296.27274
G0 F12000 X141.360 Y111.208
G1 F1200 X141.360 Y99.099 E296.51439
G0 F12000 X141.120 Y99.144
G1 F1200 X141.120 Y111.267 E296.75632
G0 F12000 X140.880 Y111.327
G1 F1200 X140.880 Y99.188 E296.99857
G0 F12000 X140.640 Y99.248
G1 F1200 X140.640 Y111.398 E297.24103
G0 F12000 X140.400 Y111.475
G1 F1200 X140.400 Y99.308 E297.48384
G0 F12000 X140.160 Y99.368
G1 F1200 X140.160 Y111.552 E297.72698
G0 F12000 X139.920 Y111.629
G1 F1200 X139.920 Y99.427 E297.97049
G0 F12000 X139.680 Y99.487
G1 F1200 X139.680 Y111.706 E298.21433
G0 F12000 X139.440 Y111.783
G1 F1200 X139.440 Y99.547 E298.45851
G0 F12000 X139.200 Y99.607
G1 F1200 X139.200 Y111.860 E298.70304
G0 F12000 X138.960 Y111.937
G1 F1200 X138.960 Y99.667 E298.94790
G0 F12000 X138.720 Y99.727
G1 F1200 X138.720 Y112.014 E299.19310
G0 F12000 X138.480 Y112.091
G1 F1200 X138.480 Y99.787 E299.43864
G0 F12000 X138.240 Y99.847
G1 F1200 X138.240 Y112.168 E299.68452
G0 F12000 X138.000 Y112.249
G1 F1200 X138.000 Y99.906 E299.93083
G0 F12000 X137.760 Y99.966
G1 F1200 X137.760 Y112.344 E300.17785
G0 F12000 X137.520 Y112.440
G1 F1200 X137.520 Y100.039 E300.42533
G0 F12000 X137.280 Y100.114
G1 F1200 X137.280 Y112.535 E300.67320
G0 F12000 X137.040 Y112.630
G1 F1200 X137.040 Y100.190 E300.92145
G0 F12000 X136.800 Y100.265
G1 F1200 X136.800 Y112.726 E301.17013
G0 F12000 X136.560 Y112.821
G1 F1200 X136.560 Y100.340 E301.41920
G0 F12000 X136.320 Y100.416
G1 F1200 X136.320 Y112.916 E301.66865
G0 F12000 X136.080 Y113.012
G1 F1200 X136.080 Y100.491 E301.91852
G0 F12000 X135.840 Y100.567
G1 F1200 X135.840 Y113.107 E302.16877
G0 F12000 X135.600 Y113.202
G1 F1200 X135.600 Y100.642 E302.41942
G0 F12000 X135.360 Y100.718
G1 F1200 X135.360 Y113.298 E302.67046
G0 F12000 X135.120 Y113.413
G1 F1200 X135.120 Y100.793 E302.92231
G0 F12000 X134.880 Y100.868
G1 F1200 X134.880 Y113.528 E303.17495
G0 F12000 X134.640 Y113.643
G1 F1200 X134.640 Y100.944 E303.42838
G0 F12000 X134.400 Y101.033
G1 F1200 X134.400 Y113.758 E303.68232
G0 F12000 X134.160 Y113.872
G1 F1200 X134.160 Y101.124 E303.93672
G0 F12000 X133.920 Y101.216
G1 F1200 X133.920 Y113.987 E304.19158
G0 F12000 X133.680 Y114.102
G1 F1200 X133.680 Y101.307 E304.44691
G0 F12000 X133.440 Y101.398
G1 F1200 X133.440 Y114.217 E304.70273
G0 F12000 X133.200 Y114.332
G1 F1200 X133.200 Y101.490 E304.95901
G0 F12000 X132.960 Y101.581
G1 F1200 X132.960 Y114.446 E305.21574
G0 F12000 X132.720 Y114.561
G1 F1200 X132.720 Y101.673 E305.47294
G0 F12000 X132.480 Y101.764
G1 F1200 X132.480 Y114.695 E305.73099
G0 F12000 X132.240 Y114.830
G1 F1200 X132.240 Y101.855 E305.98992
G0 F12000 X132.000 Y101.947
G1 F1200 X132.000 Y114.966 E306.24973
G0 F12000 X131.760 Y115.102
G1 F1200 X131.760 Y102.038 E306.51043
G0 F12000 X131.520 Y102.132
G1 F1200 X131.520 Y115.238 E306.77198
G0 F12000 X131.280 Y115.374
G1 F1200 X131.280 Y102.240 E307.03408
G0 F12000 X131.040 Y102.349
G1 F1200 X131.040 Y115.510 E307.29672
G0 F12000 X130.800 Y115.646
G1 F1200 X130.800 Y102.457 E307.55992
G0 F12000 X130.560 Y102.565
G1 F1200 X130.560 Y115.781 E307.82366
G0 F12000 X130.320 Y115.917
G1 F1200 X130.320 Y102.674 E308.08794
G0 F12000 X130.080 Y102.782
G1 F1200 X130.080 Y116.068 E308.35308
G0 F12000 X129.840 Y116.225
G1 F1200 X129.840 Y102.891 E308.61917
G0 F12000 X129.600 Y102.999
G1 F1200 X129.600 Y116.383 E308.88626
G0 F12000 X129.360 Y116.540
G1 F1200 X129.360 Y103.107 E309.15433
G0 F12000 X129.120 Y103.216
G1 F1200 X129.120 Y116.698 E309.42338
G0 F12000 X128.880 Y116.855
G1 F1200 X128.880 Y103.324 E309.69341
G0 F12000 X128.640 Y103.433
G1 F1200 X128.640 Y117.013 E309.96441
G0 F12000 X128.400 Y117.170
G1 F1200 X128.400 Y103.554 E310.23613
G0 F12000 X128.160 Y103.680
G1 F1200 X128.160 Y117.328 E310.50849
G0 F12000 X127.920 Y117.485
G1 F1200 X127.920 Y103.806 E310.78147
G0 F12000 X127.680 Y103.931
G1 F1200 X127.680 Y117.659 E311.05543
G0 F12000 X127.440 Y117.840
G1 F1200 X127.440 Y104.057 E311.33049
G0 F12000 X127.200 Y104.183
G1 F1200 X127.200 Y118.022 E311.60666
G0 F12000 X126.960 Y118.204
G1 F1200 X126.960 Y104.309 E311.88395
G0 F12000 X126.720 Y104.434
G1 F1200 X126.720 Y118.386 E312.16237
G0 F12000 X126.480 Y118.568
G1 F1200 X126.480 Y104.560 E312.44192
G0 F12000 X126.240 Y104.686
G1 F1200 X126.240 Y118.750 E312.72258
G0 F12000 X126.000 Y118.931
G1 F1200 X126.000 Y104.811 E313.00436
G0 F12000 X125.760 Y104.937
G1 F1200 X125.760 Y119.113 E313.28726
G0 F12000 X125.520 Y119.295
G1 F1200 X125.520 Y105.082 E313.57089
G0 F12000 X125.280 Y105.227
G1 F1200 X125.280 Y119.504 E313.85581
G0 F12000 X125.040 Y119.713
G1 F1200 X125.040 Y105.372 E314.14200
G0 F12000 X124.800 Y105.517
G1 F1200 X124.800 Y119.922 E314.42947
G0 F12000 X124.560 Y120.131
G1 F1200 X124.560 Y105.662 E314.71821
G0 F12000 X124.320 Y105.807
G1 F1200 X124.320 Y120.339 E315.00821
G0 F12000 X124.080 Y120.548
G1 F1200 X124.080 Y105.952 E315.29949
G0 F12000 X123.840 Y106.097
G1 F1200 X123.840 Y120.757 E315.59205
G0 F12000 X123.600 Y120.966
G1 F1200 X123.600 Y106.242 E315.88588
G0 F12000 X123.360 Y106.387
G1 F1200 X123.360 Y121.175 E316.18099
G0 F12000 X123.120 Y121.404
G1 F1200 X123.120 Y106.532 E316.47778
G0 F12000 X122.880 Y106.678
G1 F1200 X122.880 Y121.644 E316.77644
G0 F12000 X122.640 Y121.884
G1 F1200 X122.640 Y106.844 E317.07658
G0 F12000 X122.400 Y107.009
G1 F1200 X122.400 Y122.124 E317.37822
G0 F12000 X122.160 Y122.364
G1 F1200 X122.160 Y107.174 E317.68135
G0 F12000 X121.920 Y107.340
G1 F1200 X121.920 Y122.604 E317.98596
G0 F12000 X121.680 Y122.844
G1 F1200 X121.680 Y107.505 E318.29206
G0 F12000 X121.440 Y107.671
G1 F1200 X121.440 Y123.084 E318.59965
G0 F12000 X121.200 Y123.332
G1 F1200 X121.200 Y107.836 E318.90889
G0 F12000 X120.960 Y108.002
G1 F1200 X120.960 Y123.607 E319.22030
G0 F12000 X120.720 Y123.882
G1 F1200 X120.720 Y108.167 E319.53391
G0 F12000 X120.480 Y108.333
G1 F1200 X120.480 Y124.157 E319.84970
G0 F12000 X120.240 Y124.432
G1 F1200 X120.240 Y108.498 E320.16768
G0 F12000 X120.000 Y108.684
G1 F1200 X120.000 Y124.707 E320.48743
G1 F1800 E318.68743
G0 F12000 X99.840 Y138.304
G1 F1800 E320.48743
G1 F1200 X99.840 Y166.720 E321.05451
G0 F12000 X99.600 Y165.756
G1 F1200 X99.600 Y139.247 E321.58352
G0 F12000 X99.360 Y140.191
G1 F1200 X99.360 Y164.727 E322.07316
G0 F12000 X99.120 Y163.698
G1 F1200 X99.120 Y141.306 E322.52002
G0 F12000 X98.880 Y142.558
G1 F1200 X98.880 Y162.446 E322.91691
G0 F12000 X98.640 Y161.047
G1 F1200 X98.640 Y143.810 E323.26089
G1 F1800 E321.46089
G0 F12000 X98.400 Y145.639
G1 F1800 E323.26089
G1 F1200 X98.400 Y159.407 E323.53564
G1 F1800 E321.73564
G0 F12000 X98.160 Y157.224
G1 F1800 E323.53564
G1 F1200 X98.160 Y147.827 E323.72317
;LAYER:1
M106 S12
G0 F12000 X98.362 Y147.184 Z0.350
;TYPE:WALL-INNER
G1 F1200 X98.778 Y143.944 E323.80466
G1 X99.380 Y140.769 E323.88527
G1 X100.184 Y137.591 E323.96704
G1 X101.164 Y134.499 E324.04795
G1 X102.338 Y131.449 E324.12948
G1 X103.680 Y128.498 E324.21035
G1 X105.200 Y125.627 E324.29138
G1 X106.900 Y122.833 E324.37296
G1 X108.749 Y120.168 E324.45388
G1 X110.766 Y117.601 E324.53531
G1 X112.934 Y115.160 E324.61675
G1 X115.230 Y112.869 E324.69766
G1 X117.667 Y110.711 E324.77886
G1 X120.228 Y108.703 E324.86004
G1 X122.893 Y106.859 E324.94088
G1 X125.696 Y105.158 E325.02267
G1 X125.852 Y105.064 E325.02722
G1 X128.554 Y103.648 E325.10331
G1 X131.683 Y102.231 E325.18900
G1 X134.578 Y101.133 E325.26623
G1 X134.721 Y101.078 E325.27005
G1 X137.850 Y100.101 E325.35182
G1 X140.808 Y99.367 E325.42785
G1 X144.039 Y98.758 E325.50987
G1 X147.236 Y98.353 E325.59025
G1 X150.503 Y98.134 E325.67193
G1 X153.931 Y98.110 E325.75745
G1 X157.001 Y98.282 E325.83415
G1 X160.249 Y98.651 E325.91569
G1 X160.409 Y98.670 E325.91971
G1 X163.441 Y99.209 E325.99653
G1 X166.621 Y99.961 E326.07804
G1 X169.726 Y100.897 E326.15894
G1 X172.794 Y102.025 E326.24048
G1 X175.763 Y103.323 E326.32131
G1 X178.673 Y104.808 E326.40281
G1 X178.816 Y104.882 E326.40682
G1 X181.459 Y106.448 E326.48346
G1 X184.169 Y108.268 E326.56489
G1 X186.747 Y110.234 E326.64576
G1 X189.233 Y112.376 E326.72762
G1 X191.547 Y114.625 E326.80811
G1 X193.748 Y117.035 E326.88953
G1 X195.804 Y119.578 E326.97110
G1 X195.918 Y119.720 E326.97565
G1 X197.684 Y122.209 E327.05178
G1 X199.417 Y124.973 E327.13316
G1 X200.985 Y127.840 E327.21467
G1 X202.443 Y130.935 E327.30001
G1 X203.581 Y133.805 E327.37703
G1 X204.658 Y137.046 E327.46222
G1 X205.447 Y140.039 E327.53943
G1 X206.093 Y143.205 E327.62004
G1 X206.553 Y146.435 E327.70142
G1 X206.817 Y149.675 E327.78251
G1 X206.893 Y153.116 E327.86837
G1 X206.766 Y156.197 E327.94529
G1 X206.760 Y156.344 E327.94896
G1 X206.449 Y159.413 E328.02591
G1 X205.936 Y162.641 E328.10744
G1 X205.234 Y165.816 E328.18856
G1 X204.344 Y168.942 E328.26963
G1 X203.265 Y172.019 E328.35097
G1 X202.009 Y175.015 E328.43201
G1 X200.566 Y177.950 E328.51359
G1 X200.497 Y178.090 E328.51749
G1 X198.962 Y180.768 E328.59449
G1 X197.197 Y183.485 E328.67531
G1 X195.246 Y186.125 E328.75719
G1 X193.172 Y188.606 E328.83786
G1 X190.936 Y190.976 E328.91914
G1 X188.567 Y193.205 E329.00028
G1 X186.067 Y195.290 E329.08148
G1 X183.438 Y197.227 E329.16294
G1 X180.572 Y199.086 E329.24816
G1 X177.888 Y200.594 E329.32495
G1 X174.962 Y202.028 E329.40624
G1 X171.788 Y203.355 E329.49205
G1 X168.871 Y204.361 E329.56903
G1 X168.712 Y204.416 E329.57322
G1 X165.752 Y205.245 E329.64990
G1 X162.399 Y205.981 E329.73553
G1 X159.345 Y206.452 E329.81262
G1 X159.174 Y206.479 E329.81693
G1 X156.138 Y206.763 E329.89300
G1 X152.851 Y206.883 E329.97505
G1 X152.686 Y206.889 E329.97917
G1 X149.439 Y206.803 E330.06019
G1 X146.372 Y206.539 E330.13698
G1 X143.135 Y206.074 E330.21856
G1 X139.952 Y205.419 E330.29962
G1 X136.822 Y204.577 E330.38048
G1 X133.742 Y203.549 E330.46147
G1 X130.708 Y202.330 E330.54304
G1 X127.779 Y200.944 E330.62387
G1 X124.916 Y199.373 E330.70533
G1 X122.150 Y197.633 E330.78685
G1 X119.368 Y195.638 E330.87224
G1 X116.997 Y193.703 E330.94858
G1 X114.594 Y191.503 E331.02985
G1 X112.320 Y189.158 E331.11134
G1 X110.208 Y186.700 E331.19218
G1 X108.125 Y183.962 E331.27800
G1 X106.428 Y181.409 E331.35447
G1 X104.773 Y178.588 E331.43605
G1 X103.300 Y175.692 E331.51710
G1 X101.997 Y172.702 E331.59846
G1 X100.886 Y169.665 E331.67913
G1 X99.947 Y166.532 E331.76072
G1 X99.202 Y163.367 E331.84183
G1 X98.647 Y160.163 E331.92294
G1 X98.264 Y156.747 E332.00869
G1 X98.107 Y153.503 E332.08970
G1 X98.141 Y150.411 E332.16684
G1 X98.144 Y150.230 E332.17136
G1 X98.362 Y147.184 E332.24753
G1 F1800 E330.44753
G0 F12000 X109.687 Y149.228
G1 F1800 E332.24753
G1 F1200 X109.573 Y151.947 E332.31542
G1 X109.565 Y152.126 E332.31989
G1 X109.638 Y155.024 E332.39220
G1 X109.891 Y157.755 E332.46062
G1 X110.341 Y160.600 E332.53247
G1 X110.985 Y163.427 E332.60480
G1 X111.824 Y166.223 E332.67761
G1 X112.837 Y168.918 E332.74943
G1 X112.900 Y169.086 E332.75391
G1 X114.045 Y171.577 E332.82230
G1 X115.419 Y174.128 E332.89458
G1 X116.965 Y176.582 E332.96693
G1 X118.662 Y178.911 E333.03881
G1 X120.638 Y181.271 E333.11559
G1 X122.543 Y183.242 E333.18397
G1 X124.687 Y185.193 E333.25628
G1 X126.942 Y186.983 E333.32810
G1 X127.083 Y187.095 E333.33259
G1 X129.347 Y188.642 E333.40099
G1 X131.839 Y190.122 E333.47329
G1 X134.427 Y191.431 E333.54564
G1 X137.079 Y192.555 E333.61749
G1 X139.839 Y193.511 E333.69035
G1 X142.636 Y194.271 E333.76265
G1 X145.635 Y194.872 E333.83895
G1 X148.513 Y195.240 E333.91133
G1 X151.228 Y195.400 E333.97917
G1 X151.406 Y195.411 E333.98362
G1 X154.130 Y195.389 E334.05157
G1 X154.309 Y195.387 E334.05604
G1 X157.041 Y195.179 E334.12438
G1 X159.911 Y194.775 E334.19668
G1 X162.748 Y194.177 E334.26901
G1 X165.522 Y193.396 E334.34090
G1 X165.694 Y193.346 E334.34536
G1 X168.273 Y192.417 E334.41374
G1 X170.931 Y191.261 E334.48605
G1 X173.506 Y189.928 E334.55838
G1 X175.985 Y188.424 E334.63071
G1 X178.357 Y186.756 E334.70304
G1 X180.612 Y184.933 E334.77538
G1 X182.738 Y182.960 E334.84773
G1 X184.726 Y180.849 E334.92006
G1 X186.566 Y178.608 E334.99239
G1 X188.252 Y176.249 E335.06472
G1 X189.773 Y173.781 E335.13704
G1 X191.127 Y171.216 E335.20939
G1 X192.303 Y168.565 E335.28173
G1 X193.297 Y165.841 E335.35407
G1 X194.149 Y162.904 E335.43035
G1 X194.724 Y160.222 E335.49878
G1 X195.149 Y157.354 E335.57110
G1 X195.381 Y154.464 E335.64342
G1 X195.417 Y151.407 E335.71968
G1 X195.256 Y148.669 E335.78810
G1 X194.902 Y145.811 E335.85994
G1 X194.880 Y145.633 E335.86441
G1 X194.355 Y142.961 E335.93234
G1 X193.611 Y140.139 E336.00514
G1 X192.684 Y137.393 E336.07744
G1 X191.580 Y134.733 E336.14928
G1 X190.283 Y132.116 E336.22214
G1 X188.822 Y129.613 E336.29444
G1 X187.194 Y127.212 E336.36680
G1 X185.421 Y124.943 E336.43863
G1 X185.309 Y124.802 E336.44312
G1 X183.472 Y122.769 E336.51147
G1 X181.396 Y120.746 E336.58378
G1 X179.202 Y118.880 E336.65563
G1 X179.064 Y118.764 E336.66012
G1 X176.870 Y117.153 E336.72802
G1 X174.412 Y115.578 E336.80085
G1 X171.872 Y114.183 E336.87313
G1 X169.241 Y112.962 E336.94549
G1 X166.553 Y111.928 E337.01733
G1 X163.762 Y111.066 E337.09020
G1 X160.961 Y110.406 E337.16198
G1 X158.102 Y109.931 E337.23428
G1 X157.924 Y109.902 E337.23877
G1 X155.194 Y109.647 E337.30717
G1 X152.316 Y109.563 E337.37899
G1 X152.137 Y109.559 E337.38346
G1 X149.417 Y109.673 E337.45137
G1 X149.239 Y109.680 E337.45581
G1 X146.533 Y109.978 E337.52372
G1 X146.356 Y109.998 E337.52817
G1 X143.658 Y110.482 E337.59654
G1 X140.843 Y111.173 E337.66885
G1 X138.080 Y112.055 E337.74120
G1 X135.385 Y113.119 E337.81347
G1 X132.765 Y114.365 E337.88585
G1 X130.236 Y115.785 E337.95820
G1 X127.825 Y117.360 E338.03003
G1 X125.493 Y119.118 E338.10288
G1 X123.183 Y121.122 E338.17917
G1 X121.131 Y123.173 E338.25154
G1 X119.224 Y125.358 E338.32389
G1 X117.565 Y127.539 E338.39224
G1 X115.971 Y129.937 E338.46407
G1 X114.521 Y132.473 E338.53694
G1 X113.257 Y135.082 E338.60926
G1 X112.172 Y137.769 E338.68154
G1 X111.269 Y140.526 E338.75391
G1 X110.556 Y143.337 E338.82625
G1 X110.033 Y146.189 E338.89858
G1 X109.687 Y149.228 E338.97488
G0 F12000 X110.086 Y149.259
;TYPE:WALL-OUTER
G1 F1200 X109.965 Y152.130 E339.04656
G1 X110.037 Y155.001 E339.11820
G1 X110.288 Y157.705 E339.18594
G1 X110.736 Y160.536 E339.25744
G1 X110.763 Y160.699 E339.26156
G1 X111.412 Y163.497 E339.33321
G1 X112.203 Y166.094 E339.40093
G1 X113.269 Y168.931 E339.47653
G1 X114.403 Y171.398 E339.54426
G1 X115.765 Y173.926 E339.61590
G1 X117.296 Y176.357 E339.68756
G1 X118.985 Y178.674 E339.75909
G1 X119.083 Y178.807 E339.76321
G1 X120.935 Y181.003 E339.83487
G1 X122.822 Y182.955 E339.90259
G1 X124.946 Y184.888 E339.97423
G1 X127.320 Y186.772 E340.04983
G1 X129.562 Y188.305 E340.11758
G1 X132.032 Y189.771 E340.18923
G1 X134.596 Y191.068 E340.26091
G1 X137.234 Y192.186 E340.33238
G1 X139.956 Y193.128 E340.40423
G1 X142.728 Y193.882 E340.47589
G1 X145.700 Y194.477 E340.55150
G1 X148.550 Y194.841 E340.62317
G1 X151.418 Y195.011 E340.69484
G1 X154.290 Y194.987 E340.76649
G1 X156.998 Y194.781 E340.83423
G1 X159.842 Y194.381 E340.90587
G1 X162.653 Y193.788 E340.97754
G1 X165.412 Y193.011 E341.04904
G1 X168.125 Y192.045 E341.12088
G1 X170.759 Y190.900 E341.19252
G1 X173.310 Y189.579 E341.26418
G1 X175.766 Y188.089 E341.33584
G1 X178.116 Y186.437 E341.40750
G1 X180.350 Y184.630 E341.47917
G1 X182.456 Y182.676 E341.55084
G1 X184.425 Y180.584 E341.62250
G1 X186.249 Y178.365 E341.69415
G1 X187.919 Y176.028 E341.76581
G1 X189.426 Y173.582 E341.83747
G1 X190.767 Y171.041 E341.90914
G1 X191.932 Y168.415 E341.98081
G1 X192.916 Y165.716 E342.05247
G1 X193.761 Y162.806 E342.12806
G1 X194.330 Y160.151 E342.19579
G1 X194.752 Y157.309 E342.26746
G1 X194.981 Y154.445 E342.33913
G1 X195.017 Y151.416 E342.41470
G1 X194.857 Y148.706 E342.48241
G1 X194.485 Y145.697 E342.55805
G1 X193.930 Y142.878 E342.62972
G1 X193.228 Y140.255 E342.69745
G1 X192.309 Y137.534 E342.76909
G1 X191.147 Y134.735 E342.84469
G1 X189.931 Y132.307 E342.91243
G1 X188.483 Y129.826 E342.98409
G1 X186.871 Y127.448 E343.05575
G1 X185.106 Y125.190 E343.12724
G1 X183.184 Y123.046 E343.19907
G1 X181.127 Y121.042 E343.27071
G1 X178.817 Y119.079 E343.34633
G1 X176.501 Y117.378 E343.41801
G1 X174.209 Y115.923 E343.48573
G1 X171.691 Y114.540 E343.55739
G1 X169.085 Y113.331 E343.62905
G1 X166.410 Y112.302 E343.70055
G1 X163.658 Y111.453 E343.77239
G1 X160.709 Y110.758 E343.84797
G1 X157.872 Y110.298 E343.91966
G1 X155.169 Y110.046 E343.98738
G1 X152.141 Y109.959 E344.06294
G1 X149.270 Y110.079 E344.13462
G1 X146.414 Y110.394 E344.20630
G1 X143.741 Y110.873 E344.27404
G1 X140.952 Y111.558 E344.34568
G1 X138.215 Y112.432 E344.41735
G1 X135.544 Y113.486 E344.48898
G1 X132.949 Y114.720 E344.56066
G1 X130.443 Y116.127 E344.63235
G1 X127.907 Y117.785 E344.70793
G1 X125.746 Y119.429 E344.77566
G1 X123.456 Y121.415 E344.85128
G1 X121.424 Y123.446 E344.92294
G1 X119.534 Y125.611 E344.99463
G1 X117.891 Y127.771 E345.06233
G1 X116.213 Y130.295 E345.13794
G1 X114.876 Y132.659 E345.20569
G1 X113.623 Y135.244 E345.27734
G1 X112.548 Y137.906 E345.34896
G1 X111.654 Y140.637 E345.42064
G1 X110.947 Y143.422 E345.49232
G1 X110.429 Y146.248 E345.56399
G1 X110.086 Y149.259 E345.63958
G1 F1800 E343.83958
G0 F12000 X97.964 Y147.144
G1 F1800 E345.63958
G1 F1200 X98.381 Y143.892 E345.72137
G1 X98.992 Y140.671 E345.80315
G1 X99.796 Y137.492 E345.88495
G1 X100.786 Y134.368 E345.96669
G1 X101.968 Y131.297 E346.04878
G1 X103.320 Y128.324 E346.13025
G1 X104.859 Y125.416 E346.21232
G1 X106.564 Y122.615 E346.29412
G1 X108.426 Y119.931 E346.37561
G1 X110.452 Y117.353 E346.45740
G1 X112.758 Y114.758 E346.54399
G1 X114.948 Y112.585 E346.62095
G1 X117.412 Y110.403 E346.70305
G1 X119.982 Y108.387 E346.78453
G1 X122.677 Y106.522 E346.86629
G1 X125.646 Y104.721 E346.95291
G1 X128.379 Y103.289 E347.02988
G1 X131.535 Y101.859 E347.11631
G1 X134.595 Y100.698 E347.19795
G1 X137.736 Y99.717 E347.28004
G1 X140.731 Y98.975 E347.35701
G1 X144.143 Y98.332 E347.44362
G1 X147.205 Y97.953 E347.52058
G1 X150.488 Y97.734 E347.60266
G1 X153.935 Y97.710 E347.68865
G1 X157.033 Y97.884 E347.76605
G1 X160.474 Y98.275 E347.85244
G1 X163.514 Y98.815 E347.92946
G1 X166.717 Y99.573 E348.01156
G1 X169.844 Y100.515 E348.09303
G1 X173.099 Y101.712 E348.17954
G1 X175.936 Y102.962 E348.25687
G1 X179.012 Y104.533 E348.34303
G1 X181.672 Y106.109 E348.42016
G1 X184.404 Y107.944 E348.50226
G1 X187.001 Y109.925 E348.58373
G1 X189.494 Y112.073 E348.66582
G1 X191.836 Y114.349 E348.74729
G1 X194.047 Y116.769 E348.82905
G1 X196.230 Y119.470 E348.91569
G1 X198.022 Y121.996 E348.99294
G1 X199.758 Y124.763 E349.07443
G1 X201.418 Y127.798 E349.16072
G1 X202.807 Y130.768 E349.24251
G1 X203.949 Y133.647 E349.31977
G1 X205.044 Y136.942 E349.40638
G1 X205.878 Y140.100 E349.48786
G1 X206.487 Y143.137 E349.56513
G1 X206.951 Y146.395 E349.64722
G1 X207.217 Y149.650 E349.72868
G1 X207.293 Y153.108 E349.81497
G1 X207.157 Y156.392 E349.89696
G1 X206.846 Y159.466 E349.97403
G1 X206.329 Y162.716 E350.05612
G1 X205.625 Y165.905 E350.13758
G1 X204.727 Y169.059 E350.21939
G1 X203.638 Y172.164 E350.30147
G1 X202.376 Y175.176 E350.38293
G1 X200.848 Y178.281 E350.46926
G1 X199.309 Y180.968 E350.54650
G1 X197.519 Y183.723 E350.62846
G1 X195.462 Y186.505 E350.71476
G1 X193.465 Y188.878 E350.79213
G1 X191.223 Y191.255 E350.87364
G1 X188.836 Y193.501 E350.95540
G1 X186.313 Y195.606 E351.03736
G1 X183.675 Y197.550 E351.11910
G1 X180.766 Y199.436 E351.20559
G1 X178.076 Y200.947 E351.28255
G1 X175.127 Y202.392 E351.36447
G1 X171.929 Y203.729 E351.45093
G1 X168.842 Y204.795 E351.53240
G1 X165.848 Y205.633 E351.60996
G1 X162.481 Y206.373 E351.69595
G1 X159.227 Y206.875 E351.77808
G1 X156.154 Y207.163 E351.85508
G1 X152.691 Y207.290 E351.94152
G1 X149.410 Y207.203 E352.02339
G1 X146.334 Y206.938 E352.10041
G1 X143.080 Y206.470 E352.18242
G1 X139.690 Y205.772 E352.26875
G1 X136.712 Y204.962 E352.34574
G1 X133.603 Y203.924 E352.42750
G1 X130.550 Y202.698 E352.50957
G1 X127.587 Y201.295 E352.59135
G1 X124.712 Y199.718 E352.67315
G1 X121.794 Y197.881 E352.75916
G1 X119.125 Y195.957 E352.84123
G1 X116.735 Y194.005 E352.91821
G1 X114.308 Y191.784 E353.00028
G1 X112.026 Y189.430 E353.08206
G1 X109.890 Y186.944 E353.16382
G1 X107.803 Y184.199 E353.24984
G1 X106.082 Y181.610 E353.32739
G1 X104.423 Y178.782 E353.40918
G1 X102.936 Y175.859 E353.49098
G1 X101.632 Y172.865 E353.57244
G1 X100.501 Y169.775 E353.65453
G1 X99.560 Y166.635 E353.73629
G1 X98.809 Y163.443 E353.81809
G1 X98.252 Y160.224 E353.89959
G1 X97.865 Y156.774 E353.98619
G1 X97.707 Y153.499 E354.06798
G1 X97.741 Y150.404 E354.14519
G1 X97.744 Y150.223 E354.14970
G1 X97.964 Y147.144 E354.22670
G0 F12000 X98.500 Y147.200
;TYPE:SKIN
G1 F1200 X109.776 Y147.200 E354.50798
G0 F12000 X109.821 Y146.800
G1 F1200 X98.551 Y146.800 E354.78912
G0 F12000 X98.603 Y146.400
G1 F1200 X109.867 Y146.400 E355.07010
G0 F12000 X109.924 Y146.000
G1 F1200 X98.654 Y146.000 E355.35123
G0 F12000 X98.705 Y145.600
G1 F1200 X109.997 Y145.600 E355.63291
G0 F12000 X110.070 Y145.200
G1 F1200 X98.757 Y145.200 E355.91511
G0 F12000 X98.808 Y144.800
G1 F1200 X110.143 Y144.800 E356.19787
G0 F12000 X110.217 Y144.400
G1 F1200 X98.859 Y144.400 E356.48119
G0 F12000 X98.911 Y144.000
G1 F1200 X110.290 Y144.000 E356.76504
G0 F12000 X110.363 Y143.600
G1 F1200 X98.985 Y143.600 E357.04887
G0 F12000 X99.061 Y143.200
G1 F1200 X110.444 Y143.200 E357.33282
G0 F12000 X110.545 Y142.800
G1 F1200 X99.136 Y142.800 E357.61742
G0 F12000 X99.212 Y142.400
G1 F1200 X110.647 Y142.400 E357.90266
G0 F12000 X110.749 Y142.000
G1 F1200 X99.288 Y142.000 E358.18856
G0 F12000 X99.364 Y141.600
G1 F1200 X110.850 Y141.600 E358.47508
G0 F12000 X110.952 Y141.200
G1 F1200 X99.439 Y141.200 E358.76227
G0 F12000 X99.516 Y140.800
G1 F1200 X111.053 Y140.800 E359.05006
G0 F12000 X111.161 Y140.400
G1 F1200 X99.617 Y140.400 E359.33803
G0 F12000 X99.718 Y140.000
G1 F1200 X111.292 Y140.000 E359.62674
G1 F1800 E357.82674
G0 F12000 X109.730 Y147.600
G1 F1800 E359.62674
G1 F1200 X98.471 Y147.600 E359.90760
G0 F12000 X98.443 Y148.000
G1 F1200 X109.684 Y148.000 E360.18801
G0 F12000 X109.639 Y148.400
G1 F1200 X98.414 Y148.400 E360.46802
G0 F12000 X98.386 Y148.800
G1 F1200 X109.593 Y148.800 E360.74758
G0 F12000 X109.548 Y149.200
G1 F1200 X98.357 Y149.200 E361.02674
G0 F12000 X98.328 Y149.600
G1 F1200 X109.529 Y149.600 E361.30615
G0 F12000 X109.513 Y150.000
G1 F1200 X98.300 Y150.000 E361.58586
G0 F12000 X98.282 Y150.400
G1 F1200 X109.496 Y150.400 E361.86559
G0 F12000 X109.479 Y150.800
G1 F1200 X98.277 Y150.800 E362.14503
G0 F12000 X98.273 Y151.200
G1 F1200 X109.462 Y151.200 E362.42414
G0 F12000 X109.446 Y151.600
G1 F1200 X98.268 Y151.600 E362.70297
G0 F12000 X98.263 Y152.000
G1 F1200 X109.429 Y152.000 E362.98151
G0 F12000 X109.431 Y152.400
G1 F1200 X98.259 Y152.400 E363.26020
G0 F12000 X98.254 Y152.800
G1 F1200 X109.441 Y152.800 E363.53926
G0 F12000 X109.452 Y153.200
G1 F1200 X98.250 Y153.200 E363.81869
G0 F12000 X98.251 Y153.600
G1 F1200 X109.462 Y153.600 E364.09835
G0 F12000 X109.472 Y154.000
G1 F1200 X98.270 Y154.000 E364.37779
G0 F12000 X98.289 Y154.400
G1 F1200 X109.482 Y154.400 E364.65700
G0 F12000 X109.492 Y154.800
G1 F1200 X98.309 Y154.800 E364.93596
G0 F12000 X98.328 Y155.200
G1 F1200 X109.513 Y155.200 E365.21497
G0 F12000 X109.550 Y155.600
G1 F1200 X98.347 Y155.600 E365.49443
G0 F12000 X98.366 Y156.000
G1 F1200 X109.587 Y156.000 E365.77434
G0 F12000 X109.624 Y156.400
G1 F1200 X98.386 Y156.400 E366.05467
G0 F12000 X98.409 Y156.800
G1 F1200 X109.661 Y156.800 E366.33535
G0 F12000 X109.698 Y157.200
G1 F1200 X98.454 Y157.200 E366.61584
G0 F12000 X98.499 Y157.600
G1 F1200 X109.735 Y157.600 E366.89612
G0 F12000 X109.786 Y158.000
G1 F1200 X98.544 Y158.000 E367.17655
G0 F12000 X98.589 Y158.400
G1 F1200 X109.850 Y158.400 E367.45746
G0 F12000 X109.913 Y158.800
G1 F1200 X98.634 Y158.800 E367.73882
G0 F12000 X98.679 Y159.200
G1 F1200 X109.977 Y159.200 E368.02065
G0 F12000 X110.040 Y159.600
G1 F1200 X98.724 Y159.600 E368.30292
G0 F12000 X98.769 Y160.000
G1 F1200 X110.104 Y160.000 E368.58568
G0 F12000 X110.167 Y160.400
G1 F1200 X98.829 Y160.400 E368.86850
G0 F12000 X98.898 Y160.800
G1 F1200 X110.244 Y160.800 E369.15153
G0 F12000 X110.335 Y161.200
G1 F1200 X98.968 Y161.200 E369.43508
G0 F12000 X99.037 Y161.600
G1 F1200 X110.426 Y161.600 E369.71918
G0 F12000 X110.516 Y162.000
G1 F1200 X99.106 Y162.000 E370.00381
G0 F12000 X99.175 Y162.400
G1 F1200 X110.607 Y162.400 E370.28898
G0 F12000 X110.698 Y162.800
G1 F1200 X99.244 Y162.800 E370.57470
G0 F12000 X99.314 Y163.200
G1 F1200 X110.789 Y163.200 E370.86094
G0 F12000 X110.889 Y163.600
G1 F1200 X99.400 Y163.600 E371.14754
G0 F12000 X99.494 Y164.000
G1 F1200 X111.009 Y164.000 E371.43478
G0 F12000 X111.130 Y164.400
G1 F1200 X99.588 Y164.400 E371.72270
G0 F12000 X99.682 Y164.800
G1 F1200 X111.250 Y164.800 E372.01126
G0 F12000 X111.370 Y165.200
G1 F1200 X99.776 Y165.200 E372.30048
G0 F12000 X99.870 Y165.600
G1 F1200 X111.490 Y165.600 E372.59034
G0 F12000 X111.610 Y166.000
G1 F1200 X99.964 Y166.000 E372.88085
G0 F12000 X100.059 Y166.400
G1 F1200 X111.740 Y166.400 E373.17223
G0 F12000 X111.891 Y166.800
G1 F1200 X100.173 Y166.800 E373.46454
G0 F12000 X100.292 Y167.200
G1 F1200 X112.041 Y167.200 E373.75762
G0 F12000 X112.192 Y167.600
G1 F1200 X100.412 Y167.600 E374.05147
G0 F12000 X100.532 Y168.000
G1 F1200 X112.342 Y168.000 E374.34607
G0 F12000 X112.492 Y168.400
G1 F1200 X100.652 Y168.400 E374.64142
G0 F12000 X100.772 Y168.800
G1 F1200 X112.643 Y168.800 E374.93755
G0 F12000 X112.798 Y169.200
G1 F1200 X100.891 Y169.200 E375.23457
G0 F12000 X101.011 Y169.600
G1 F1200 X112.982 Y169.600 E375.53319
G0 F12000 X113.166 Y170.000
G1 F1200 X101.157 Y170.000 E375.83275
G0 F12000 X101.303 Y170.400
G1 F1200 X113.350 Y170.400 E376.13327
G0 F12000 X113.534 Y170.800
G1 F1200 X101.449 Y170.800 E376.43473
G0 F12000 X101.596 Y171.200
G1 F1200 X113.718 Y171.200 E376.73711
G0 F12000 X113.902 Y171.600
G1 F1200 X101.742 Y171.600 E377.04045
G0 F12000 X101.888 Y172.000
G1 F1200 X114.114 Y172.000 E377.34542
G0 F12000 X114.330 Y172.400
G1 F1200 X102.035 Y172.400 E377.65212
G0 F12000 X102.191 Y172.800
G1 F1200 X114.545 Y172.800 E377.96030
G0 F12000 X114.760 Y173.200
G1 F1200 X102.365 Y173.200 E378.26949
G0 F12000 X102.540 Y173.600
G1 F1200 X114.976 Y173.600 E378.57971
G0 F12000 X115.191 Y174.000
G1 F1200 X102.714 Y174.000 E378.89095
G0 F12000 X102.888 Y174.400
G1 F1200 X115.425 Y174.400 E379.20368
G0 F12000 X115.677 Y174.800
G1 F1200 X103.063 Y174.800 E379.51834
G0 F12000 X103.237 Y175.200
G1 F1200 X115.929 Y175.200 E379.83494
G0 F12000 X116.181 Y175.600
G1 F1200 X103.411 Y175.600 E380.15349
G0 F12000 X103.613 Y176.000
G1 F1200 X116.433 Y176.000 E380.47329
G0 F12000 X116.685 Y176.400
G1 F1200 X103.816 Y176.400 E380.79431
G0 F12000 X104.019 Y176.800
G1 F1200 X116.950 Y176.800 E381.11687
G0 F12000 X117.241 Y177.200
G1 F1200 X104.223 Y177.200 E381.44161
G0 F12000 X104.426 Y177.600
G1 F1200 X117.533 Y177.600 E381.76856
G0 F12000 X117.824 Y178.000
G1 F1200 X104.630 Y178.000 E382.09769
G0 F12000 X104.833 Y178.400
G1 F1200 X118.116 Y178.400 E382.42904
G0 F12000 X118.407 Y178.800
G1 F1200 X105.059 Y178.800 E382.76200
G0 F12000 X105.293 Y179.200
G1 F1200 X118.722 Y179.200 E383.09699
G0 F12000 X119.057 Y179.600
G1 F1200 X105.528 Y179.600 E383.43447
G0 F12000 X105.763 Y180.000
G1 F1200 X119.392 Y180.000 E383.77445
G0 F12000 X119.726 Y180.400
G1 F1200 X105.997 Y180.400 E384.11692
G0 F12000 X106.232 Y180.800
G1 F1200 X120.061 Y180.800 E384.46189
G0 F12000 X120.396 Y181.200
G1 F1200 X106.467 Y181.200 E384.80935
G0 F12000 X106.723 Y181.600
G1 F1200 X120.762 Y181.600 E385.15955
G0 F12000 X121.148 Y182.000
G1 F1200 X106.989 Y182.000 E385.51275
G0 F12000 X107.254 Y182.400
G1 F1200 X121.535 Y182.400 E385.86899
G0 F12000 X121.922 Y182.800
G1 F1200 X107.520 Y182.800 E386.22825
G0 F12000 X107.786 Y183.200
G1 F1200 X122.308 Y183.200 E386.59050
G0 F12000 X122.729 Y183.600
G1 F1200 X108.052 Y183.600 E386.95662
G0 F12000 X108.329 Y184.000
G1 F1200 X123.168 Y184.000 E387.32678
G0 F12000 X123.608 Y184.400
G1 F1200 X108.633 Y184.400 E387.70033
G0 F12000 X108.937 Y184.800
G1 F1200 X124.047 Y184.800 E388.07726
G0 F12000 X124.487 Y185.200
G1 F1200 X109.242 Y185.200 E388.45754
G0 F12000 X109.546 Y185.600
G1 F1200 X124.975 Y185.600 E388.84242
G0 F12000 X125.479 Y186.000
G1 F1200 X109.850 Y186.000 E389.23229
G0 F12000 X110.154 Y186.400
G1 F1200 X125.983 Y186.400 E389.62714
G0 F12000 X126.487 Y186.800
G1 F1200 X110.477 Y186.800 E390.02652
G0 F12000 X110.821 Y187.200
G1 F1200 X126.991 Y187.200 E390.42988
G0 F12000 X127.575 Y187.600
G1 F1200 X111.165 Y187.600 E390.83923
G0 F12000 X111.509 Y188.000
G1 F1200 X128.161 Y188.000 E391.25461
G0 F12000 X128.746 Y188.400
G1 F1200 X111.853 Y188.400 E391.67601
G0 F12000 X112.197 Y188.800
G1 F1200 X129.340 Y188.800 E392.10364
G0 F12000 X130.014 Y189.200
G1 F1200 X112.556 Y189.200 E392.53914
G0 F12000 X112.944 Y189.600
G1 F1200 X130.688 Y189.600 E392.98176
G0 F12000 X131.362 Y190.000
G1 F1200 X113.332 Y190.000 E393.43152
G0 F12000 X113.719 Y190.400
G1 F1200 X132.082 Y190.400 E393.88959
G0 F12000 X132.872 Y190.800
G1 F1200 X114.107 Y190.800 E394.35768
G0 F12000 X114.495 Y191.200
G1 F1200 X133.662 Y191.200 E394.83581
G0 F12000 X134.466 Y191.600
G1 F1200 X114.907 Y191.600 E395.32371
G0 F12000 X115.344 Y192.000
G1 F1200 X135.410 Y192.000 E395.82426
G0 F12000 X136.354 Y192.400
G1 F1200 X115.781 Y192.400 E396.33745
G0 F12000 X116.218 Y192.800
G1 F1200 X137.362 Y192.800 E396.86489
G0 F12000 X138.518 Y193.200
G1 F1200 X116.656 Y193.200 E397.41024
G0 F12000 X117.093 Y193.600
G1 F1200 X139.673 Y193.600 E397.97350
G1 F1800 E396.17350
G0 F12000 X125.621 Y199.600
G1 F1800 E397.97350
G1 F1200 X179.368 Y199.600 E399.31423
G1 F1800 E397.51423
G0 F12000 X186.433 Y194.800
G1 F1800 E399.31423
G1 F1200 X160.465 Y194.800 E399.96200
G1 F1800 E398.16200
G0 F12000 X162.361 Y194.400
G1 F1800 E399.96200
G1 F1200 X186.913 Y194.400 E400.57445
G0 F12000 X187.392 Y194.000
G1 F1200 X163.886 Y194.000 E401.16081
G0 F12000 X165.304 Y193.600
G1 F1200 X187.872 Y193.600 E401.72377
G0 F12000 X188.352 Y193.200
G1 F1200 X166.511 Y193.200 E402.26860
G0 F12000 X167.621 Y192.800
G1 F1200 X188.791 Y192.800 E402.79669
G0 F12000 X189.216 Y192.400
G1 F1200 X168.661 Y192.400 E403.30943
G0 F12000 X169.580 Y192.000
G1 F1200 X189.640 Y192.000 E403.80983
G0 F12000 X190.065 Y191.600
G1 F1200 X170.500 Y191.600 E404.29788
G0 F12000 X171.352 Y191.200
G1 F1200 X190.490 Y191.200 E404.77528
G0 F12000 X190.907 Y190.800
G1 F1200 X172.125 Y190.800 E405.24380
G0 F12000 X172.897 Y190.400
G1 F1200 X191.284 Y190.400 E405.70247
G0 F12000 X191.662 Y190.000
G1 F1200 X173.656 Y190.000 E406.15163
G0 F12000 X174.315 Y189.600
G1 F1200 X192.040 Y189.600 E406.59378
G0 F12000 X192.417 Y189.200
G1 F1200 X174.974 Y189.200 E407.02890
G0 F12000 X175.633 Y188.800
G1 F1200 X192.795 Y188.800 E407.45700
G0 F12000 X193.161 Y188.400
G1 F1200 X176.260 Y188.400 E407.87860
G0 F12000 X176.829 Y188.000
G1 F1200 X193.495 Y188.000 E408.29434
G0 F12000 X193.829 Y187.600
G1 F1200 X177.398 Y187.600 E408.70421
G0 F12000 X177.967 Y187.200
G1 F1200 X194.163 Y187.200 E409.10822
G0 F12000 X194.497 Y186.800
G1 F1200 X178.524 Y186.800 E409.50667
G0 F12000 X179.018 Y186.400
G1 F1200 X194.831 Y186.400 E409.90113
G0 F12000 X195.162 Y186.000
G1 F1200 X179.513 Y186.000 E410.29149
G0 F12000 X180.007 Y185.600
G1 F1200 X195.457 Y185.600 E410.67689
G0 F12000 X195.753 Y185.200
G1 F1200 X180.502 Y185.200 E411.05733
G0 F12000 X180.959 Y184.800
G1 F1200 X196.048 Y184.800 E411.43373
G0 F12000 X196.344 Y184.400
G1 F1200 X181.390 Y184.400 E411.80676
G0 F12000 X181.821 Y184.000
G1 F1200 X196.640 Y184.000 E412.17642
G0 F12000 X196.935 Y183.600
G1 F1200 X182.252 Y183.600 E412.54269
G0 F12000 X182.683 Y183.200
G1 F1200 X197.213 Y183.200 E412.90514
G0 F12000 X197.472 Y182.800
G1 F1200 X183.079 Y182.800 E413.26417
G0 F12000 X183.456 Y182.400
G1 F1200 X197.732 Y182.400 E413.62029
G0 F12000 X197.992 Y182.000
G1 F1200 X183.833 Y182.000 E413.97349
G0 F12000 X184.209 Y181.600
G1 F1200 X198.252 Y181.600 E414.32379
G0 F12000 X198.512 Y181.200
G1 F1200 X184.586 Y181.200 E414.67118
G0 F12000 X184.946 Y180.800
G1 F1200 X198.771 Y180.800 E415.01604
G0 F12000 X199.009 Y180.400
G1 F1200 X185.274 Y180.400 E415.35867
G0 F12000 X185.603 Y180.000
G1 F1200 X199.238 Y180.000 E415.69879
G1 F1800 E413.89879
G0 F12000 X185.950 Y195.200
G1 F1800 E415.69879
G1 F1200 X157.895 Y195.200 E416.39863
G1 F1800 E414.59863
G0 F12000 X147.111 Y195.200
G1 F1800 E416.39863
G1 F1200 X119.053 Y195.200 E417.09854
G0 F12000 X118.563 Y194.800
G1 F1200 X144.571 Y194.800 E417.74731
G1 F1800 E415.94731
G0 F12000 X142.579 Y194.400
G1 F1800 E417.74731
G1 F1200 X118.073 Y194.400 E418.35861
G0 F12000 X117.583 Y194.000
G1 F1200 X141.109 Y194.000 E418.94547
G1 F1800 E417.14547
G0 F12000 X138.193 Y204.800
G1 F1800 E418.94547
G1 F1200 X166.815 Y204.800 E419.65945
G0 F12000 X168.243 Y204.400
G1 F1200 X136.737 Y204.400 E420.44537
G0 F12000 X135.538 Y204.000
G1 F1200 X169.483 Y204.000 E421.29213
G0 F12000 X170.643 Y203.600
G1 F1200 X134.340 Y203.600 E422.19771
G0 F12000 X133.252 Y203.200
G1 F1200 X171.790 Y203.200 E423.15905
G0 F12000 X172.747 Y202.800
G1 F1200 X132.256 Y202.800 E424.16910
G0 F12000 X131.260 Y202.400
G1 F1200 X173.705 Y202.400 E425.22790
G0 F12000 X174.662 Y202.000
G1 F1200 X130.339 Y202.000 E426.33354
G0 F12000 X129.494 Y201.600
G1 F1200 X175.513 Y201.600 E427.48149
G0 F12000 X176.329 Y201.200
G1 F1200 X128.650 Y201.200 E428.67084
G0 F12000 X127.809 Y200.800
G1 F1200 X177.145 Y200.800 E429.90153
G0 F12000 X177.944 Y200.400
G1 F1200 X127.080 Y200.400 E431.17034
G0 F12000 X126.350 Y200.000
G1 F1200 X178.656 Y200.000 E432.47512
G1 F1800 E430.67512
G0 F12000 X165.297 Y205.200
G1 F1800 E432.47512
G1 F1200 X139.679 Y205.200 E433.11416
G1 F1800 E431.31416
G0 F12000 X141.531 Y205.600
G1 F1800 E433.11416
G1 F1200 X163.476 Y205.600 E433.66158
G1 F1800 E431.86158
G0 F12000 X161.350 Y206.000
G1 F1800 E433.66158
G1 F1200 X143.611 Y206.000 E434.10409
G1 F1800 E432.30409
G0 F12000 X146.391 Y206.400
G1 F1800 E434.10409
G1 F1200 X158.507 Y206.400 E434.40632
G1 F1800 E432.60632
G0 F12000 X180.080 Y199.200
G1 F1800 E434.40632
G1 F1200 X124.903 Y199.200 E435.78272
G0 F12000 X124.267 Y198.800
G1 F1200 X180.751 Y198.800 E437.19172
G0 F12000 X181.368 Y198.400
G1 F1200 X123.631 Y198.400 E438.63197
G0 F12000 X122.995 Y198.000
G1 F1200 X181.985 Y198.000 E440.10348
G0 F12000 X182.601 Y197.600
G1 F1200 X122.360 Y197.600 E441.60620
G0 F12000 X121.787 Y197.200
G1 F1200 X183.218 Y197.200 E443.13860
G0 F12000 X183.778 Y196.800
G1 F1200 X121.229 Y196.800 E444.69889
G0 F12000 X120.672 Y196.400
G1 F1200 X184.321 Y196.400 E446.28662
G0 F12000 X184.864 Y196.000
G1 F1200 X120.114 Y196.000 E447.90182
G0 F12000 X119.556 Y195.600
G1 F1200 X185.407 Y195.600 E449.54448
G1 F1800 E447.74448
G0 F12000 X185.931 Y179.600
G1 F1800 E449.54448
G1 F1200 X199.468 Y179.600 E449.88216
G0 F12000 X199.697 Y179.200
G1 F1200 X186.260 Y179.200 E450.21735
G0 F12000 X186.588 Y178.800
G1 F1200 X199.926 Y178.800 E450.55007
G0 F12000 X200.156 Y178.400
G1 F1200 X186.886 Y178.400 E450.88109
G0 F12000 X187.172 Y178.000
G1 F1200 X200.383 Y178.000 E451.21064
G0 F12000 X200.580 Y177.600
G1 F1200 X187.457 Y177.600 E451.53799
G0 F12000 X187.743 Y177.200
G1 F1200 X200.777 Y177.200 E451.86313
G0 F12000 X200.974 Y176.800
G1 F1200 X188.029 Y176.800 E452.18604
G0 F12000 X188.315 Y176.400
G1 F1200 X201.171 Y176.400 E452.50674
G0 F12000 X201.367 Y176.000
G1 F1200 X188.569 Y176.000 E452.82598
G0 F12000 X188.816 Y175.600
G1 F1200 X201.564 Y175.600 E453.14398
G0 F12000 X201.761 Y175.200
G1 F1200 X189.062 Y175.200 E453.46076
G0 F12000 X189.309 Y174.800
G1 F1200 X201.947 Y174.800 E453.77602
G0 F12000 X202.114 Y174.400
G1 F1200 X189.555 Y174.400 E454.08930
G0 F12000 X189.802 Y174.000
G1 F1200 X202.282 Y174.000 E454.40062
G0 F12000 X202.449 Y173.600
G1 F1200 X190.026 Y173.600 E454.71051
G0 F12000 X190.237 Y173.200
G1 F1200 X202.617 Y173.200 E455.01933
G0 F12000 X202.785 Y172.800
G1 F1200 X190.448 Y172.800 E455.32708
G0 F12000 X190.659 Y172.400
G1 F1200 X202.952 Y172.400 E455.63373
G0 F12000 X203.120 Y172.000
G1 F1200 X190.870 Y172.000 E455.93931
G0 F12000 X191.082 Y171.600
G1 F1200 X203.262 Y171.600 E456.24314
G0 F12000 X203.402 Y171.200
G1 F1200 X191.286 Y171.200 E456.54537
G0 F12000 X191.464 Y170.800
G1 F1200 X203.542 Y170.800 E456.84666
G0 F12000 X203.682 Y170.400
G1 F1200 X191.641 Y170.400 E457.14702
G0 F12000 X191.819 Y170.000
G1 F1200 X203.822 Y170.000 E457.44644
G0 F12000 X203.963 Y169.600
G1 F1200 X191.996 Y169.600 E457.74496
G0 F12000 X192.174 Y169.200
G1 F1200 X204.103 Y169.200 E458.04253
G0 F12000 X204.237 Y168.800
G1 F1200 X192.351 Y168.800 E458.33902
G0 F12000 X192.512 Y168.400
G1 F1200 X204.351 Y168.400 E458.63435
G0 F12000 X204.465 Y168.000
G1 F1200 X192.658 Y168.000 E458.92888
G0 F12000 X192.803 Y167.600
G1 F1200 X204.579 Y167.600 E459.22263
G0 F12000 X204.693 Y167.200
G1 F1200 X192.949 Y167.200 E459.51559
G0 F12000 X193.095 Y166.800
G1 F1200 X204.807 Y166.800 E459.80774
G0 F12000 X204.921 Y166.400
G1 F1200 X193.241 Y166.400 E460.09910
G0 F12000 X193.387 Y166.000
G1 F1200 X205.034 Y166.000 E460.38964
G0 F12000 X205.137 Y165.600
G1 F1200 X193.511 Y165.600 E460.67965
G0 F12000 X193.627 Y165.200
G1 F1200 X205.226 Y165.200 E460.96899
G0 F12000 X205.314 Y164.800
G1 F1200 X193.743 Y164.800 E461.25763
G0 F12000 X193.859 Y164.400
G1 F1200 X205.402 Y164.400 E461.54557
G0 F12000 X205.491 Y164.000
G1 F1200 X193.975 Y164.000 E461.83284
G0 F12000 X194.092 Y163.600
G1 F1200 X205.579 Y163.600 E462.11938
G0 F12000 X205.667 Y163.200
G1 F1200 X194.208 Y163.200 E462.40523
G0 F12000 X194.313 Y162.800
G1 F1200 X205.756 Y162.800 E462.69067
G0 F12000 X205.830 Y162.400
G1 F1200 X194.399 Y162.400 E462.97582
G0 F12000 X194.485 Y162.000
G1 F1200 X205.894 Y162.000 E463.26042
G0 F12000 X205.958 Y161.600
G1 F1200 X194.571 Y161.600 E463.54447
G0 F12000 X194.657 Y161.200
G1 F1200 X206.021 Y161.200 E463.82794
G0 F12000 X206.085 Y160.800
G1 F1200 X194.742 Y160.800 E464.11090
G0 F12000 X194.828 Y160.400
G1 F1200 X206.149 Y160.400 E464.39330
G0 F12000 X206.212 Y160.000
G1 F1200 X194.899 Y160.000 E464.67550
G0 F12000 X194.958 Y159.600
G1 F1200 X206.276 Y159.600 E464.95783
G0 F12000 X206.329 Y159.200
G1 F1200 X195.017 Y159.200 E465.24001
G0 F12000 X195.076 Y158.800
G1 F1200 X206.369 Y158.800 E465.52172
G0 F12000 X206.410 Y158.400
G1 F1200 X195.135 Y158.400 E465.80297
G0 F12000 X195.194 Y158.000
G1 F1200 X206.450 Y158.000 E466.08376
G0 F12000 X206.491 Y157.600
G1 F1200 X195.254 Y157.600 E466.36406
G0 F12000 X195.301 Y157.200
G1 F1200 X206.531 Y157.200 E466.64420
G0 F12000 X206.571 Y156.800
G1 F1200 X195.333 Y156.800 E466.92453
G0 F12000 X195.365 Y156.400
G1 F1200 X206.612 Y156.400 E467.20509
G0 F12000 X206.632 Y156.000
G1 F1200 X195.398 Y156.000 E467.48532
G0 F12000 X195.430 Y155.600
G1 F1200 X206.649 Y155.600 E467.76518
G0 F12000 X206.665 Y155.200
G1 F1200 X195.462 Y155.200 E468.04464
G0 F12000 X195.494 Y154.800
G1 F1200 X206.682 Y154.800 E468.32373
G0 F12000 X206.698 Y154.400
G1 F1200 X195.521 Y154.400 E468.60254
G0 F12000 X195.526 Y154.000
G1 F1200 X206.715 Y154.000 E468.88165
G0 F12000 X206.731 Y153.600
G1 F1200 X195.531 Y153.600 E469.16103
G0 F12000 X195.535 Y153.200
G1 F1200 X206.748 Y153.200 E469.44074
G0 F12000 X206.746 Y152.800
G1 F1200 X195.540 Y152.800 E469.72028
G0 F12000 X195.545 Y152.400
