;-- START GCODE --
;Sliced for Type A Machines Series 1
;Sliced at: Mon 20-11-2017 14:38:55
;Basic settings:
;	Layer height: 0.15
;	Walls: 0.8
;	Fill: 5
;	Print Speed: 60
;	Support: 0
;	Retraction Speed: 35
;	Retraction Distance: 0.4
;Print time: 1 hour 6 minutes
;Filament used: 3.024m 9.0g
;Settings based on: Generic PLA
G21        ;metric values
G90        ;absolute positioning
G28     ;move to endstops
G29		;allows for auto-levelling
G1 Z15.0 F12000 ;move the platform down 15mm
G1 X150 Y5 F12000 ;center
M109 S220 ;Heat To temp
G1 X150 Y5 Z0.3 ;move the platform to purge extrusion
G92 E0 ;zero the extruded length
G1 F200 X250 E30 ;extrude 30mm of feed stock
G92 E0 ;zero the extruded length again
G1 X150 Y150  Z25 F12000 ;recenter and begin
G1 F12000

;Layer count: 65
;LAYER:0
M107
G0 F12000 X122.480 Y136.200 Z0.200
;TYPE:SKIRT
G1 F1800 X182.509 Y136.200 E1.99657
G1 X182.553 Y140.816 E2.15011
G1 X182.553 Y141.508 E2.17312
G1 X182.552 Y141.689 E2.17914
G1 X182.553 Y143.016 E2.22328
G1 X182.549 Y143.379 E2.23535
G1 X182.550 Y144.859 E2.28458
G1 X182.549 Y145.025 E2.29010
G1 X182.550 Y146.526 E2.34002
G1 X182.549 Y146.692 E2.34555
G1 X182.550 Y148.193 E2.39547
G1 X182.549 Y148.359 E2.40099
G1 X182.550 Y149.859 E2.45088
G1 X182.549 Y150.025 E2.45640
G1 X182.550 Y151.526 E2.50633
G1 X182.549 Y151.692 E2.51185
G1 X182.550 Y153.192 E2.56174
G1 X182.549 Y153.358 E2.56726
G1 X182.550 Y154.859 E2.61718
G1 X182.549 Y155.025 E2.62270
G1 X182.550 Y156.525 E2.67259
G1 X182.549 Y156.691 E2.67811
G1 X182.550 Y158.192 E2.72804
G1 X182.549 Y158.358 E2.73356
G1 X182.550 Y159.859 E2.78348
G1 X182.549 Y160.025 E2.78900
G1 X182.550 Y161.525 E2.83889
G1 X182.549 Y161.691 E2.84442
G1 X182.553 Y163.328 E2.89886
G1 X182.553 Y164.009 E2.92151
G1 X182.530 Y167.380 E3.03364
G1 X182.553 Y169.815 E3.11463
G1 X182.553 Y170.507 E3.13764
G1 X182.552 Y170.688 E3.14366
G1 X182.553 Y172.015 E3.18780
G1 X182.549 Y172.378 E3.19987
G1 X182.550 Y173.859 E3.24913
G1 X182.549 Y174.025 E3.25465
G1 X182.550 Y175.525 E3.30454
G1 X182.549 Y175.691 E3.31007
G1 X182.550 Y177.192 E3.35999
G1 X182.549 Y177.358 E3.36551
G1 X182.550 Y178.859 E3.41543
G1 X182.549 Y179.025 E3.42095
G1 X182.550 Y180.525 E3.47084
G1 X182.549 Y180.691 E3.47637
G1 X182.550 Y182.192 E3.52629
G1 X182.549 Y182.358 E3.53181
G1 X182.550 Y183.859 E3.58173
G1 X182.549 Y184.025 E3.58726
G1 X182.550 Y185.525 E3.63715
G1 X182.549 Y185.691 E3.64267
G1 X182.550 Y187.192 E3.69259
G1 X182.549 Y187.358 E3.69811
G1 X182.550 Y188.859 E3.74804
G1 X182.549 Y189.025 E3.75356
G1 X182.550 Y190.525 E3.80345
G1 X182.549 Y190.691 E3.80897
G1 X182.553 Y192.328 E3.86342
G1 X182.553 Y193.009 E3.88607
G1 X182.520 Y197.800 E4.04542
G1 X122.491 Y197.800 E6.04199
G1 X122.447 Y193.184 E6.19553
G1 X122.447 Y192.492 E6.21854
G1 X122.448 Y192.311 E6.22456
G1 X122.447 Y190.984 E6.26870
G1 X122.451 Y190.621 E6.28077
G1 X122.450 Y189.141 E6.33000
G1 X122.451 Y188.975 E6.33552
G1 X122.450 Y187.474 E6.38544
G1 X122.451 Y187.308 E6.39096
G1 X122.450 Y185.807 E6.44089
G1 X122.451 Y185.641 E6.44641
G1 X122.450 Y184.141 E6.49630
G1 X122.451 Y183.975 E6.50182
G1 X122.450 Y182.474 E6.55174
G1 X122.451 Y182.308 E6.55727
G1 X122.450 Y180.807 E6.60719
G1 X122.451 Y180.641 E6.61271
G1 X122.450 Y179.141 E6.66260
G1 X122.451 Y178.975 E6.66812
G1 X122.450 Y177.474 E6.71805
G1 X122.451 Y177.308 E6.72357
G1 X122.450 Y175.807 E6.77349
G1 X122.451 Y175.641 E6.77901
G1 X122.450 Y174.141 E6.82890
G1 X122.451 Y173.975 E6.83442
G1 X122.450 Y172.474 E6.88435
G1 X122.451 Y172.308 E6.88987
G1 X122.447 Y170.671 E6.94431
G1 X122.447 Y169.990 E6.96696
G1 X122.470 Y166.620 E7.07905
G1 X122.447 Y164.184 E7.16008
G1 X122.447 Y163.492 E7.18310
G1 X122.448 Y163.311 E7.18912
G1 X122.447 Y161.984 E7.23325
G1 X122.451 Y161.621 E7.24533
G1 X122.450 Y160.141 E7.29455
G1 X122.451 Y159.975 E7.30007
G1 X122.450 Y158.474 E7.35000
G1 X122.451 Y158.308 E7.35552
G1 X122.450 Y156.807 E7.40544
G1 X122.451 Y156.641 E7.41096
G1 X122.450 Y155.141 E7.46085
G1 X122.451 Y154.975 E7.46637
G1 X122.450 Y153.474 E7.51630
G1 X122.451 Y153.308 E7.52182
G1 X122.450 Y151.808 E7.57171
G1 X122.451 Y151.642 E7.57723
G1 X122.450 Y150.141 E7.62715
G1 X122.451 Y149.975 E7.63267
G1 X122.450 Y148.475 E7.68256
G1 X122.451 Y148.309 E7.68809
G1 X122.450 Y146.808 E7.73801
G1 X122.451 Y146.642 E7.74353
G1 X122.450 Y145.141 E7.79345
G1 X122.451 Y144.975 E7.79898
G1 X122.450 Y143.475 E7.84887
G1 X122.451 Y143.309 E7.85439
G1 X122.447 Y141.672 E7.90883
G1 X122.447 Y140.991 E7.93148
G1 X122.480 Y136.200 E8.09084
G0 F12000 X122.878 Y136.600
G1 F1800 X182.113 Y136.600 E10.06100
G1 X182.153 Y140.818 E10.20130
G1 X182.153 Y141.507 E10.22421
G1 X182.152 Y141.687 E10.23020
G1 X182.153 Y143.014 E10.27434
G1 X182.149 Y143.374 E10.28631
G1 X182.150 Y144.858 E10.33567
G1 X182.149 Y145.022 E10.34113
G1 X182.150 Y146.525 E10.39111
G1 X182.149 Y146.689 E10.39657
G1 X182.150 Y148.192 E10.44656
G1 X182.149 Y148.356 E10.45201
G1 X182.150 Y149.858 E10.50197
G1 X182.149 Y150.022 E10.50743
G1 X182.150 Y151.525 E10.55742
G1 X182.149 Y151.689 E10.56287
G1 X182.150 Y153.191 E10.61283
G1 X182.149 Y153.355 E10.61828
G1 X182.150 Y154.858 E10.66827
G1 X182.149 Y155.022 E10.67373
G1 X182.150 Y156.524 E10.72368
G1 X182.149 Y156.688 E10.72914
G1 X182.150 Y158.191 E10.77913
G1 X182.149 Y158.355 E10.78458
G1 X182.150 Y159.858 E10.83457
G1 X182.149 Y160.022 E10.84003
G1 X182.150 Y161.524 E10.88998
G1 X182.149 Y161.688 E10.89544
G1 X182.153 Y163.329 E10.95002
G1 X182.153 Y164.008 E10.97260
G1 X182.129 Y167.339 E11.08340
G1 X182.153 Y169.817 E11.16582
G1 X182.153 Y170.506 E11.18873
G1 X182.152 Y170.686 E11.19472
G1 X182.153 Y172.013 E11.23886
G1 X182.149 Y172.373 E11.25083
G1 X182.150 Y173.858 E11.30022
G1 X182.149 Y174.022 E11.30568
G1 X182.150 Y175.524 E11.35563
G1 X182.149 Y175.688 E11.36109
G1 X182.150 Y177.191 E11.41108
G1 X182.149 Y177.355 E11.41653
G1 X182.150 Y178.858 E11.46652
G1 X182.149 Y179.022 E11.47198
G1 X182.150 Y180.524 E11.52194
G1 X182.149 Y180.688 E11.52739
G1 X182.150 Y182.191 E11.57738
G1 X182.149 Y182.355 E11.58284
G1 X182.150 Y183.858 E11.63283
G1 X182.149 Y184.022 E11.63828
G1 X182.150 Y185.524 E11.68824
G1 X182.149 Y185.688 E11.69369
G1 X182.150 Y187.191 E11.74368
G1 X182.149 Y187.355 E11.74914
G1 X182.150 Y188.858 E11.79913
G1 X182.149 Y189.022 E11.80458
G1 X182.150 Y190.524 E11.85454
G1 X182.149 Y190.688 E11.85999
G1 X182.153 Y192.329 E11.91457
G1 X182.153 Y193.008 E11.93716
G1 X182.122 Y197.400 E12.08324
G1 X122.887 Y197.400 E14.05340
G1 X122.847 Y193.182 E14.19370
G1 X122.847 Y192.493 E14.21662
G1 X122.848 Y192.313 E14.22260
G1 X122.847 Y190.986 E14.26674
G1 X122.851 Y190.626 E14.27871
G1 X122.850 Y189.142 E14.32807
G1 X122.851 Y188.978 E14.33353
G1 X122.850 Y187.475 E14.38352
G1 X122.851 Y187.311 E14.38897
G1 X122.850 Y185.808 E14.43896
G1 X122.851 Y185.644 E14.44442
G1 X122.850 Y184.142 E14.49437
G1 X122.851 Y183.978 E14.49983
G1 X122.850 Y182.475 E14.54982
G1 X122.851 Y182.311 E14.55527
G1 X122.850 Y180.808 E14.60526
G1 X122.851 Y180.644 E14.61072
G1 X122.850 Y179.142 E14.66067
G1 X122.851 Y178.978 E14.66613
G1 X122.850 Y177.475 E14.71612
G1 X122.851 Y177.311 E14.72157
G1 X122.850 Y175.808 E14.77156
G1 X122.851 Y175.644 E14.77702
G1 X122.850 Y174.142 E14.82697
G1 X122.851 Y173.978 E14.83243
G1 X122.850 Y172.475 E14.88242
G1 X122.851 Y172.311 E14.88787
G1 X122.847 Y170.670 E14.94245
G1 X122.847 Y169.991 E14.96504
G1 X122.871 Y166.661 E15.07580
G1 X122.847 Y164.182 E15.15825
G1 X122.847 Y163.493 E15.18117
G1 X122.848 Y163.313 E15.18716
G1 X122.847 Y161.986 E15.23129
G1 X122.851 Y161.626 E15.24327
G1 X122.850 Y160.142 E15.29262
G1 X122.851 Y159.978 E15.29808
G1 X122.850 Y158.475 E15.34807
G1 X122.851 Y158.311 E15.35352
G1 X122.850 Y156.808 E15.40351
G1 X122.851 Y156.644 E15.40897
G1 X122.850 Y155.142 E15.45893
G1 X122.851 Y154.978 E15.46438
G1 X122.850 Y153.475 E15.51437
G1 X122.851 Y153.311 E15.51983
G1 X122.850 Y151.809 E15.56978
G1 X122.851 Y151.645 E15.57524
G1 X122.850 Y150.142 E15.62523
G1 X122.851 Y149.978 E15.63068
G1 X122.850 Y148.476 E15.68064
G1 X122.851 Y148.312 E15.68609
G1 X122.850 Y146.809 E15.73608
G1 X122.851 Y146.645 E15.74154
G1 X122.850 Y145.142 E15.79153
G1 X122.851 Y144.978 E15.79698
G1 X122.850 Y143.476 E15.84694
G1 X122.851 Y143.312 E15.85239
G1 X122.847 Y141.671 E15.90697
G1 X122.847 Y140.992 E15.92956
G1 X122.878 Y136.600 E16.07564
G0 F12000 X123.275 Y137.000
G1 F1800 X181.716 Y137.000 E18.01940
G1 X181.753 Y140.820 E18.14645
G1 X181.753 Y141.506 E18.16927
G1 X181.752 Y141.685 E18.17523
G1 X181.753 Y143.012 E18.21936
G1 X181.749 Y143.369 E18.23124
G1 X181.750 Y144.857 E18.28073
G1 X181.749 Y145.020 E18.28615
G1 X181.750 Y146.524 E18.33617
G1 X181.749 Y146.687 E18.34159
G1 X181.750 Y148.191 E18.39162
G1 X181.749 Y148.354 E18.39704
G1 X181.750 Y149.857 E18.44703
G1 X181.749 Y150.020 E18.45245
G1 X181.750 Y151.524 E18.50247
G1 X181.749 Y151.687 E18.50789
G1 X181.750 Y153.190 E18.55788
G1 X181.749 Y153.353 E18.56331
G1 X181.750 Y154.857 E18.61333
G1 X181.749 Y155.020 E18.61875
G1 X181.750 Y156.523 E18.66874
G1 X181.749 Y156.686 E18.67416
G1 X181.750 Y158.190 E18.72419
G1 X181.749 Y158.353 E18.72961
G1 X181.750 Y159.857 E18.77963
G1 X181.749 Y160.020 E18.78505
G1 X181.750 Y161.523 E18.83504
G1 X181.749 Y161.686 E18.84046
G1 X181.753 Y163.329 E18.89511
G1 X181.753 Y164.006 E18.91763
G1 X181.729 Y167.379 E19.02982
G1 X181.753 Y169.819 E19.11097
G1 X181.753 Y170.505 E19.13379
G1 X181.752 Y170.684 E19.13974
G1 X181.753 Y172.011 E19.18388
G1 X181.749 Y172.368 E19.19576
G1 X181.750 Y173.857 E19.24528
G1 X181.749 Y174.020 E19.25070
G1 X181.750 Y175.523 E19.30069
G1 X181.749 Y175.686 E19.30611
G1 X181.750 Y177.190 E19.35614
G1 X181.749 Y177.353 E19.36156
G1 X181.750 Y178.857 E19.41158
G1 X181.749 Y179.020 E19.41700
G1 X181.750 Y180.523 E19.46699
G1 X181.749 Y180.686 E19.47241
G1 X181.750 Y182.190 E19.52244
G1 X181.749 Y182.353 E19.52786
G1 X181.750 Y183.857 E19.57788
G1 X181.749 Y184.020 E19.58330
G1 X181.750 Y185.523 E19.63329
G1 X181.749 Y185.686 E19.63871
G1 X181.750 Y187.190 E19.68874
G1 X181.749 Y187.353 E19.69416
G1 X181.750 Y188.857 E19.74418
G1 X181.749 Y189.020 E19.74960
G1 X181.750 Y190.523 E19.79959
G1 X181.749 Y190.686 E19.80502
G1 X181.753 Y192.329 E19.85966
G1 X181.753 Y193.006 E19.88218
G1 X181.725 Y197.000 E20.01502
G1 X123.284 Y197.000 E21.95878
G1 X123.247 Y193.180 E22.08584
G1 X123.247 Y192.494 E22.10866
G1 X123.248 Y192.315 E22.11461
G1 X123.247 Y190.988 E22.15875
G1 X123.251 Y190.631 E22.17062
G1 X123.250 Y189.143 E22.22011
G1 X123.251 Y188.980 E22.22553
G1 X123.250 Y187.476 E22.27556
G1 X123.251 Y187.313 E22.28098
G1 X123.250 Y185.809 E22.33100
G1 X123.251 Y185.646 E22.33642
G1 X123.250 Y184.143 E22.38641
G1 X123.251 Y183.980 E22.39183
G1 X123.250 Y182.476 E22.44186
G1 X123.251 Y182.313 E22.44728
G1 X123.250 Y180.809 E22.49730
G1 X123.251 Y180.646 E22.50272
G1 X123.250 Y179.143 E22.55271
G1 X123.251 Y178.980 E22.55813
G1 X123.250 Y177.476 E22.60816
G1 X123.251 Y177.313 E22.61358
G1 X123.250 Y175.809 E22.66360
G1 X123.251 Y175.646 E22.66902
G1 X123.250 Y174.143 E22.71901
G1 X123.251 Y173.980 E22.72444
G1 X123.250 Y172.476 E22.77446
G1 X123.251 Y172.313 E22.77988
G1 X123.247 Y170.670 E22.83453
G1 X123.247 Y169.993 E22.85704
G1 X123.271 Y166.621 E22.96920
G1 X123.247 Y164.180 E23.05039
G1 X123.247 Y163.494 E23.07321
G1 X123.248 Y163.315 E23.07916
G1 X123.247 Y161.988 E23.12330
G1 X123.251 Y161.631 E23.13517
G1 X123.250 Y160.143 E23.18466
G1 X123.251 Y159.980 E23.19009
G1 X123.250 Y158.476 E23.24011
G1 X123.251 Y158.313 E23.24553
G1 X123.250 Y156.809 E23.29555
G1 X123.251 Y156.646 E23.30098
G1 X123.250 Y155.143 E23.35097
G1 X123.251 Y154.980 E23.35639
G1 X123.250 Y153.476 E23.40641
G1 X123.251 Y153.313 E23.41183
G1 X123.250 Y151.810 E23.46182
G1 X123.251 Y151.647 E23.46724
G1 X123.250 Y150.143 E23.51727
G1 X123.251 Y149.980 E23.52269
G1 X123.250 Y148.477 E23.57268
G1 X123.251 Y148.314 E23.57810
G1 X123.250 Y146.810 E23.62812
G1 X123.251 Y146.647 E23.63354
G1 X123.250 Y145.143 E23.68357
G1 X123.251 Y144.980 E23.68899
G1 X123.250 Y143.477 E23.73898
G1 X123.251 Y143.314 E23.74440
G1 X123.247 Y141.671 E23.79905
G1 X123.247 Y140.994 E23.82156
G1 X123.275 Y137.000 E23.95441
G0 F12000 X123.672 Y137.400
G1 F1800 X181.320 Y137.400 E25.87179
G1 X181.353 Y140.822 E25.98561
G1 X181.353 Y141.505 E26.00833
G1 X181.352 Y141.682 E26.01421
G1 X181.353 Y143.009 E26.05835
G1 X181.349 Y143.365 E26.07019
G1 X181.350 Y144.856 E26.11978
G1 X181.349 Y145.017 E26.12514
G1 X181.350 Y146.523 E26.17523
G1 X181.349 Y146.684 E26.18058
G1 X181.350 Y148.190 E26.23067
G1 X181.349 Y148.351 E26.23603
G1 X181.350 Y149.856 E26.28608
G1 X181.349 Y150.017 E26.29144
G1 X181.350 Y151.523 E26.34153
G1 X181.349 Y151.684 E26.34688
G1 X181.350 Y153.189 E26.39694
G1 X181.349 Y153.350 E26.40229
G1 X181.350 Y154.856 E26.45238
G1 X181.349 Y155.017 E26.45774
G1 X181.350 Y156.522 E26.50780
G1 X181.349 Y156.683 E26.51315
G1 X181.350 Y158.189 E26.56324
G1 X181.349 Y158.350 E26.56860
G1 X181.350 Y159.856 E26.61869
G1 X181.349 Y160.017 E26.62404
G1 X181.350 Y161.522 E26.67410
G1 X181.349 Y161.683 E26.67945
G1 X181.353 Y163.330 E26.73423
G1 X181.353 Y164.005 E26.75668
G1 X181.329 Y167.385 E26.86910
G1 X181.353 Y169.821 E26.95013
G1 X181.353 Y170.504 E26.97285
G1 X181.352 Y170.681 E26.97873
G1 X181.353 Y172.008 E27.02287
G1 X181.349 Y172.364 E27.03471
G1 X181.350 Y173.856 E27.08434
G1 X181.349 Y174.017 E27.08969
G1 X181.350 Y175.522 E27.13975
G1 X181.349 Y175.683 E27.14510
G1 X181.350 Y177.189 E27.19519
G1 X181.349 Y177.350 E27.20055
G1 X181.350 Y178.856 E27.25064
G1 X181.349 Y179.017 E27.25599
G1 X181.350 Y180.522 E27.30605
G1 X181.349 Y180.683 E27.31140
G1 X181.350 Y182.189 E27.36149
G1 X181.349 Y182.350 E27.36685
G1 X181.350 Y183.856 E27.41694
G1 X181.349 Y184.017 E27.42229
G1 X181.350 Y185.522 E27.47235
G1 X181.349 Y185.683 E27.47770
G1 X181.350 Y187.189 E27.52779
G1 X181.349 Y187.350 E27.53315
G1 X181.350 Y188.856 E27.58324
G1 X181.349 Y189.017 E27.58859
G1 X181.350 Y190.522 E27.63865
G1 X181.349 Y190.683 E27.64400
G1 X181.353 Y192.330 E27.69878
G1 X181.353 Y193.005 E27.72123
G1 X181.328 Y196.600 E27.84081
G1 X123.680 Y196.600 E29.75819
G1 X123.647 Y193.178 E29.87201
G1 X123.647 Y192.495 E29.89473
G1 X123.648 Y192.318 E29.90061
G1 X123.647 Y190.991 E29.94475
G1 X123.651 Y190.635 E29.95659
G1 X123.650 Y189.144 E30.00618
G1 X123.651 Y188.983 E30.01154
G1 X123.650 Y187.477 E30.06163
G1 X123.651 Y187.316 E30.06698
G1 X123.650 Y185.810 E30.11707
G1 X123.651 Y185.649 E30.12243
G1 X123.650 Y184.144 E30.17248
G1 X123.651 Y183.983 E30.17784
G1 X123.650 Y182.477 E30.22793
G1 X123.651 Y182.316 E30.23328
G1 X123.650 Y180.810 E30.28337
G1 X123.651 Y180.649 E30.28873
G1 X123.650 Y179.144 E30.33878
G1 X123.651 Y178.983 E30.34414
G1 X123.650 Y177.477 E30.39423
G1 X123.651 Y177.316 E30.39958
G1 X123.650 Y175.810 E30.44967
G1 X123.651 Y175.649 E30.45503
G1 X123.650 Y174.144 E30.50508
G1 X123.651 Y173.983 E30.51044
G1 X123.650 Y172.477 E30.56053
G1 X123.651 Y172.316 E30.56588
G1 X123.647 Y170.669 E30.62066
G1 X123.647 Y169.994 E30.64311
G1 X123.671 Y166.615 E30.75550
G1 X123.647 Y164.178 E30.83656
G1 X123.647 Y163.495 E30.85928
G1 X123.648 Y163.318 E30.86517
G1 X123.647 Y161.991 E30.90930
G1 X123.651 Y161.635 E30.92114
G1 X123.650 Y160.144 E30.97073
G1 X123.651 Y159.983 E30.97609
G1 X123.650 Y158.477 E31.02618
G1 X123.651 Y158.316 E31.03153
G1 X123.650 Y156.810 E31.08162
G1 X123.651 Y156.649 E31.08698
G1 X123.650 Y155.144 E31.13704
G1 X123.651 Y154.983 E31.14239
G1 X123.650 Y153.477 E31.19248
G1 X123.651 Y153.316 E31.19784
G1 X123.650 Y151.811 E31.24789
G1 X123.651 Y151.650 E31.25325
G1 X123.650 Y150.144 E31.30334
G1 X123.651 Y149.983 E31.30869
G1 X123.650 Y148.478 E31.35875
G1 X123.651 Y148.317 E31.36410
G1 X123.650 Y146.811 E31.41419
G1 X123.651 Y146.650 E31.41955
G1 X123.650 Y145.144 E31.46964
G1 X123.651 Y144.983 E31.47499
G1 X123.650 Y143.478 E31.52505
G1 X123.651 Y143.317 E31.53040
G1 X123.647 Y141.670 E31.58518
G1 X123.647 Y140.995 E31.60763
G1 X123.672 Y137.400 E31.72721
G0 F12000 X124.069 Y137.800
G1 F1800 X180.924 Y137.800 E33.61821
G1 X180.953 Y140.823 E33.71876
G1 X180.953 Y141.503 E33.74138
G1 X180.952 Y141.680 E33.74727
G1 X180.953 Y143.007 E33.79140
G1 X180.949 Y143.360 E33.80314
G1 X180.950 Y144.855 E33.85287
G1 X180.949 Y145.014 E33.85816
G1 X180.950 Y146.522 E33.90831
G1 X180.949 Y146.681 E33.91360
G1 X180.950 Y148.189 E33.96376
G1 X180.949 Y148.348 E33.96905
G1 X180.950 Y149.855 E34.01917
G1 X180.949 Y150.014 E34.02446
G1 X180.950 Y151.522 E34.07461
G1 X180.949 Y151.681 E34.07990
G1 X180.950 Y153.188 E34.13003
G1 X180.949 Y153.347 E34.13531
G1 X180.950 Y154.855 E34.18547
G1 X180.949 Y155.014 E34.19076
G1 X180.950 Y156.521 E34.24088
G1 X180.949 Y156.680 E34.24617
G1 X180.950 Y158.188 E34.29633
G1 X180.949 Y158.347 E34.30162
G1 X180.950 Y159.855 E34.35177
G1 X180.949 Y160.014 E34.35706
G1 X180.950 Y161.521 E34.40718
G1 X180.949 Y161.680 E34.41247
G1 X180.953 Y163.330 E34.46735
G1 X180.953 Y164.004 E34.48977
G1 X180.931 Y167.200 E34.59607
G1 X180.928 Y167.200 E34.59617
G1 X180.953 Y169.822 E34.68338
G1 X180.953 Y170.502 E34.70600
G1 X180.952 Y170.679 E34.71189
G1 X180.953 Y172.006 E34.75602
G1 X180.949 Y172.359 E34.76776
G1 X180.950 Y173.855 E34.81752
G1 X180.949 Y174.014 E34.82281
G1 X180.950 Y175.521 E34.87293
G1 X180.949 Y175.680 E34.87822
G1 X180.950 Y177.188 E34.92838
G1 X180.949 Y177.347 E34.93367
G1 X180.950 Y178.855 E34.98382
G1 X180.949 Y179.014 E34.98911
G1 X180.950 Y180.521 E35.03923
G1 X180.949 Y180.680 E35.04452
G1 X180.950 Y182.188 E35.09468
G1 X180.949 Y182.347 E35.09997
G1 X180.950 Y183.855 E35.15012
G1 X180.949 Y184.014 E35.15541
G1 X180.950 Y185.521 E35.20553
G1 X180.949 Y185.680 E35.21082
G1 X180.950 Y187.188 E35.26098
G1 X180.949 Y187.347 E35.26627
G1 X180.950 Y188.855 E35.31642
G1 X180.949 Y189.014 E35.32171
G1 X180.950 Y190.521 E35.37184
G1 X180.949 Y190.680 E35.37712
G1 X180.953 Y192.330 E35.43200
G1 X180.953 Y193.004 E35.45442
G1 X180.931 Y196.200 E35.56072
G1 X124.076 Y196.200 E37.45173
G1 X124.047 Y193.177 E37.55228
G1 X124.047 Y192.497 E37.57489
G1 X124.048 Y192.320 E37.58078
G1 X124.047 Y190.993 E37.62492
G1 X124.051 Y190.640 E37.63666
G1 X124.050 Y189.145 E37.68638
G1 X124.051 Y188.986 E37.69167
G1 X124.050 Y187.478 E37.74183
G1 X124.051 Y187.319 E37.74712
G1 X124.050 Y185.811 E37.79727
G1 X124.051 Y185.652 E37.80256
G1 X124.050 Y184.145 E37.85268
G1 X124.051 Y183.986 E37.85797
G1 X124.050 Y182.478 E37.90813
G1 X124.051 Y182.319 E37.91342
G1 X124.050 Y180.811 E37.96357
G1 X124.051 Y180.652 E37.96886
G1 X124.050 Y179.145 E38.01899
G1 X124.051 Y178.986 E38.02427
G1 X124.050 Y177.478 E38.07443
G1 X124.051 Y177.319 E38.07972
G1 X124.050 Y175.811 E38.12987
G1 X124.051 Y175.652 E38.13516
G1 X124.050 Y174.145 E38.18529
G1 X124.051 Y173.986 E38.19057
G1 X124.050 Y172.478 E38.24073
G1 X124.051 Y172.319 E38.24602
G1 X124.047 Y170.669 E38.30090
G1 X124.047 Y169.995 E38.32332
G1 X124.069 Y166.800 E38.42958
G1 X124.072 Y166.800 E38.42968
G1 X124.047 Y164.177 E38.51693
G1 X124.047 Y163.497 E38.53955
G1 X124.048 Y163.320 E38.54543
G1 X124.047 Y161.993 E38.58957
G1 X124.051 Y161.640 E38.60131
G1 X124.050 Y160.145 E38.65104
G1 X124.051 Y159.986 E38.65632
G1 X124.050 Y158.478 E38.70648
G1 X124.051 Y158.319 E38.71177
G1 X124.050 Y156.811 E38.76193
G1 X124.051 Y156.652 E38.76721
G1 X124.050 Y155.145 E38.81734
G1 X124.051 Y154.986 E38.82263
G1 X124.050 Y153.478 E38.87278
G1 X124.051 Y153.319 E38.87807
G1 X124.050 Y151.812 E38.92819
G1 X124.051 Y151.653 E38.93348
G1 X124.050 Y150.145 E38.98364
G1 X124.051 Y149.986 E38.98893
G1 X124.050 Y148.479 E39.03905
G1 X124.051 Y148.320 E39.04434
G1 X124.050 Y146.812 E39.09449
G1 X124.051 Y146.653 E39.09978
G1 X124.050 Y145.145 E39.14994
G1 X124.051 Y144.986 E39.15523
G1 X124.050 Y143.479 E39.20535
G1 X124.051 Y143.320 E39.21064
G1 X124.047 Y141.670 E39.26552
G1 X124.047 Y140.996 E39.28794
G1 X124.069 Y137.800 E39.39424
G0 F12000 X124.467 Y138.200
G1 F1800 X180.528 Y138.200 E41.25883
G1 X180.553 Y140.825 E41.34615
G1 X180.553 Y141.502 E41.36866
G1 X180.552 Y141.678 E41.37452
G1 X180.553 Y143.005 E41.41865
G1 X180.549 Y143.355 E41.43029
G1 X180.550 Y144.853 E41.48012
G1 X180.549 Y145.012 E41.48541
G1 X180.550 Y146.520 E41.53556
G1 X180.549 Y146.679 E41.54085
G1 X180.550 Y148.187 E41.59101
G1 X180.549 Y148.346 E41.59630
G1 X180.550 Y149.853 E41.64642
G1 X180.549 Y150.012 E41.65171
G1 X180.550 Y151.520 E41.70186
G1 X180.549 Y151.679 E41.70715
G1 X180.550 Y153.186 E41.75728
G1 X180.549 Y153.345 E41.76256
G1 X180.550 Y154.853 E41.81272
G1 X180.549 Y155.012 E41.81801
G1 X180.550 Y156.519 E41.86813
G1 X180.549 Y156.678 E41.87342
G1 X180.550 Y158.186 E41.92358
G1 X180.549 Y158.345 E41.92887
G1 X180.550 Y159.853 E41.97902
G1 X180.549 Y160.012 E41.98431
G1 X180.550 Y161.519 E42.03443
G1 X180.549 Y161.678 E42.03972
G1 X180.553 Y163.331 E42.09470
G1 X180.553 Y164.002 E42.11702
G1 X180.533 Y166.800 E42.21008
G1 X124.472 Y166.800 E44.07468
G1 X124.447 Y164.175 E44.16199
G1 X124.447 Y163.498 E44.18451
G1 X124.448 Y163.322 E44.19036
G1 X124.447 Y161.995 E44.23450
G1 X124.451 Y161.645 E44.24614
G1 X124.450 Y160.147 E44.29596
G1 X124.451 Y159.988 E44.30125
G1 X124.450 Y158.480 E44.35141
G1 X124.451 Y158.321 E44.35670
G1 X124.450 Y156.813 E44.40685
G1 X124.451 Y156.654 E44.41214
G1 X124.450 Y155.147 E44.46226
G1 X124.451 Y154.988 E44.46755
G1 X124.450 Y153.480 E44.51771
G1 X124.451 Y153.321 E44.52300
G1 X124.450 Y151.814 E44.57312
G1 X124.451 Y151.655 E44.57841
G1 X124.450 Y150.147 E44.62857
G1 X124.451 Y149.988 E44.63385
G1 X124.450 Y148.481 E44.68398
G1 X124.451 Y148.322 E44.68927
G1 X124.450 Y146.814 E44.73942
G1 X124.451 Y146.655 E44.74471
G1 X124.450 Y145.147 E44.79487
G1 X124.451 Y144.988 E44.80015
G1 X124.450 Y143.481 E44.85028
G1 X124.451 Y143.322 E44.85557
G1 X124.447 Y141.669 E44.91055
G1 X124.447 Y140.998 E44.93286
G1 X124.467 Y138.200 E45.02593
G0 F12000 X124.847 Y140.999
G1 F1800 X124.864 Y138.600 E45.10572
G1 X180.132 Y138.600 E46.94394
G1 X180.153 Y140.827 E47.01801
G1 X180.153 Y141.501 E47.04043
G1 X180.152 Y141.675 E47.04622
G1 X180.153 Y143.003 E47.09039
G1 X180.149 Y143.351 E47.10196
G1 X180.150 Y144.852 E47.15189
G1 X180.149 Y145.009 E47.15711
G1 X180.150 Y146.519 E47.20733
G1 X180.149 Y146.676 E47.21255
G1 X180.150 Y148.186 E47.26278
G1 X180.149 Y148.343 E47.26800
G1 X180.150 Y149.852 E47.31819
G1 X180.149 Y150.009 E47.32341
G1 X180.150 Y151.519 E47.37363
G1 X180.149 Y151.676 E47.37886
G1 X180.150 Y153.185 E47.42905
G1 X180.149 Y153.342 E47.43427
G1 X180.150 Y154.852 E47.48449
G1 X180.149 Y155.009 E47.48971
G1 X180.150 Y156.518 E47.53990
G1 X180.149 Y156.675 E47.54512
G1 X180.150 Y158.185 E47.59535
G1 X180.149 Y158.342 E47.60057
G1 X180.150 Y159.852 E47.65079
G1 X180.149 Y160.009 E47.65601
G1 X180.150 Y161.518 E47.70620
G1 X180.149 Y161.675 E47.71142
G1 X180.153 Y163.331 E47.76650
G1 X180.153 Y164.001 E47.78879
G1 X180.136 Y166.400 E47.86858
G1 X124.868 Y166.400 E49.70680
G1 X124.847 Y164.173 E49.78088
G1 X124.847 Y163.499 E49.80329
G1 X124.848 Y163.325 E49.80908
G1 X124.847 Y161.997 E49.85325
G1 X124.851 Y161.649 E49.86482
G1 X124.850 Y160.148 E49.91475
G1 X124.851 Y159.991 E49.91997
G1 X124.850 Y158.481 E49.97019
G1 X124.851 Y158.324 E49.97542
G1 X124.850 Y156.814 E50.02564
G1 X124.851 Y156.657 E50.03086
G1 X124.850 Y155.148 E50.08105
G1 X124.851 Y154.991 E50.08627
G1 X124.850 Y153.481 E50.13649
G1 X124.851 Y153.324 E50.14172
G1 X124.850 Y151.815 E50.19191
G1 X124.851 Y151.658 E50.19713
G1 X124.850 Y150.148 E50.24735
G1 X124.851 Y149.991 E50.25257
G1 X124.850 Y148.482 E50.30276
G1 X124.851 Y148.325 E50.30798
G1 X124.850 Y146.815 E50.35821
G1 X124.851 Y146.658 E50.36343
G1 X124.850 Y145.148 E50.41365
G1 X124.851 Y144.991 E50.41887
G1 X124.850 Y143.482 E50.46906
G1 X124.851 Y143.325 E50.47428
G1 X124.847 Y141.669 E50.52936
G1 X124.847 Y140.999 E50.55165
G0 F12000 X125.247 Y141.001
G1 F1800 X125.261 Y139.000 E50.61820
G1 X179.735 Y139.000 E52.43002
G1 X179.753 Y140.829 E52.49085
G1 X179.753 Y141.500 E52.51317
G1 X179.752 Y141.673 E52.51892
G1 X179.753 Y143.001 E52.56309
G1 X179.749 Y143.346 E52.57457
G1 X179.750 Y144.851 E52.62462
G1 X179.749 Y145.007 E52.62981
G1 X179.750 Y146.518 E52.68007
G1 X179.749 Y146.674 E52.68526
G1 X179.750 Y148.185 E52.73551
G1 X179.749 Y148.341 E52.74070
G1 X179.750 Y149.851 E52.79093
G1 X179.749 Y150.007 E52.79611
G1 X179.750 Y151.518 E52.84637
G1 X179.749 Y151.674 E52.85156
G1 X179.750 Y153.184 E52.90178
G1 X179.749 Y153.340 E52.90697
G1 X179.750 Y154.851 E52.95723
G1 X179.749 Y155.007 E52.96242
G1 X179.750 Y156.517 E53.01264
G1 X179.749 Y156.673 E53.01783
G1 X179.750 Y158.184 E53.06808
G1 X179.749 Y158.340 E53.07327
G1 X179.750 Y159.851 E53.12353
G1 X179.749 Y160.007 E53.12872
G1 X179.750 Y161.517 E53.17894
G1 X179.749 Y161.673 E53.18413
G1 X179.753 Y163.332 E53.23931
G1 X179.753 Y163.999 E53.26149
G1 X179.739 Y166.000 E53.32805
G1 X125.265 Y166.000 E55.13986
G1 X125.247 Y164.171 E55.20069
G1 X125.247 Y163.500 E55.22301
G1 X125.248 Y163.327 E55.22877
G1 X125.247 Y161.999 E55.27294
G1 X125.251 Y161.654 E55.28441
G1 X125.250 Y160.149 E55.33447
G1 X125.251 Y159.993 E55.33966
G1 X125.250 Y158.482 E55.38991
G1 X125.251 Y158.326 E55.39510
G1 X125.250 Y156.815 E55.44536
G1 X125.251 Y156.659 E55.45055
G1 X125.250 Y155.149 E55.50077
G1 X125.251 Y154.993 E55.50596
G1 X125.250 Y153.482 E55.55621
G1 X125.251 Y153.326 E55.56140
G1 X125.250 Y151.816 E55.61163
G1 X125.251 Y151.660 E55.61681
G1 X125.250 Y150.149 E55.66707
G1 X125.251 Y149.993 E55.67226
G1 X125.250 Y148.483 E55.72248
G1 X125.251 Y148.327 E55.72767
G1 X125.250 Y146.816 E55.77793
G1 X125.251 Y146.660 E55.78311
G1 X125.250 Y145.149 E55.83337
G1 X125.251 Y144.993 E55.83856
G1 X125.250 Y143.483 E55.88878
G1 X125.251 Y143.327 E55.89397
G1 X125.247 Y141.668 E55.94915
G1 X125.247 Y141.001 E55.97133
G0 F12000 X125.647 Y141.002
G1 F1800 X125.658 Y139.400 E56.02462
G1 X179.339 Y139.400 E57.81006
G1 X179.353 Y140.831 E57.85765
G1 X179.353 Y141.499 E57.87987
G1 X179.352 Y141.671 E57.88559
G1 X179.353 Y142.998 E57.92973
G1 X179.349 Y143.341 E57.94114
G1 X179.350 Y144.850 E57.99133
G1 X179.349 Y145.004 E57.99645
G1 X179.350 Y146.517 E58.04677
G1 X179.349 Y146.671 E58.05189
G1 X179.350 Y148.184 E58.10222
G1 X179.349 Y148.338 E58.10734
G1 X179.350 Y149.850 E58.15763
G1 X179.349 Y150.004 E58.16275
G1 X179.350 Y151.517 E58.21307
G1 X179.349 Y151.671 E58.21819
G1 X179.350 Y153.183 E58.26848
G1 X179.349 Y153.337 E58.27361
G1 X179.350 Y154.850 E58.32393
G1 X179.349 Y155.004 E58.32905
G1 X179.350 Y156.516 E58.37934
G1 X179.349 Y156.670 E58.38446
G1 X179.350 Y158.183 E58.43479
G1 X179.349 Y158.337 E58.43991
G1 X179.350 Y159.850 E58.49023
G1 X179.349 Y160.004 E58.49535
G1 X179.350 Y161.516 E58.54564
G1 X179.349 Y161.670 E58.55076
G1 X179.353 Y163.332 E58.60604
G1 X179.353 Y163.998 E58.62819
G1 X179.342 Y165.600 E58.68148
G1 X125.661 Y165.600 E60.46691
G1 X125.647 Y164.169 E60.51451
G1 X125.647 Y163.501 E60.53673
G1 X125.648 Y163.329 E60.54245
G1 X125.647 Y162.002 E60.58659
G1 X125.651 Y161.659 E60.59800
G1 X125.650 Y160.150 E60.64819
G1 X125.651 Y159.996 E60.65331
G1 X125.650 Y158.483 E60.70363
G1 X125.651 Y158.329 E60.70875
G1 X125.650 Y156.816 E60.75907
G1 X125.651 Y156.662 E60.76420
G1 X125.650 Y155.150 E60.81449
G1 X125.651 Y154.996 E60.81961
G1 X125.650 Y153.483 E60.86993
G1 X125.651 Y153.329 E60.87505
G1 X125.650 Y151.817 E60.92534
G1 X125.651 Y151.663 E60.93046
G1 X125.650 Y150.150 E60.98079
G1 X125.651 Y149.996 E60.98591
G1 X125.650 Y148.484 E61.03620
G1 X125.651 Y148.330 E61.04132
G1 X125.650 Y146.817 E61.09164
G1 X125.651 Y146.663 E61.09677
G1 X125.650 Y145.150 E61.14709
G1 X125.651 Y144.996 E61.15221
G1 X125.650 Y143.484 E61.20250
G1 X125.651 Y143.330 E61.20762
G1 X125.647 Y141.668 E61.26290
G1 X125.647 Y141.002 E61.28505
G0 F12000 X126.047 Y141.004
G1 F1800 X126.055 Y139.800 E61.32510
G1 X178.943 Y139.800 E63.08416
G1 X178.953 Y140.833 E63.11852
G1 X178.953 Y141.498 E63.14064
G1 X178.952 Y141.668 E63.14629
G1 X178.953 Y142.996 E63.19046
G1 X178.949 Y143.336 E63.20177
G1 X178.950 Y144.849 E63.25209
G1 X178.949 Y145.001 E63.25715
G1 X178.950 Y146.516 E63.30754
G1 X178.949 Y146.668 E63.31259
G1 X178.950 Y148.183 E63.36298
G1 X178.949 Y148.335 E63.36804
G1 X178.950 Y149.849 E63.41839
G1 X178.949 Y150.001 E63.42345
G1 X178.950 Y151.516 E63.47384
G1 X178.949 Y151.668 E63.47889
G1 X178.950 Y153.182 E63.52925
G1 X178.949 Y153.334 E63.53431
G1 X178.950 Y154.849 E63.58470
G1 X178.949 Y155.001 E63.58975
G1 X178.950 Y156.515 E63.64011
G1 X178.949 Y156.667 E63.64516
G1 X178.950 Y158.182 E63.69555
G1 X178.949 Y158.334 E63.70061
G1 X178.950 Y159.849 E63.75100
G1 X178.949 Y160.001 E63.75605
G1 X178.950 Y161.515 E63.80641
G1 X178.949 Y161.667 E63.81146
G1 X178.953 Y163.996 E63.88893
G1 X178.945 Y165.200 E63.92897
G1 X126.057 Y165.200 E65.68803
G1 X126.047 Y164.167 E65.72239
G1 X126.047 Y163.502 E65.74451
G1 X126.048 Y163.332 E65.75017
G1 X126.047 Y162.004 E65.79434
G1 X126.051 Y161.664 E65.80564
G1 X126.050 Y160.151 E65.85597
G1 X126.051 Y159.999 E65.86102
G1 X126.050 Y158.484 E65.91141
G1 X126.051 Y158.332 E65.91647
G1 X126.050 Y156.817 E65.96686
G1 X126.051 Y156.665 E65.97191
G1 X126.050 Y155.151 E66.02227
G1 X126.051 Y154.999 E66.02732
G1 X126.050 Y153.484 E66.07771
G1 X126.051 Y153.332 E66.08277
G1 X126.050 Y151.818 E66.13312
G1 X126.051 Y151.666 E66.13818
G1 X126.050 Y150.151 E66.18857
G1 X126.051 Y149.999 E66.19363
G1 X126.050 Y148.485 E66.24398
G1 X126.051 Y148.333 E66.24904
G1 X126.050 Y146.818 E66.29943
G1 X126.051 Y146.666 E66.30448
G1 X126.050 Y145.151 E66.35487
G1 X126.051 Y144.999 E66.35993
G1 X126.050 Y143.485 E66.41028
G1 X126.051 Y143.333 E66.41534
G1 X126.047 Y141.004 E66.49280
G0 F12000 X129.214 Y149.419
G1 F1800 X128.774 Y149.628 E66.50900
G1 X128.360 Y149.903 E66.52553
G1 X128.004 Y150.229 E66.54159
G1 X127.674 Y150.632 E66.55891
G1 X127.667 Y150.641 E66.55929
G1 X127.427 Y151.053 E66.57515
G1 X127.240 Y151.528 E66.59213
G1 X127.132 Y151.995 E66.60807
G1 X127.094 Y152.482 E66.62432
G1 X127.095 Y152.482 E66.62435
G1 X127.093 Y152.506 E66.62515
G1 X127.128 Y152.982 E66.64103
G1 X127.226 Y153.428 E66.65621
G1 X127.397 Y153.880 E66.67229
G1 X127.620 Y154.289 E66.68778
G1 X127.908 Y154.670 E66.70367
G1 X128.234 Y154.995 E66.71898
G1 X128.626 Y155.286 E66.73522
G1 X129.030 Y155.504 E66.75048
G1 X129.459 Y155.665 E66.76572
G1 X129.907 Y155.763 E66.78098
G1 X130.393 Y155.800 E66.79719
G1 X130.875 Y155.764 E66.81326
G1 X131.321 Y155.667 E66.82845
G1 X131.780 Y155.493 E66.84477
G1 X132.176 Y155.276 E66.85979
G1 X132.523 Y155.017 E66.87419
G1 X132.881 Y154.667 E66.89084
G1 X132.887 Y154.660 E66.89115
G1 X133.179 Y154.267 E66.90744
G1 X133.398 Y153.862 E66.92275
G1 X133.556 Y153.440 E66.93774
G1 X133.661 Y152.953 E66.95431
G1 X133.693 Y152.500 E66.96941
G1 X133.658 Y152.027 E66.98519
G1 X133.553 Y151.556 E67.00124
G1 X133.373 Y151.086 E67.01798
G1 X133.136 Y150.669 E67.03393
G1 X132.832 Y150.284 E67.05024
G1 X132.804 Y150.249 E67.05174
G1 X132.453 Y149.924 E67.06765
G1 X132.064 Y149.657 E67.08334
G1 X131.627 Y149.443 E67.09952
G1 X131.140 Y149.287 E67.11653
G1 X131.128 Y149.284 E67.11694
G1 X130.646 Y149.210 E67.13316
G1 X130.182 Y149.211 E67.14859
G1 X130.142 Y149.210 E67.14992
G1 X129.662 Y149.283 E67.16607
G1 X129.214 Y149.419 E67.18165
G0 F12000 X129.354 Y149.795
G1 F1800 X128.976 Y149.974 E67.19556
G1 X128.606 Y150.221 E67.21035
G1 X128.293 Y150.507 E67.22445
G1 X128.000 Y150.864 E67.23981
G1 X127.788 Y151.229 E67.25385
G1 X127.624 Y151.643 E67.26866
G1 X127.528 Y152.058 E67.28283
G1 X127.494 Y152.500 E67.29758
G1 X127.524 Y152.920 E67.31158
G1 X127.613 Y153.319 E67.32518
G1 X127.762 Y153.714 E67.33922
G1 X127.956 Y154.070 E67.35270
G1 X128.213 Y154.409 E67.36685
G1 X128.492 Y154.688 E67.37998
G1 X128.843 Y154.948 E67.39451
G1 X129.192 Y155.137 E67.40771
G1 X129.576 Y155.281 E67.42135
G1 X129.965 Y155.366 E67.43459
G1 X130.394 Y155.399 E67.44890
G1 X130.817 Y155.367 E67.46301
G1 X131.209 Y155.281 E67.47636
G1 X131.610 Y155.130 E67.49061
G1 X131.959 Y154.939 E67.50384
G1 X132.262 Y154.713 E67.51641
G1 X132.586 Y154.396 E67.53149
G1 X132.839 Y154.054 E67.54564
G1 X133.031 Y153.700 E67.55903
G1 X133.172 Y153.322 E67.57245
G1 X133.264 Y152.896 E67.58695
G1 X133.292 Y152.500 E67.60015
G1 X133.261 Y152.084 E67.61403
G1 X133.166 Y151.663 E67.62838
G1 X133.011 Y151.257 E67.64284
G1 X132.806 Y150.897 E67.65661
G1 X132.517 Y150.530 E67.67215
G1 X132.510 Y150.521 E67.67253
G1 X132.204 Y150.237 E67.68642
G1 X131.861 Y150.003 E67.70023
G1 X131.479 Y149.816 E67.71437
G1 X131.037 Y149.674 E67.72981
G1 X130.618 Y149.610 E67.74391
G1 X130.179 Y149.611 E67.75851
G1 X130.166 Y149.611 E67.75894
G1 X129.755 Y149.673 E67.77277
G1 X129.354 Y149.795 E67.78671
G0 F12000 X129.500 Y150.169
G1 F1800 X129.169 Y150.326 E67.79889
G1 X128.854 Y150.535 E67.81147
G1 X128.588 Y150.779 E67.82347
G1 X128.328 Y151.096 E67.83711
G1 X128.148 Y151.406 E67.84903
G1 X128.004 Y151.770 E67.86205
G1 X127.926 Y152.111 E67.87369
G1 X127.895 Y152.502 E67.88673
G1 X127.922 Y152.867 E67.89890
G1 X127.994 Y153.194 E67.91004
G1 X128.128 Y153.550 E67.92269
G1 X128.294 Y153.854 E67.93421
G1 X128.513 Y154.143 E67.94627
G1 X128.754 Y154.384 E67.95761
G1 X129.059 Y154.610 E67.97024
G1 X129.361 Y154.773 E67.98165
G1 X129.685 Y154.895 E67.99316
G1 X130.025 Y154.970 E68.00474
G1 X130.394 Y154.997 E68.01705
G1 X130.757 Y154.970 E68.02916
G1 X131.097 Y154.896 E68.04073
G1 X131.442 Y154.766 E68.05299
G1 X131.746 Y154.599 E68.06453
G1 X132.001 Y154.409 E68.07511
G1 X132.283 Y154.133 E68.08823
G1 X132.497 Y153.844 E68.10019
G1 X132.669 Y153.526 E68.11222
G1 X132.787 Y153.213 E68.12334
G1 X132.866 Y152.842 E68.13596
G1 X132.891 Y152.500 E68.14736
G1 X132.865 Y152.144 E68.15923
G1 X132.785 Y151.787 E68.17140
G1 X132.648 Y151.428 E68.18418
G1 X132.470 Y151.116 E68.19613
G1 X132.218 Y150.796 E68.20968
G1 X131.957 Y150.554 E68.22152
G1 X131.652 Y150.345 E68.23381
G1 X131.334 Y150.189 E68.24559
G1 X130.948 Y150.066 E68.25907
G1 X130.585 Y150.010 E68.27129
G1 X130.200 Y150.011 E68.28409
G1 X129.840 Y150.066 E68.29620
G1 X129.500 Y150.169 E68.30802
G0 F12000 X124.467 Y167.200
G1 F1800 X180.528 Y167.200 E70.17262
G1 X180.553 Y169.824 E70.25989
G1 X180.553 Y170.501 E70.28241
G1 X180.552 Y170.677 E70.28826
G1 X180.553 Y172.004 E70.33240
G1 X180.549 Y172.354 E70.34404
G1 X180.550 Y173.853 E70.39390
G1 X180.549 Y174.012 E70.39919
G1 X180.550 Y175.519 E70.44931
G1 X180.549 Y175.678 E70.45460
G1 X180.550 Y177.186 E70.50476
G1 X180.549 Y177.345 E70.51004
G1 X180.550 Y178.853 E70.56020
G1 X180.549 Y179.012 E70.56549
G1 X180.550 Y180.519 E70.61561
G1 X180.549 Y180.678 E70.62090
G1 X180.550 Y182.186 E70.67106
G1 X180.549 Y182.345 E70.67635
G1 X180.550 Y183.853 E70.72650
G1 X180.549 Y184.012 E70.73179
G1 X180.550 Y185.519 E70.78191
G1 X180.549 Y185.678 E70.78720
G1 X180.550 Y187.186 E70.83736
G1 X180.549 Y187.345 E70.84265
G1 X180.550 Y188.853 E70.89280
G1 X180.549 Y189.012 E70.89809
G1 X180.550 Y190.519 E70.94821
G1 X180.549 Y190.678 E70.95350
G1 X180.553 Y192.331 E71.00848
G1 X180.553 Y193.002 E71.03080
G1 X180.533 Y195.800 E71.12386
G1 X124.472 Y195.800 E72.98846
G1 X124.447 Y193.175 E73.07577
G1 X124.447 Y192.498 E73.09829
G1 X124.448 Y192.322 E73.10414
G1 X124.447 Y190.995 E73.14828
G1 X124.451 Y190.645 E73.15992
G1 X124.450 Y189.147 E73.20974
G1 X124.451 Y188.988 E73.21503
G1 X124.450 Y187.480 E73.26519
G1 X124.451 Y187.321 E73.27048
G1 X124.450 Y185.813 E73.32063
G1 X124.451 Y185.654 E73.32592
G1 X124.450 Y184.147 E73.37605
G1 X124.451 Y183.988 E73.38133
G1 X124.450 Y182.480 E73.43149
G1 X124.451 Y182.321 E73.43678
G1 X124.450 Y180.813 E73.48694
G1 X124.451 Y180.654 E73.49222
G1 X124.450 Y179.147 E73.54235
G1 X124.451 Y178.988 E73.54764
G1 X124.450 Y177.480 E73.59779
G1 X124.451 Y177.321 E73.60308
G1 X124.450 Y175.813 E73.65324
G1 X124.451 Y175.654 E73.65852
G1 X124.450 Y174.147 E73.70865
G1 X124.451 Y173.988 E73.71394
G1 X124.450 Y172.480 E73.76409
G1 X124.451 Y172.321 E73.76938
G1 X124.447 Y170.668 E73.82436
G1 X124.447 Y169.997 E73.84668
G1 X124.467 Y167.200 E73.93971
G0 F12000 X124.847 Y169.998
G1 F1800 X124.864 Y167.600 E74.01947
G1 X180.132 Y167.600 E75.85769
G1 X180.153 Y169.826 E75.93173
G1 X180.153 Y170.500 E75.95415
G1 X180.152 Y170.674 E75.95993
G1 X180.153 Y172.002 E76.00410
G1 X180.149 Y172.350 E76.01568
G1 X180.150 Y173.852 E76.06564
G1 X180.149 Y174.009 E76.07086
G1 X180.150 Y175.518 E76.12105
G1 X180.149 Y175.675 E76.12627
G1 X180.150 Y177.185 E76.17649
G1 X180.149 Y177.342 E76.18171
G1 X180.150 Y178.852 E76.23194
G1 X180.149 Y179.009 E76.23716
G1 X180.150 Y180.518 E76.28735
G1 X180.149 Y180.675 E76.29257
G1 X180.150 Y182.185 E76.34279
G1 X180.149 Y182.342 E76.34802
G1 X180.150 Y183.852 E76.39824
G1 X180.149 Y184.009 E76.40346
G1 X180.150 Y185.518 E76.45365
G1 X180.149 Y185.675 E76.45887
G1 X180.150 Y187.185 E76.50909
G1 X180.149 Y187.342 E76.51432
G1 X180.150 Y188.852 E76.56454
G1 X180.149 Y189.009 E76.56976
G1 X180.150 Y190.518 E76.61995
G1 X180.149 Y190.675 E76.62517
G1 X180.153 Y192.331 E76.68025
G1 X180.153 Y193.001 E76.70254
G1 X180.136 Y195.400 E76.78233
G1 X124.868 Y195.400 E78.62055
G1 X124.847 Y193.173 E78.69462
G1 X124.847 Y192.499 E78.71704
G1 X124.848 Y192.325 E78.72283
G1 X124.847 Y190.997 E78.76700
G1 X124.851 Y190.649 E78.77857
G1 X124.850 Y189.148 E78.82850
G1 X124.851 Y188.991 E78.83372
G1 X124.850 Y187.481 E78.88394
G1 X124.851 Y187.324 E78.88916
G1 X124.850 Y185.814 E78.93939
G1 X124.851 Y185.657 E78.94461
G1 X124.850 Y184.148 E78.99480
G1 X124.851 Y183.991 E79.00002
G1 X124.850 Y182.481 E79.05024
G1 X124.851 Y182.324 E79.05546
G1 X124.850 Y180.814 E79.10569
G1 X124.851 Y180.657 E79.11091
G1 X124.850 Y179.148 E79.16110
G1 X124.851 Y178.991 E79.16632
G1 X124.850 Y177.481 E79.21654
G1 X124.851 Y177.324 E79.22177
G1 X124.850 Y175.814 E79.27199
G1 X124.851 Y175.657 E79.27721
G1 X124.850 Y174.148 E79.32740
G1 X124.851 Y173.991 E79.33262
G1 X124.850 Y172.481 E79.38284
G1 X124.851 Y172.324 E79.38807
G1 X124.847 Y170.668 E79.44315
G1 X124.847 Y169.998 E79.46543
G0 F12000 X125.247 Y170.000
G1 F1800 X125.261 Y168.000 E79.53195
G1 X179.735 Y168.000 E81.34376
G1 X179.753 Y169.828 E81.40457
G1 X179.753 Y170.499 E81.42688
G1 X179.752 Y170.672 E81.43264
G1 X179.753 Y172.000 E81.47681
G1 X179.749 Y172.345 E81.48828
G1 X179.750 Y173.851 E81.53837
G1 X179.749 Y174.007 E81.54356
G1 X179.750 Y175.517 E81.59378
G1 X179.749 Y175.673 E81.59897
G1 X179.750 Y177.184 E81.64923
G1 X179.749 Y177.340 E81.65442
G1 X179.750 Y178.851 E81.70467
G1 X179.749 Y179.007 E81.70986
G1 X179.750 Y180.517 E81.76009
G1 X179.749 Y180.673 E81.76527
G1 X179.750 Y182.184 E81.81553
G1 X179.749 Y182.340 E81.82072
G1 X179.750 Y183.851 E81.87098
G1 X179.749 Y184.007 E81.87616
G1 X179.750 Y185.517 E81.92639
G1 X179.749 Y185.673 E81.93158
G1 X179.750 Y187.184 E81.98183
G1 X179.749 Y187.340 E81.98702
G1 X179.750 Y188.851 E82.03728
G1 X179.749 Y189.007 E82.04246
G1 X179.750 Y190.517 E82.09269
G1 X179.749 Y190.673 E82.09788
G1 X179.753 Y192.332 E82.15306
G1 X179.753 Y192.999 E82.17524
G1 X179.739 Y195.000 E82.24179
G1 X125.265 Y195.000 E84.05361
G1 X125.247 Y193.171 E84.11444
G1 X125.247 Y192.500 E84.13676
G1 X125.248 Y192.327 E84.14251
G1 X125.247 Y190.999 E84.18668
G1 X125.251 Y190.654 E84.19816
G1 X125.250 Y189.149 E84.24822
G1 X125.251 Y188.993 E84.25340
G1 X125.250 Y187.482 E84.30366
G1 X125.251 Y187.326 E84.30885
G1 X125.250 Y185.815 E84.35911
G1 X125.251 Y185.659 E84.36429
G1 X125.250 Y184.149 E84.41452
G1 X125.251 Y183.993 E84.41971
G1 X125.250 Y182.482 E84.46996
G1 X125.251 Y182.326 E84.47515
G1 X125.250 Y180.815 E84.52541
G1 X125.251 Y180.659 E84.53060
G1 X125.250 Y179.149 E84.58082
G1 X125.251 Y178.993 E84.58601
G1 X125.250 Y177.482 E84.63626
G1 X125.251 Y177.326 E84.64145
G1 X125.250 Y175.815 E84.69171
G1 X125.251 Y175.659 E84.69690
G1 X125.250 Y174.149 E84.74712
G1 X125.251 Y173.993 E84.75231
G1 X125.250 Y172.482 E84.80256
G1 X125.251 Y172.326 E84.80775
G1 X125.247 Y170.667 E84.86293
G1 X125.247 Y170.000 E84.88512
G0 F12000 X125.647 Y170.001
G1 F1800 X125.658 Y168.400 E84.93837
G1 X179.339 Y168.400 E86.72380
G1 X179.353 Y169.830 E86.77137
G1 X179.353 Y170.498 E86.79359
G1 X179.352 Y170.670 E86.79931
G1 X179.353 Y171.997 E86.84344
G1 X179.349 Y172.340 E86.85485
G1 X179.350 Y173.850 E86.90507
G1 X179.349 Y174.004 E86.91020
G1 X179.350 Y175.516 E86.96049
G1 X179.349 Y175.670 E86.96561
G1 X179.350 Y177.183 E87.01593
G1 X179.349 Y177.337 E87.02105
G1 X179.350 Y178.850 E87.07138
G1 X179.349 Y179.004 E87.07650
G1 X179.350 Y180.516 E87.12679
G1 X179.349 Y180.670 E87.13191
G1 X179.350 Y182.183 E87.18223
G1 X179.349 Y182.337 E87.18735
G1 X179.350 Y183.850 E87.23768
G1 X179.349 Y184.004 E87.24280
G1 X179.350 Y185.516 E87.29309
G1 X179.349 Y185.670 E87.29821
G1 X179.350 Y187.183 E87.34853
G1 X179.349 Y187.337 E87.35366
G1 X179.350 Y188.850 E87.40398
G1 X179.349 Y189.004 E87.40910
G1 X179.350 Y190.516 E87.45939
G1 X179.349 Y190.670 E87.46451
G1 X179.353 Y192.332 E87.51979
G1 X179.353 Y192.998 E87.54194
G1 X179.342 Y194.600 E87.59523
G1 X125.661 Y194.600 E89.38066
G1 X125.647 Y193.169 E89.42826
G1 X125.647 Y192.501 E89.45048
G1 X125.648 Y192.329 E89.45620
G1 X125.647 Y191.002 E89.50034
G1 X125.651 Y190.659 E89.51174
G1 X125.650 Y189.150 E89.56193
G1 X125.651 Y188.996 E89.56706
G1 X125.650 Y187.483 E89.61738
G1 X125.651 Y187.329 E89.62250
G1 X125.650 Y185.816 E89.67282
G1 X125.651 Y185.662 E89.67795
G1 X125.650 Y184.150 E89.72823
G1 X125.651 Y183.996 E89.73336
G1 X125.650 Y182.483 E89.78368
G1 X125.651 Y182.329 E89.78880
G1 X125.650 Y180.816 E89.83912
G1 X125.651 Y180.662 E89.84425
G1 X125.650 Y179.150 E89.89454
G1 X125.651 Y178.996 E89.89966
G1 X125.650 Y177.483 E89.94998
G1 X125.651 Y177.329 E89.95510
G1 X125.650 Y175.816 E90.00543
G1 X125.651 Y175.662 E90.01055
G1 X125.650 Y174.150 E90.06084
G1 X125.651 Y173.996 E90.06596
G1 X125.650 Y172.483 E90.11628
G1 X125.651 Y172.329 E90.12140
G1 X125.647 Y170.667 E90.17668
G1 X125.647 Y170.001 E90.19883
G0 F12000 X126.047 Y170.003
G1 F1800 X126.055 Y168.800 E90.23885
G1 X178.943 Y168.800 E91.99791
G1 X178.953 Y169.832 E92.03223
G1 X178.953 Y170.497 E92.05435
G1 X178.952 Y170.667 E92.06001
G1 X178.953 Y171.995 E92.10418
G1 X178.949 Y172.335 E92.11549
G1 X178.950 Y173.849 E92.16584
G1 X178.949 Y174.001 E92.17090
G1 X178.950 Y175.515 E92.22125
G1 X178.949 Y175.667 E92.22631
G1 X178.950 Y177.182 E92.27670
G1 X178.949 Y177.334 E92.28175
G1 X178.950 Y178.849 E92.33214
G1 X178.949 Y179.001 E92.33720
G1 X178.950 Y180.515 E92.38755
G1 X178.949 Y180.667 E92.39261
G1 X178.950 Y182.182 E92.44300
G1 X178.949 Y182.334 E92.44805
G1 X178.950 Y183.849 E92.49844
G1 X178.949 Y184.001 E92.50350
G1 X178.950 Y185.515 E92.55385
G1 X178.949 Y185.667 E92.55891
G1 X178.950 Y187.182 E92.60930
G1 X178.949 Y187.334 E92.61436
G1 X178.950 Y188.849 E92.66474
G1 X178.949 Y189.001 E92.66980
G1 X178.950 Y190.515 E92.72016
G1 X178.949 Y190.667 E92.72521
G1 X178.953 Y192.996 E92.80267
G1 X178.945 Y194.200 E92.84272
G1 X126.057 Y194.200 E94.60178
G1 X126.047 Y193.167 E94.63614
G1 X126.047 Y192.502 E94.65826
G1 X126.048 Y192.332 E94.66391
G1 X126.047 Y191.004 E94.70808
G1 X126.051 Y190.664 E94.71939
G1 X126.050 Y189.151 E94.76972
G1 X126.051 Y188.999 E94.77477
G1 X126.050 Y187.484 E94.82516
G1 X126.051 Y187.332 E94.83022
G1 X126.050 Y185.817 E94.88061
G1 X126.051 Y185.665 E94.88566
G1 X126.050 Y184.151 E94.93602
G1 X126.051 Y183.999 E94.94107
G1 X126.050 Y182.484 E94.99146
G1 X126.051 Y182.332 E94.99652
G1 X126.050 Y180.817 E95.04691
G1 X126.051 Y180.665 E95.05196
G1 X126.050 Y179.151 E95.10232
G1 X126.051 Y178.999 E95.10737
G1 X126.050 Y177.484 E95.15776
G1 X126.051 Y177.332 E95.16282
G1 X126.050 Y175.817 E95.21321
G1 X126.051 Y175.665 E95.21826
G1 X126.050 Y174.151 E95.26862
G1 X126.051 Y173.999 E95.27367
G1 X126.050 Y172.484 E95.32406
G1 X126.051 Y172.332 E95.32912
G1 X126.047 Y170.003 E95.40658
G0 F12000 X130.393 Y178.093
G1 F1800 X127.443 Y179.796 E95.51988
G1 X127.443 Y183.203 E95.63319
G1 X130.393 Y184.906 E95.74649
G1 X133.343 Y183.203 E95.85978
G1 X133.343 Y179.796 E95.97310
G1 X130.393 Y178.093 E96.08639
G0 F12000 X130.393 Y178.555
G1 F1800 X127.843 Y180.028 E96.18434
G1 X127.843 Y182.971 E96.28222
G1 X130.393 Y184.444 E96.38017
G1 X132.943 Y182.971 E96.47811
G1 X132.943 Y180.028 E96.57600
G1 X130.393 Y178.555 E96.67394
G0 F12000 X130.393 Y179.017
G1 F1800 X128.243 Y180.258 E96.75651
G1 X128.243 Y182.741 E96.83910
G1 X130.393 Y183.982 E96.92166
G1 X132.543 Y182.741 E97.00423
G1 X132.543 Y180.258 E97.08681
G1 X130.393 Y179.017 E97.16938
G0 F12000 X164.355 Y181.235
G1 F1800 X164.343 Y181.500 E97.17820
G1 X164.355 Y181.755 E97.18670
G1 X164.443 Y182.262 E97.20381
G1 X164.613 Y182.749 E97.22097
G1 X164.860 Y183.202 E97.23813
G1 X165.245 Y183.679 E97.25852
G1 X165.493 Y183.900 E97.26956
G1 X165.783 Y184.105 E97.28138
G1 X166.077 Y184.267 E97.29254
G1 X166.407 Y184.404 E97.30442
G1 X166.739 Y184.501 E97.31593
G1 X167.076 Y184.559 E97.32730
G1 X167.425 Y184.579 E97.33893
G1 X167.772 Y184.560 E97.35049
G1 X168.112 Y184.500 E97.36197
G1 X168.442 Y184.404 E97.37340
G1 X168.773 Y184.266 E97.38533
G1 X169.067 Y184.104 E97.39649
G1 X169.356 Y183.900 E97.40826
G1 X169.604 Y183.679 E97.41931
G1 X169.996 Y183.194 E97.44005
G1 X170.118 Y182.990 E97.44796
G1 X170.331 Y182.512 E97.46536
G1 X170.463 Y182.002 E97.48288
G1 X170.493 Y181.765 E97.49083
G1 X170.490 Y181.482 E97.50024
G1 X170.493 Y181.233 E97.50852
G1 X170.463 Y180.995 E97.51650
G1 X170.407 Y180.736 E97.52532
G1 X170.237 Y180.250 E97.54244
G1 X169.990 Y179.797 E97.55960
G1 X169.607 Y179.324 E97.57984
G1 X169.349 Y179.095 E97.59132
G1 X169.066 Y178.893 E97.60288
G1 X168.769 Y178.730 E97.61415
G1 X168.444 Y178.596 E97.62584
G1 X168.110 Y178.498 E97.63742
G1 X167.773 Y178.440 E97.64879
G1 X167.425 Y178.420 E97.66039
G1 X167.077 Y178.439 E97.67198
G1 X166.737 Y178.499 E97.68346
G1 X166.407 Y178.595 E97.69489
G1 X166.076 Y178.733 E97.70682
G1 X165.782 Y178.895 E97.71799
G1 X165.493 Y179.098 E97.72973
G1 X165.241 Y179.324 E97.74099
G1 X164.855 Y179.801 E97.76140
G1 X164.791 Y179.910 E97.76560
G1 X164.552 Y180.404 E97.78386
G1 X164.518 Y180.488 E97.78687
G1 X164.386 Y180.992 E97.80420
G1 X164.355 Y181.235 E97.81235
G0 F12000 X164.753 Y181.281
G1 F1800 X164.743 Y181.500 E97.81964
G1 X164.752 Y181.707 E97.82653
G1 X164.832 Y182.164 E97.84196
G1 X164.979 Y182.585 E97.85679
G1 X165.194 Y182.979 E97.87172
G1 X165.533 Y183.400 E97.88970
G1 X165.742 Y183.586 E97.89900
G1 X165.994 Y183.765 E97.90928
G1 X166.260 Y183.911 E97.91938
G1 X166.535 Y184.025 E97.92928
G1 X166.830 Y184.111 E97.93950
G1 X167.124 Y184.162 E97.94942
G1 X167.425 Y184.179 E97.95945
G1 X167.723 Y184.162 E97.96938
G1 X168.024 Y184.109 E97.97954
G1 X168.308 Y184.027 E97.98937
G1 X168.593 Y183.908 E97.99965
G1 X168.856 Y183.764 E98.00962
G1 X169.107 Y183.586 E98.01985
G1 X169.316 Y183.400 E98.02916
G1 X169.666 Y182.967 E98.04768
G1 X169.764 Y182.803 E98.05403
G1 X169.952 Y182.381 E98.06940
G1 X170.070 Y181.927 E98.08500
G1 X170.093 Y181.742 E98.09120
G1 X170.090 Y181.482 E98.09985
G1 X170.093 Y181.256 E98.10737
G1 X170.068 Y181.062 E98.11387
G1 X170.021 Y180.841 E98.12139
G1 X169.871 Y180.414 E98.13644
G1 X169.656 Y180.020 E98.15137
G1 X169.317 Y179.600 E98.16932
G1 X169.104 Y179.411 E98.17879
G1 X168.856 Y179.235 E98.18891
G1 X168.586 Y179.087 E98.19915
G1 X168.319 Y178.976 E98.20876
G1 X168.017 Y178.888 E98.21923
G1 X167.725 Y178.837 E98.22908
G1 X167.425 Y178.820 E98.23908
G1 X167.126 Y178.837 E98.24904
G1 X166.825 Y178.890 E98.25920
G1 X166.541 Y178.972 E98.26904
G1 X166.256 Y179.091 E98.27931
G1 X165.993 Y179.235 E98.28928
G1 X165.742 Y179.413 E98.29952
G1 X165.533 Y179.600 E98.30884
G1 X165.186 Y180.029 E98.32720
G1 X165.140 Y180.106 E98.33018
G1 X164.919 Y180.564 E98.34709
G1 X164.899 Y180.613 E98.34885
G1 X164.780 Y181.066 E98.36443
G1 X164.753 Y181.281 E98.37164
G0 F12000 X165.152 Y181.313
G1 F1800 X165.144 Y181.500 E98.37786
G1 X165.151 Y181.668 E98.38346
G1 X165.220 Y182.060 E98.39669
G1 X165.347 Y182.424 E98.40952
G1 X165.527 Y182.754 E98.42202
G1 X165.825 Y183.124 E98.43782
G1 X165.996 Y183.276 E98.44543
G1 X166.205 Y183.425 E98.45397
G1 X166.427 Y183.547 E98.46239
G1 X166.672 Y183.648 E98.47121
G1 X166.922 Y183.721 E98.47987
G1 X167.171 Y183.764 E98.48827
G1 X167.425 Y183.779 E98.49674
G1 X167.674 Y183.765 E98.50503
G1 X167.934 Y183.719 E98.51381
G1 X168.180 Y183.647 E98.52234
G1 X168.418 Y183.548 E98.53091
G1 X168.645 Y183.424 E98.53951
G1 X168.854 Y183.276 E98.54803
G1 X169.028 Y183.121 E98.55578
G1 X169.338 Y182.737 E98.57220
G1 X169.406 Y182.623 E98.57661
G1 X169.574 Y182.246 E98.59034
G1 X169.675 Y181.854 E98.60380
G1 X169.692 Y181.718 E98.60836
G1 X169.690 Y181.481 E98.61625
G1 X169.692 Y181.279 E98.62296
G1 X169.674 Y181.130 E98.62796
G1 X169.635 Y180.952 E98.63402
G1 X169.503 Y180.575 E98.64730
G1 X169.321 Y180.242 E98.65992
G1 X169.029 Y179.880 E98.67539
G1 X168.850 Y179.721 E98.68336
G1 X168.645 Y179.575 E98.69173
G1 X168.419 Y179.451 E98.70030
G1 X168.182 Y179.353 E98.70883
G1 X167.924 Y179.277 E98.71778
G1 X167.678 Y179.235 E98.72608
G1 X167.425 Y179.220 E98.73451
G1 X167.175 Y179.234 E98.74283
G1 X166.915 Y179.280 E98.75162
G1 X166.669 Y179.352 E98.76014
G1 X166.431 Y179.451 E98.76871
G1 X166.204 Y179.575 E98.77732
G1 X165.995 Y179.723 E98.78584
G1 X165.821 Y179.879 E98.79361
G1 X165.516 Y180.256 E98.80974
G1 X165.497 Y180.289 E98.81100
G1 X165.283 Y180.731 E98.82734
G1 X165.279 Y180.740 E98.82766
G1 X165.174 Y181.140 E98.84142
G1 X165.152 Y181.313 E98.84722
G0 F12000 X171.657 Y179.796
G1 F1800 X171.657 Y183.203 E98.96054
G1 X174.607 Y184.906 E99.07383
G1 X177.557 Y183.203 E99.18712
G1 X177.557 Y179.796 E99.30044
G1 X174.607 Y178.093 E99.41373
G1 X171.657 Y179.796 E99.52703
G0 F12000 X172.057 Y180.028
G1 F1800 X172.057 Y182.971 E99.62491
G1 X174.607 Y184.444 E99.72286
G1 X177.157 Y182.971 E99.82080
G1 X177.157 Y180.028 E99.91869
G1 X174.607 Y178.555 E100.01664
G1 X172.057 Y180.028 E100.11458
G0 F12000 X172.457 Y180.258
G1 F1800 X172.457 Y182.741 E100.19717
G1 X174.607 Y183.982 E100.27973
G1 X176.757 Y182.741 E100.36230
G1 X176.757 Y180.258 E100.44489
G1 X174.607 Y179.017 E100.52745
G1 X172.457 Y180.258 E100.61002
G0 F12000 X174.487 Y154.994
G1 F1800 X174.859 Y154.984 E100.62240
G1 X175.207 Y154.923 E100.63415
G1 X175.567 Y154.804 E100.64676
G1 X175.907 Y154.631 E100.65945
G1 X176.190 Y154.431 E100.67097
G1 X176.466 Y154.167 E100.68368
G1 X176.685 Y153.885 E100.69555
G1 X176.868 Y153.559 E100.70799
G1 X176.997 Y153.224 E100.71993
G1 X177.075 Y152.877 E100.73175
G1 X177.104 Y152.495 E100.74450
G1 X177.078 Y152.130 E100.75667
G1 X177.004 Y151.799 E100.76795
G1 X176.872 Y151.450 E100.78036
G1 X176.706 Y151.146 E100.79188
G1 X176.487 Y150.857 E100.80394
G1 X176.246 Y150.616 E100.81527
G1 X175.941 Y150.390 E100.82790
G1 X175.639 Y150.227 E100.83931
G1 X175.315 Y150.105 E100.85083
G1 X174.975 Y150.030 E100.86241
G1 X174.604 Y150.002 E100.87478
G1 X174.255 Y150.028 E100.88642
G1 X173.921 Y150.099 E100.89778
G1 X173.610 Y150.210 E100.90876
G1 X173.292 Y150.376 E100.92070
G1 X173.026 Y150.568 E100.93161
G1 X172.760 Y150.820 E100.94379
G1 X172.554 Y151.078 E100.95477
G1 X172.374 Y151.382 E100.96653
G1 X172.246 Y151.689 E100.97759
G1 X172.153 Y152.046 E100.98986
G1 X172.113 Y152.359 E101.00035
G1 X172.116 Y152.505 E101.00521
G1 X172.112 Y152.643 E101.00980
G1 X172.159 Y152.995 E101.02161
G1 X172.264 Y153.364 E101.03437
G1 X172.408 Y153.682 E101.04598
G1 X172.615 Y154.006 E101.05877
G1 X172.847 Y154.271 E101.07049
G1 X173.116 Y154.502 E101.08228
G1 X173.438 Y154.706 E101.09496
G1 X173.764 Y154.850 E101.10681
G1 X174.126 Y154.951 E101.11931
G1 X174.487 Y154.994 E101.13140
G0 F12000 X174.471 Y155.395
G1 F1800 X174.898 Y155.383 E101.14561
G1 X175.305 Y155.312 E101.15935
G1 X175.722 Y155.174 E101.17396
G1 X176.111 Y154.977 E101.18846
G1 X176.449 Y154.736 E101.20227
G1 X176.764 Y154.435 E101.21676
G1 X177.017 Y154.111 E101.23044
G1 X177.231 Y153.730 E101.24497
G1 X177.382 Y153.337 E101.25897
G1 X177.471 Y152.939 E101.27254
G1 X177.506 Y152.497 E101.28728
G1 X177.476 Y152.080 E101.30119
G1 X177.387 Y151.681 E101.31479
G1 X177.238 Y151.286 E101.32883
G1 X177.044 Y150.930 E101.34231
G1 X176.787 Y150.591 E101.35646
G1 X176.508 Y150.312 E101.36958
G1 X176.157 Y150.052 E101.38411
G1 X175.808 Y149.863 E101.39731
G1 X175.424 Y149.719 E101.41095
G1 X175.035 Y149.634 E101.42420
G1 X174.605 Y149.601 E101.43854
G1 X174.199 Y149.631 E101.45208
G1 X173.815 Y149.713 E101.46514
G1 X173.450 Y149.843 E101.47803
G1 X173.079 Y150.037 E101.49195
G1 X172.768 Y150.261 E101.50470
G1 X172.467 Y150.546 E101.51849
G1 X172.226 Y150.848 E101.53134
G1 X172.013 Y151.207 E101.54522
G1 X171.866 Y151.559 E101.55791
G1 X171.759 Y151.972 E101.57210
G1 X171.713 Y152.337 E101.58434
G1 X171.716 Y152.503 E101.58986
G1 X171.712 Y152.655 E101.59492
G1 X171.712 Y152.664 E101.59521
G1 X171.768 Y153.080 E101.60918
G1 X171.886 Y153.498 E101.62362
G1 X172.057 Y153.877 E101.63745
G1 X172.292 Y154.243 E101.65192
G1 X172.566 Y154.557 E101.66578
G1 X172.878 Y154.825 E101.67946
G1 X173.250 Y155.060 E101.69409
G1 X173.626 Y155.227 E101.70778
G1 X174.048 Y155.344 E101.72234
G1 X174.471 Y155.395 E101.73651
G0 F12000 X174.449 Y155.795
G1 F1800 X174.461 Y155.796 E101.73691
G1 X174.938 Y155.782 E101.75279
G1 X175.403 Y155.701 E101.76848
G1 X175.878 Y155.544 E101.78512
G1 X176.317 Y155.321 E101.80150
G1 X176.702 Y155.048 E101.81720
G1 X177.062 Y154.704 E101.83376
G1 X177.353 Y154.330 E101.84952
G1 X177.592 Y153.903 E101.86580
G1 X177.765 Y153.456 E101.88174
G1 X177.868 Y152.996 E101.89742
G1 X177.907 Y152.499 E101.91400
G1 X177.872 Y152.018 E101.93004
G1 X177.773 Y151.570 E101.94530
G1 X177.603 Y151.120 E101.96130
G1 X177.380 Y150.711 E101.97679
G1 X177.090 Y150.329 E101.99274
G1 X176.766 Y150.005 E102.00798
G1 X176.374 Y149.714 E102.02422
G1 X175.970 Y149.496 E102.03949
G1 X175.541 Y149.335 E102.05473
G1 X175.093 Y149.237 E102.06998
G1 X174.606 Y149.200 E102.08623
G1 X174.145 Y149.233 E102.10160
G1 X173.700 Y149.329 E102.11674
G1 X173.290 Y149.475 E102.13122
G1 X172.871 Y149.694 E102.14694
G1 X172.514 Y149.951 E102.16157
G1 X172.170 Y150.277 E102.17733
G1 X171.896 Y150.620 E102.19194
G1 X171.654 Y151.029 E102.20774
G1 X171.487 Y151.428 E102.22213
G1 X171.365 Y151.898 E102.23828
G1 X171.312 Y152.315 E102.25226
G1 X171.316 Y152.501 E102.25845
G1 X171.311 Y152.652 E102.26347
G1 X171.313 Y152.701 E102.26510
G1 X171.374 Y153.159 E102.28047
G1 X171.510 Y153.639 E102.29706
G1 X171.704 Y154.067 E102.31269
G1 X171.969 Y154.481 E102.32904
G1 X172.285 Y154.843 E102.34503
G1 X172.639 Y155.147 E102.36054
G1 X173.060 Y155.414 E102.37713
G1 X173.490 Y155.603 E102.39275
G1 X173.972 Y155.738 E102.40940
G1 X174.449 Y155.795 E102.42537
G0 F12000 X169.849 Y153.458
G1 F1800 X169.911 Y153.284 E102.43152
G1 X169.966 Y153.083 E102.43845
G1 X170.000 Y152.906 E102.44444
G1 X170.032 Y152.508 E102.45772
G1 X169.999 Y152.092 E102.47160
G1 X169.965 Y151.915 E102.47760
G1 X169.911 Y151.716 E102.48446
G1 X169.846 Y151.533 E102.49092
G1 X169.762 Y151.349 E102.49764
G1 X169.674 Y151.184 E102.50386
G1 X169.566 Y151.014 E102.51056
G1 X169.375 Y150.769 E102.52089
G1 X169.144 Y150.540 E102.53171
G1 X168.905 Y150.357 E102.54172
G1 X168.625 Y150.190 E102.55257
G1 X168.344 Y150.063 E102.56282
G1 X168.043 Y149.969 E102.57331
G1 X167.736 Y149.912 E102.58370
G1 X167.428 Y149.892 E102.59396
G1 X167.111 Y149.914 E102.60453
G1 X166.799 Y149.972 E102.61509
G1 X166.498 Y150.067 E102.62559
G1 X166.211 Y150.195 E102.63604
G1 X165.947 Y150.354 E102.64629
G1 X165.696 Y150.546 E102.65680
G1 X165.476 Y150.765 E102.66712
G1 X165.281 Y151.016 E102.67769
G1 X165.186 Y151.168 E102.68366
G1 X164.999 Y151.548 E102.69774
G1 X164.937 Y151.720 E102.70382
G1 X164.885 Y151.912 E102.71044
G1 X164.846 Y152.112 E102.71722
G1 X164.823 Y152.308 E102.72378
G1 X164.816 Y152.484 E102.72964
G1 X164.849 Y152.892 E102.74325
G1 X164.942 Y153.295 E102.75701
G1 X164.999 Y153.454 E102.76263
G1 X165.184 Y153.832 E102.77662
G1 X165.280 Y153.983 E102.78258
G1 X165.474 Y154.231 E102.79305
G1 X165.706 Y154.461 E102.80391
G1 X165.950 Y154.649 E102.81416
G1 X166.215 Y154.806 E102.82440
G1 X166.505 Y154.937 E102.83499
G1 X166.806 Y155.031 E102.84548
G1 X167.113 Y155.088 E102.85586
G1 X167.422 Y155.108 E102.86616
G1 X167.738 Y155.086 E102.87670
G1 X168.050 Y155.028 E102.88725
G1 X168.351 Y154.933 E102.89775
G1 X168.638 Y154.805 E102.90820
G1 X168.903 Y154.645 E102.91850
G1 X169.152 Y154.454 E102.92893
G1 X169.373 Y154.234 E102.93931
G1 X169.559 Y153.996 E102.94935
G1 X169.772 Y153.629 E102.96347
G1 X169.849 Y153.458 E102.96970
G0 F12000 X170.219 Y153.613
G1 F1800 X170.293 Y153.405 E102.97705
G1 X170.357 Y153.171 E102.98511
G1 X170.398 Y152.958 E102.99233
G1 X170.434 Y152.508 E103.00734
G1 X170.396 Y152.038 E103.02303
G1 X170.355 Y151.825 E103.03024
G1 X170.294 Y151.597 E103.03809
G1 X170.222 Y151.395 E103.04522
G1 X170.120 Y151.170 E103.05344
G1 X170.020 Y150.982 E103.06052
G1 X169.892 Y150.781 E103.06845
G1 X169.675 Y150.503 E103.08018
G1 X169.413 Y150.243 E103.09246
G1 X169.122 Y150.020 E103.10465
G1 X168.810 Y149.834 E103.11673
G1 X168.490 Y149.690 E103.12840
G1 X168.143 Y149.581 E103.14050
G1 X167.785 Y149.514 E103.15261
G1 X167.426 Y149.492 E103.16458
G1 X167.061 Y149.516 E103.17674
G1 X166.701 Y149.584 E103.18893
G1 X166.360 Y149.691 E103.20081
G1 X166.023 Y149.841 E103.21308
G1 X165.722 Y150.023 E103.22478
G1 X165.431 Y150.246 E103.23698
G1 X165.178 Y150.497 E103.24883
G1 X164.948 Y150.793 E103.26130
G1 X164.839 Y150.967 E103.26813
G1 X164.626 Y151.401 E103.28421
G1 X164.557 Y151.595 E103.29105
G1 X164.493 Y151.830 E103.29916
G1 X164.452 Y152.038 E103.30621
G1 X164.424 Y152.280 E103.31431
G1 X164.415 Y152.500 E103.32163
G1 X164.453 Y152.953 E103.33675
G1 X164.557 Y153.405 E103.35218
G1 X164.628 Y153.604 E103.35921
G1 X164.836 Y154.031 E103.37500
G1 X164.957 Y154.219 E103.38244
G1 X165.174 Y154.497 E103.39417
G1 X165.441 Y154.762 E103.40668
G1 X165.721 Y154.978 E103.41844
G1 X166.039 Y155.166 E103.43073
G1 X166.359 Y155.310 E103.44240
G1 X166.706 Y155.419 E103.45450
G1 X167.064 Y155.486 E103.46661
G1 X167.424 Y155.508 E103.47861
G1 X167.788 Y155.484 E103.49074
G1 X168.148 Y155.416 E103.50293
G1 X168.489 Y155.309 E103.51481
G1 X168.826 Y155.159 E103.52708
G1 X169.133 Y154.974 E103.53900
G1 X169.413 Y154.758 E103.55077
G1 X169.671 Y154.503 E103.56283
G1 X169.892 Y154.218 E103.57483
G1 X170.132 Y153.806 E103.59068
G1 X170.219 Y153.613 E103.59773
G0 F12000 X170.839 Y154.182
;TYPE:WALL-INNER
G1 F1800 X170.859 Y154.139 E103.59930
G1 X170.999 Y154.450 E103.61065
G1 X171.331 Y154.967 E103.63108
G1 X171.717 Y155.410 E103.65063
G1 X172.163 Y155.793 E103.67018
G1 X172.683 Y156.122 E103.69064
G1 X173.221 Y156.359 E103.71020
G1 X173.816 Y156.525 E103.73074
G1 X174.384 Y156.594 E103.74977
G1 X174.458 Y156.596 E103.75224
G1 X175.019 Y156.581 E103.77090
G1 X175.599 Y156.478 E103.79049
G1 X176.184 Y156.286 E103.81097
G1 X176.733 Y156.007 E103.83146
G1 X177.213 Y155.666 E103.85104
G1 X177.657 Y155.241 E103.87148
G1 X178.019 Y154.777 E103.89106
G1 X178.150 Y154.544 E103.89995
G1 X178.149 Y154.998 E103.91505
G1 X178.150 Y156.510 E103.96534
G1 X178.149 Y156.664 E103.97046
G1 X178.150 Y158.177 E104.02078
G1 X178.149 Y158.331 E104.02590
G1 X178.150 Y159.844 E104.07622
G1 X178.149 Y159.998 E104.08135
G1 X178.150 Y161.510 E104.13164
G1 X178.149 Y161.665 E104.13679
G1 X178.153 Y163.333 E104.19227
G1 X178.153 Y163.992 E104.21419
G1 X178.150 Y164.400 E104.22776
G1 X126.849 Y164.400 E105.93404
G1 X126.847 Y163.507 E105.96374
G1 X126.848 Y163.335 E105.96946
G1 X126.847 Y162.012 E106.01346
G1 X126.851 Y161.669 E106.02487
G1 X126.850 Y160.156 E106.07519
G1 X126.851 Y160.002 E106.08032
G1 X126.850 Y158.489 E106.13064
G1 X126.851 Y158.335 E106.13576
G1 X126.850 Y156.822 E106.18608
G1 X126.851 Y156.668 E106.19121
G1 X126.850 Y155.156 E106.24149
G1 X126.851 Y154.550 E106.26165
G1 X126.944 Y154.721 E106.26812
G1 X127.307 Y155.201 E106.28814
G1 X127.712 Y155.603 E106.30712
G1 X128.194 Y155.961 E106.32709
G1 X128.696 Y156.232 E106.34606
G1 X129.231 Y156.434 E106.36508
G1 X129.790 Y156.556 E106.38411
G1 X130.393 Y156.602 E106.40423
G1 X130.992 Y156.557 E106.42421
G1 X131.551 Y156.435 E106.44324
G1 X132.112 Y156.222 E106.46320
G1 X132.612 Y155.949 E106.48214
G1 X133.045 Y155.626 E106.50011
G1 X133.448 Y155.231 E106.51888
G1 X133.501 Y155.176 E106.52142
G1 X133.854 Y154.699 E106.54116
G1 X134.126 Y154.196 E106.56018
G1 X134.327 Y153.660 E106.57922
G1 X134.453 Y153.073 E106.59918
G1 X134.495 Y152.500 E106.61829
G1 X134.451 Y151.907 E106.63807
G1 X134.321 Y151.326 E106.65787
G1 X134.098 Y150.742 E106.67866
G1 X133.802 Y150.222 E106.69857
G1 X133.460 Y149.787 E106.71697
G1 X133.395 Y149.706 E106.72042
G1 X132.956 Y149.298 E106.74036
G1 X132.466 Y148.962 E106.76012
G1 X131.931 Y148.701 E106.77992
G1 X131.369 Y148.521 E106.79955
G1 X130.708 Y148.410 E106.82184
G1 X130.194 Y148.411 E106.83893
G1 X130.087 Y148.409 E106.84249
G1 X129.489 Y148.500 E106.86261
G1 X128.920 Y148.673 E106.88239
G1 X128.383 Y148.927 E106.90215
G1 X127.862 Y149.274 E106.92297
G1 X127.421 Y149.677 E106.94284
G1 X127.047 Y150.135 E106.96251
G1 X126.850 Y150.455 E106.97501
G1 X126.851 Y150.002 E106.99007
G1 X126.850 Y148.490 E107.04036
G1 X126.851 Y148.336 E107.04548
G1 X126.850 Y146.823 E107.09581
G1 X126.851 Y146.669 E107.10093
G1 X126.850 Y145.156 E107.15125
G1 X126.851 Y145.002 E107.15637
G1 X126.850 Y143.490 E107.20666
G1 X126.851 Y143.335 E107.21182
G1 X126.847 Y141.667 E107.26730
G1 X126.847 Y141.008 E107.28921
G1 X126.850 Y140.600 E107.30278
G1 X178.151 Y140.600 E109.00906
G1 X178.153 Y141.493 E109.03876
G1 X178.152 Y141.665 E109.04449
G1 X178.153 Y142.988 E109.08849
G1 X178.149 Y143.331 E109.09990
G1 X178.150 Y144.844 E109.15022
G1 X178.149 Y144.998 E109.15534
G1 X178.150 Y146.511 E109.20566
G1 X178.149 Y146.665 E109.21079
G1 X178.150 Y148.178 E109.26111
G1 X178.149 Y148.332 E109.26623
G1 X178.150 Y149.844 E109.31652
G1 X178.149 Y150.450 E109.33668
G1 X178.056 Y150.279 E109.34315
G1 X177.693 Y149.799 E109.36317
G1 X177.288 Y149.397 E109.38215
G1 X176.806 Y149.039 E109.40212
G1 X176.304 Y148.768 E109.42109
G1 X175.769 Y148.566 E109.44011
G1 X175.210 Y148.444 E109.45914
G1 X174.608 Y148.398 E109.47922
G1 X174.025 Y148.441 E109.49866
G1 X173.486 Y148.556 E109.51700
G1 X172.966 Y148.742 E109.53536
G1 X172.451 Y149.011 E109.55469
G1 X172.001 Y149.335 E109.57313
G1 X171.581 Y149.733 E109.59238
G1 X171.236 Y150.165 E109.61076
G1 X170.940 Y150.666 E109.63012
G1 X170.858 Y150.860 E109.63712
G1 X170.550 Y150.324 E109.65769
G1 X170.270 Y149.967 E109.67278
G1 X169.939 Y149.637 E109.68832
G1 X169.575 Y149.358 E109.70358
G1 X169.183 Y149.125 E109.71874
G1 X168.771 Y148.939 E109.73378
G1 X168.334 Y148.803 E109.74900
G1 X167.884 Y148.718 E109.76423
G1 X167.424 Y148.690 E109.77956
G1 X166.959 Y148.721 E109.79506
G1 X166.508 Y148.806 E109.81032
G1 X166.073 Y148.942 E109.82548
G1 X165.659 Y149.127 E109.84057
G1 X165.264 Y149.364 E109.85589
G1 X164.905 Y149.640 E109.87095
G1 X164.577 Y149.966 E109.88633
G1 X164.298 Y150.326 E109.90148
G1 X164.134 Y150.587 E109.91173
G1 X163.893 Y151.079 E109.92995
G1 X163.715 Y151.640 E109.94953
G1 X163.660 Y151.922 E109.95908
G1 X163.626 Y152.210 E109.96873
G1 X163.614 Y152.512 E109.97878
G1 X163.661 Y153.080 E109.99774
G1 X163.787 Y153.627 E110.01641
G1 X163.892 Y153.921 E110.02679
G1 X164.136 Y154.420 E110.04527
G1 X164.300 Y154.677 E110.05541
G1 X164.579 Y155.033 E110.07045
G1 X164.910 Y155.362 E110.08597
G1 X165.274 Y155.643 E110.10127
G1 X165.667 Y155.875 E110.11644
G1 X166.078 Y156.061 E110.13145
G1 X166.515 Y156.197 E110.14667
G1 X166.965 Y156.282 E110.16190
G1 X167.426 Y156.310 E110.17726
G1 X167.890 Y156.279 E110.19273
G1 X168.341 Y156.194 E110.20800
G1 X168.776 Y156.058 E110.22315
G1 X169.190 Y155.873 E110.23824
G1 X169.585 Y155.635 E110.25357
G1 X169.944 Y155.359 E110.26864
G1 X170.272 Y155.034 E110.28399
G1 X170.557 Y154.666 E110.29947
G1 X170.839 Y154.182 E110.31811
G0 F12000 X170.483 Y153.999
;TYPE:WALL-OUTER
G1 F1800 X170.677 Y153.518 E110.33536
G1 X170.745 Y153.269 E110.34394
G1 X170.794 Y153.012 E110.35264
G1 X170.835 Y152.508 E110.36946
G1 X170.792 Y151.986 E110.38688
G1 X170.677 Y151.481 E110.40411
G1 X170.590 Y151.237 E110.41272
G1 X170.482 Y150.999 E110.42142
G1 X170.362 Y150.774 E110.42990
G1 X170.223 Y150.555 E110.43853
G1 X169.971 Y150.233 E110.45213
G1 X169.675 Y149.939 E110.46600
G1 X169.350 Y149.690 E110.47962
G1 X168.998 Y149.480 E110.49325
G1 X168.628 Y149.314 E110.50674
G1 X168.237 Y149.192 E110.52036
G1 X167.835 Y149.116 E110.53397
G1 X167.425 Y149.091 E110.54763
G1 X167.010 Y149.118 E110.56146
G1 X166.605 Y149.195 E110.57518
G1 X166.215 Y149.317 E110.58877
G1 X165.844 Y149.482 E110.60227
G1 X165.490 Y149.695 E110.61601
G1 X165.169 Y149.942 E110.62948
G1 X164.877 Y150.232 E110.64317
G1 X164.626 Y150.555 E110.65678
G1 X164.484 Y150.782 E110.66568
G1 X164.262 Y151.235 E110.68246
G1 X164.173 Y151.482 E110.69119
G1 X164.055 Y151.984 E110.70835
G1 X164.015 Y152.504 E110.72569
G1 X164.057 Y153.018 E110.74285
G1 X164.172 Y153.514 E110.75978
G1 X164.261 Y153.766 E110.76867
G1 X164.485 Y154.224 E110.78563
G1 X164.627 Y154.446 E110.79439
G1 X164.878 Y154.767 E110.80794
G1 X165.174 Y155.061 E110.82182
G1 X165.499 Y155.311 E110.83546
G1 X165.852 Y155.520 E110.84910
G1 X166.221 Y155.686 E110.86256
G1 X166.612 Y155.808 E110.87618
G1 X167.014 Y155.884 E110.88979
G1 X167.425 Y155.909 E110.90349
G1 X167.839 Y155.882 E110.91728
G1 X168.244 Y155.805 E110.93100
G1 X168.634 Y155.683 E110.94459
G1 X169.005 Y155.518 E110.95809
G1 X169.359 Y155.304 E110.97185
G1 X169.680 Y155.057 E110.98532
G1 X169.972 Y154.768 E110.99899
G1 X170.225 Y154.442 E111.01271
G1 X170.483 Y153.999 E111.02976
G0 F12000 X171.134 Y153.776
G1 F1800 X171.352 Y154.259 E111.04739
G1 X171.652 Y154.726 E111.06585
G1 X172.000 Y155.125 E111.08346
G1 X172.402 Y155.470 E111.10108
G1 X172.872 Y155.768 E111.11959
G1 X173.356 Y155.982 E111.13719
G1 X173.894 Y156.132 E111.15576
G1 X174.415 Y156.195 E111.17322
G1 X174.459 Y156.196 E111.17468
G1 X174.978 Y156.182 E111.19195
G1 X175.501 Y156.089 E111.20962
G1 X176.030 Y155.915 E111.22814
G1 X176.526 Y155.664 E111.24663
G1 X176.958 Y155.357 E111.26426
G1 X177.360 Y154.972 E111.28277
G1 X177.685 Y154.555 E111.30035
G1 X177.957 Y154.069 E111.31888
G1 X178.148 Y153.575 E111.33649
G1 X178.264 Y153.058 E111.35412
G1 X178.308 Y152.501 E111.37270
G1 X178.268 Y151.959 E111.39078
G1 X178.157 Y151.456 E111.40791
G1 X177.966 Y150.949 E111.42593
G1 X177.719 Y150.497 E111.44306
G1 X177.391 Y150.063 E111.46115
G1 X177.027 Y149.701 E111.47823
G1 X176.591 Y149.377 E111.49630
G1 X176.138 Y149.133 E111.51341
G1 X175.655 Y148.951 E111.53058
G1 X175.152 Y148.841 E111.54770
G1 X174.607 Y148.799 E111.56588
G1 X174.082 Y148.838 E111.58339
G1 X173.596 Y148.941 E111.59992
G1 X173.127 Y149.109 E111.61649
G1 X172.662 Y149.352 E111.63394
G1 X172.256 Y149.644 E111.65057
G1 X171.876 Y150.004 E111.66798
G1 X171.566 Y150.393 E111.68452
G1 X171.298 Y150.846 E111.70203
G1 X171.105 Y151.306 E111.71862
G1 X170.972 Y151.816 E111.73615
G1 X170.912 Y152.298 E111.75231
G1 X170.916 Y152.494 E111.75883
G1 X170.911 Y152.661 E111.76438
G1 X170.914 Y152.730 E111.76668
G1 X170.982 Y153.241 E111.78383
G1 X171.134 Y153.776 E111.80233
G1 F2100 E111.40233
G0 F12000 X178.549 Y153.332
G1 F2100 E111.80233
G1 F1800 X178.550 Y154.847 E111.85271
G1 X178.549 Y154.999 E111.85777
G1 X178.550 Y156.513 E111.90813
G1 X178.549 Y156.665 E111.91318
G1 X178.550 Y158.180 E111.96357
G1 X178.549 Y158.332 E111.96863
G1 X178.550 Y159.847 E112.01902
G1 X178.549 Y159.999 E112.02407
G1 X178.550 Y161.513 E112.07443
G1 X178.549 Y161.666 E112.07952
G1 X178.553 Y163.995 E112.15698
G1 X178.547 Y164.800 E112.18375
G1 X126.453 Y164.800 E113.91641
G1 X126.447 Y164.166 E113.93750
G1 X126.447 Y163.504 E113.95951
G1 X126.448 Y163.334 E113.96517
G1 X126.447 Y162.007 E114.00930
G1 X126.451 Y161.667 E114.02061
G1 X126.450 Y160.153 E114.07097
G1 X126.451 Y160.001 E114.07602
G1 X126.450 Y158.486 E114.12641
G1 X126.451 Y158.334 E114.13147
G1 X126.450 Y156.819 E114.18186
G1 X126.451 Y156.667 E114.18691
G1 X126.450 Y155.153 E114.23727
G1 X126.451 Y155.001 E114.24233
G1 X126.450 Y153.486 E114.29271
G1 X126.451 Y153.334 E114.29777
G1 X126.450 Y151.820 E114.34813
G1 X126.451 Y151.668 E114.35318
G1 X126.450 Y150.153 E114.40357
G1 X126.451 Y150.001 E114.40863
G1 X126.450 Y148.487 E114.45898
G1 X126.451 Y148.335 E114.46404
G1 X126.450 Y146.820 E114.51443
G1 X126.451 Y146.668 E114.51948
G1 X126.450 Y145.153 E114.56987
G1 X126.451 Y145.001 E114.57493
G1 X126.450 Y143.487 E114.62528
G1 X126.451 Y143.334 E114.63037
G1 X126.447 Y141.005 E114.70784
G1 X126.453 Y140.200 E114.73461
G1 X178.547 Y140.200 E116.46726
G1 X178.553 Y140.834 E116.48835
G1 X178.553 Y141.496 E116.51037
G1 X178.552 Y141.666 E116.51602
G1 X178.553 Y142.993 E116.56016
G1 X178.549 Y143.333 E116.57147
G1 X178.550 Y144.847 E116.62183
G1 X178.549 Y144.999 E116.62688
G1 X178.550 Y146.514 E116.67727
G1 X178.549 Y146.666 E116.68233
G1 X178.550 Y148.181 E116.73272
G1 X178.549 Y148.333 E116.73777
G1 X178.550 Y149.847 E116.78813
G1 X178.549 Y149.999 E116.79318
G1 X178.550 Y151.514 E116.84357
G1 X178.549 Y151.666 E116.84863
G1 X178.550 Y153.180 E116.89898
G1 X178.549 Y153.332 E116.90404
G1 F2100 E116.50404
G0 F12000 X134.094 Y152.500
G1 F2100 E116.90404
G1 F1800 X134.054 Y151.966 E116.92185
G1 X133.937 Y151.441 E116.93974
G1 X133.735 Y150.913 E116.95854
G1 X133.469 Y150.446 E116.97642
G1 X133.146 Y150.035 E116.99380
G1 X132.705 Y149.611 E117.01415
G1 X132.264 Y149.309 E117.03193
G1 X131.782 Y149.073 E117.04978
G1 X131.253 Y148.904 E117.06825
G1 X130.678 Y148.810 E117.08763
G1 X130.187 Y148.811 E117.10396
G1 X130.114 Y148.810 E117.10639
G1 X129.578 Y148.891 E117.12442
G1 X129.065 Y149.047 E117.14225
G1 X128.580 Y149.276 E117.16009
G1 X128.109 Y149.590 E117.17892
G1 X127.712 Y149.953 E117.19681
G1 X127.362 Y150.382 E117.21522
G1 X127.066 Y150.880 E117.23449
G1 X126.856 Y151.408 E117.25339
G1 X126.736 Y151.933 E117.27130
G1 X126.695 Y152.455 E117.28872
G1 X126.693 Y152.501 E117.29025
G1 X126.732 Y153.041 E117.30826
G1 X126.843 Y153.544 E117.32539
G1 X127.034 Y154.051 E117.34341
G1 X127.281 Y154.503 E117.36054
G1 X127.609 Y154.937 E117.37863
G1 X127.973 Y155.299 E117.39571
G1 X128.409 Y155.623 E117.41378
G1 X128.862 Y155.867 E117.43089
G1 X129.345 Y156.049 E117.44806
G1 X129.848 Y156.159 E117.46518
G1 X130.393 Y156.201 E117.48336
G1 X130.934 Y156.160 E117.50141
G1 X131.437 Y156.050 E117.51853
G1 X131.945 Y155.858 E117.53660
G1 X132.395 Y155.612 E117.55365
G1 X132.784 Y155.321 E117.56981
G1 X133.163 Y154.950 E117.58745
G1 X133.516 Y154.484 E117.60690
G1 X133.761 Y154.030 E117.62405
G1 X133.942 Y153.547 E117.64121
G1 X134.056 Y153.016 E117.65927
G1 X134.094 Y152.500 E117.67648
G0 F12000 X134.400 Y151.139
;TYPE:SKIN
G1 F1800 X134.400 Y140.740 E118.02235
G0 F12000 X134.000 Y140.740
G1 F1800 X134.000 Y150.287 E118.33989
G0 F12000 X133.600 Y149.738
G1 F1800 X133.600 Y140.740 E118.63916
G0 F12000 X133.200 Y140.740
G1 F1800 X133.200 Y149.333 E118.92497
G0 F12000 X132.800 Y149.022
G1 F1800 X132.800 Y140.740 E119.20043
G0 F12000 X132.400 Y140.740
G1 F1800 X132.400 Y148.773 E119.46761
G0 F12000 X132.000 Y148.578
G1 F1800 X132.000 Y140.740 E119.72830
G0 F12000 X131.600 Y140.740
G1 F1800 X131.600 Y148.447 E119.98464
G0 F12000 X131.200 Y148.350
G1 F1800 X131.200 Y140.740 E120.23774
G0 F12000 X130.800 Y140.740
G1 F1800 X130.800 Y148.283 E120.48863
G0 F12000 X130.400 Y148.271
G1 F1800 X130.400 Y140.740 E120.73911
G0 F12000 X130.000 Y140.740
G1 F1800 X130.000 Y148.281 E120.98992
G0 F12000 X129.600 Y148.342
G1 F1800 X129.600 Y140.740 E121.24277
G0 F12000 X129.200 Y140.740
G1 F1800 X129.200 Y148.442 E121.49894
G0 F12000 X128.800 Y148.575
G1 F1800 X128.800 Y140.740 E121.75953
G0 F12000 X128.400 Y140.740
G1 F1800 X128.400 Y148.764 E122.02641
G0 F12000 X128.000 Y149.014
G1 F1800 X128.000 Y140.740 E122.30160
G0 F12000 X127.600 Y140.740
G1 F1800 X127.600 Y149.323 E122.58707
G0 F12000 X127.200 Y149.727
G1 F1800 X127.200 Y140.740 E122.88598
G1 F2100 E122.48598
G0 F12000 X134.800 Y140.740
G1 F2100 E122.88598
G1 F1800 X134.800 Y164.260 E123.66826
G0 F12000 X134.400 Y164.260
G1 F1800 X134.400 Y153.863 E124.01407
G0 F12000 X134.000 Y154.722
G1 F1800 X134.000 Y164.260 E124.33130
G0 F12000 X133.600 Y164.260
G1 F1800 X133.600 Y155.275 E124.63014
G0 F12000 X133.200 Y155.669
G1 F1800 X133.200 Y164.260 E124.91588
G0 F12000 X132.800 Y164.260
G1 F1800 X132.800 Y155.983 E125.19118
G0 F12000 X132.400 Y156.223
G1 F1800 X132.400 Y164.260 E125.45849
G0 F12000 X132.000 Y164.260
G1 F1800 X132.000 Y156.414 E125.71945
G0 F12000 X131.600 Y156.566
G1 F1800 X131.600 Y164.260 E125.97535
G0 F12000 X131.200 Y164.260
G1 F1800 X131.200 Y156.653 E126.22836
G0 F12000 X130.800 Y156.711
G1 F1800 X130.800 Y164.260 E126.47944
G0 F12000 X130.400 Y164.260
G1 F1800 X130.400 Y156.742 E126.72949
G0 F12000 X130.000 Y156.713
G1 F1800 X130.000 Y164.260 E126.98051
G0 F12000 X129.600 Y164.260
G1 F1800 X129.600 Y156.657 E127.23338
G0 F12000 X129.200 Y156.570
G1 F1800 X129.200 Y164.260 E127.48915
G0 F12000 X128.800 Y164.260
G1 F1800 X128.800 Y156.421 E127.74988
G0 F12000 X128.400 Y156.231
G1 F1800 X128.400 Y164.260 E128.01692
G0 F12000 X128.000 Y164.260
G1 F1800 X128.000 Y155.991 E128.29195
G0 F12000 X127.600 Y155.690
G1 F1800 X127.600 Y164.260 E128.57699
G0 F12000 X127.200 Y164.260
G1 F1800 X127.200 Y155.292 E128.87527
G1 F2100 E128.47527
G0 F12000 X135.200 Y164.260
G1 F2100 E128.87527
G1 F1800 X135.200 Y140.740 E129.65755
G0 F12000 X135.600 Y140.740
G1 F1800 X135.600 Y164.260 E130.43983
G0 F12000 X136.000 Y164.260
G1 F1800 X136.000 Y140.740 E131.22210
G0 F12000 X136.400 Y140.740
G1 F1800 X136.400 Y164.260 E132.00438
G0 F12000 X136.800 Y164.260
G1 F1800 X136.800 Y140.740 E132.78666
G0 F12000 X137.200 Y140.740
G1 F1800 X137.200 Y164.260 E133.56894
G0 F12000 X137.600 Y164.260
G1 F1800 X137.600 Y140.740 E134.35122
G0 F12000 X138.000 Y140.740
G1 F1800 X138.000 Y164.260 E135.13350
G0 F12000 X138.400 Y164.260
G1 F1800 X138.400 Y140.740 E135.91577
G0 F12000 X138.800 Y140.740
G1 F1800 X138.800 Y164.260 E136.69805
G0 F12000 X139.200 Y164.260
G1 F1800 X139.200 Y140.740 E137.48033
G0 F12000 X139.600 Y140.740
G1 F1800 X139.600 Y164.260 E138.26261
G0 F12000 X140.000 Y164.260
G1 F1800 X140.000 Y140.740 E139.04489
G0 F12000 X140.400 Y140.740
G1 F1800 X140.400 Y164.260 E139.82717
G0 F12000 X140.800 Y164.260
G1 F1800 X140.800 Y140.740 E140.60944
G0 F12000 X141.200 Y140.740
G1 F1800 X141.200 Y164.260 E141.39172
G0 F12000 X141.600 Y164.260
G1 F1800 X141.600 Y140.740 E142.17400
G0 F12000 X142.000 Y140.740
G1 F1800 X142.000 Y164.260 E142.95628
G0 F12000 X142.400 Y164.260
G1 F1800 X142.400 Y140.740 E143.73856
G0 F12000 X142.800 Y140.740
G1 F1800 X142.800 Y164.260 E144.52084
G0 F12000 X143.200 Y164.260
G1 F1800 X143.200 Y140.740 E145.30311
G0 F12000 X143.600 Y140.740
G1 F1800 X143.600 Y164.260 E146.08539
G0 F12000 X144.000 Y164.260
G1 F1800 X144.000 Y140.740 E146.86767
G0 F12000 X144.400 Y140.740
G1 F1800 X144.400 Y164.260 E147.64995
G0 F12000 X144.800 Y164.260
G1 F1800 X144.800 Y140.740 E148.43223
G0 F12000 X145.200 Y140.740
G1 F1800 X145.200 Y164.260 E149.21451
G0 F12000 X145.600 Y164.260
G1 F1800 X145.600 Y140.740 E149.99679
G0 F12000 X146.000 Y140.740
G1 F1800 X146.000 Y164.260 E150.77906
G0 F12000 X146.400 Y164.260
G1 F1800 X146.400 Y140.740 E151.56134
G0 F12000 X146.800 Y140.740
G1 F1800 X146.800 Y164.260 E152.34362
G0 F12000 X147.200 Y164.260
G1 F1800 X147.200 Y140.740 E153.12590
G0 F12000 X147.600 Y140.740
G1 F1800 X147.600 Y164.260 E153.90818
G0 F12000 X148.000 Y164.260
G1 F1800 X148.000 Y140.740 E154.69046
G0 F12000 X148.400 Y140.740
G1 F1800 X148.400 Y164.260 E155.47273
G0 F12000 X148.800 Y164.260
G1 F1800 X148.800 Y140.740 E156.25501
G0 F12000 X149.200 Y140.740
G1 F1800 X149.200 Y164.260 E157.03729
G0 F12000 X149.600 Y164.260
G1 F1800 X149.600 Y140.740 E157.81957
G0 F12000 X150.000 Y140.740
G1 F1800 X150.000 Y164.260 E158.60185
G0 F12000 X150.400 Y164.260
G1 F1800 X150.400 Y140.740 E159.38413
G0 F12000 X150.800 Y140.740
G1 F1800 X150.800 Y164.260 E160.16640
G0 F12000 X151.200 Y164.260
G1 F1800 X151.200 Y140.740 E160.94868
G0 F12000 X151.600 Y140.740
G1 F1800 X151.600 Y164.260 E161.73096
G0 F12000 X152.000 Y164.260
G1 F1800 X152.000 Y140.740 E162.51324
G0 F12000 X152.400 Y140.740
G1 F1800 X152.400 Y164.260 E163.29552
G0 F12000 X152.800 Y164.260
G1 F1800 X152.800 Y140.740 E164.07780
G0 F12000 X153.200 Y140.740
G1 F1800 X153.200 Y164.260 E164.86007
G0 F12000 X153.600 Y164.260
G1 F1800 X153.600 Y140.740 E165.64235
G0 F12000 X154.000 Y140.740
G1 F1800 X154.000 Y164.260 E166.42463
G0 F12000 X154.400 Y164.260
G1 F1800 X154.400 Y140.740 E167.20691
G0 F12000 X154.800 Y140.740
G1 F1800 X154.800 Y164.260 E167.98919
G0 F12000 X155.200 Y164.260
G1 F1800 X155.200 Y140.740 E168.77147
G0 F12000 X155.600 Y140.740
G1 F1800 X155.600 Y164.260 E169.55374
G0 F12000 X156.000 Y164.260
G1 F1800 X156.000 Y140.740 E170.33602
G0 F12000 X156.400 Y140.740
G1 F1800 X156.400 Y164.260 E171.11830
G0 F12000 X156.800 Y164.260
G1 F1800 X156.800 Y140.740 E171.90058
G0 F12000 X157.200 Y140.740
G1 F1800 X157.200 Y164.260 E172.68286
G0 F12000 X157.600 Y164.260
G1 F1800 X157.600 Y140.740 E173.46514
G0 F12000 X158.000 Y140.740
G1 F1800 X158.000 Y164.260 E174.24741
G0 F12000 X158.400 Y164.260
G1 F1800 X158.400 Y140.740 E175.02969
G0 F12000 X158.800 Y140.740
G1 F1800 X158.800 Y164.260 E175.81197
G0 F12000 X159.200 Y164.260
G1 F1800 X159.200 Y140.740 E176.59425
G0 F12000 X159.600 Y140.740
G1 F1800 X159.600 Y164.260 E177.37653
G0 F12000 X160.000 Y164.260
G1 F1800 X160.000 Y140.740 E178.15881
G0 F12000 X160.400 Y140.740
G1 F1800 X160.400 Y164.260 E178.94108
G0 F12000 X160.800 Y164.260
G1 F1800 X160.800 Y140.740 E179.72336
G0 F12000 X161.200 Y140.740
G1 F1800 X161.200 Y164.260 E180.50564
G0 F12000 X161.600 Y164.260
G1 F1800 X161.600 Y140.740 E181.28792
G0 F12000 X162.000 Y140.740
G1 F1800 X162.000 Y164.260 E182.07020
G0 F12000 X162.400 Y164.260
G1 F1800 X162.400 Y140.740 E182.85248
G0 F12000 X162.800 Y140.740
G1 F1800 X162.800 Y164.260 E183.63476
G0 F12000 X163.200 Y164.260
G1 F1800 X163.200 Y140.740 E184.41703
G0 F12000 X163.600 Y140.740
G1 F1800 X163.600 Y151.539 E184.77621
G0 F12000 X164.000 Y150.543
G1 F1800 X164.000 Y140.740 E185.10226
G0 F12000 X164.400 Y140.740
G1 F1800 X164.400 Y149.966 E185.40912
G0 F12000 X164.800 Y149.547
G1 F1800 X164.800 Y140.740 E185.70204
G0 F12000 X165.200 Y140.740
G1 F1800 X165.200 Y149.239 E185.98472
G0 F12000 X165.600 Y149.000
G1 F1800 X165.600 Y140.740 E186.25945
G0 F12000 X166.000 Y140.740
G1 F1800 X166.000 Y148.822 E186.52825
G0 F12000 X166.400 Y148.694
G1 F1800 X166.400 Y140.740 E186.79281
G0 F12000 X166.800 Y140.740
G1 F1800 X166.800 Y148.609 E187.05453
G0 F12000 X167.200 Y148.565
G1 F1800 X167.200 Y140.740 E187.31479
G0 F12000 X167.600 Y140.740
G1 F1800 X167.600 Y148.560 E187.57488
G0 F12000 X168.000 Y148.597
G1 F1800 X168.000 Y140.740 E187.83621
G0 F12000 X168.400 Y140.740
G1 F1800 X168.400 Y148.677 E188.10019
G0 F12000 X168.800 Y148.801
G1 F1800 X168.800 Y140.740 E188.36830
G0 F12000 X169.200 Y140.740
G1 F1800 X169.200 Y148.978 E188.64230
G0 F12000 X169.600 Y149.210
G1 F1800 X169.600 Y140.740 E188.92401
G0 F12000 X170.000 Y140.740
G1 F1800 X170.000 Y149.507 E189.21561
G0 F12000 X170.400 Y149.905
G1 F1800 X170.400 Y140.740 E189.52044
G0 F12000 X170.800 Y140.740
G1 F1800 X170.800 Y150.479 E189.84436
G0 F12000 X171.200 Y149.986
G1 F1800 X171.200 Y140.740 E190.15188
G0 F12000 X171.600 Y140.740
G1 F1800 X171.600 Y149.522 E190.44397
G0 F12000 X172.000 Y149.164
G1 F1800 X172.000 Y140.740 E190.72415
G0 F12000 X172.400 Y140.740
G1 F1800 X172.400 Y148.880 E190.99489
G0 F12000 X172.800 Y148.671
G1 F1800 X172.800 Y140.740 E191.25868
G0 F12000 X173.200 Y140.740
G1 F1800 X173.200 Y148.509 E191.51707
G0 F12000 X173.600 Y148.389
G1 F1800 X173.600 Y140.740 E191.77148
G0 F12000 X174.000 Y140.740
G1 F1800 X174.000 Y148.305 E192.02309
G0 F12000 X174.400 Y148.273
G1 F1800 X174.400 Y140.740 E192.27364
G0 F12000 X174.800 Y140.740
G1 F1800 X174.800 Y148.272 E192.52416
G0 F12000 X175.200 Y148.303
G1 F1800 X175.200 Y140.740 E192.77570
G0 F12000 X175.600 Y140.740
G1 F1800 X175.600 Y148.386 E193.03001
G0 F12000 X176.000 Y148.503
G1 F1800 X176.000 Y140.740 E193.28821
G0 F12000 X176.400 Y140.740
G1 F1800 X176.400 Y148.661 E193.55166
G0 F12000 X176.800 Y148.877
G1 F1800 X176.800 Y140.740 E193.82230
G0 F12000 X177.200 Y140.740
G1 F1800 X177.200 Y149.157 E194.10225
G0 F12000 X177.600 Y149.509
G1 F1800 X177.600 Y140.740 E194.39391
G0 F12000 X178.000 Y140.740
G1 F1800 X178.000 Y149.853 E194.69701
G1 F2100 E194.29701
G0 F12000 X178.000 Y155.144
G1 F2100 E194.69701
G1 F1800 X178.000 Y164.260 E195.00021
G0 F12000 X177.600 Y164.260
G1 F1800 X177.600 Y155.489 E195.29193
G0 F12000 X177.200 Y155.847
G1 F1800 X177.200 Y164.260 E195.57175
G0 F12000 X176.800 Y164.260
G1 F1800 X176.800 Y156.130 E195.84216
G0 F12000 X176.400 Y156.332
G1 F1800 X176.400 Y164.260 E196.10584
G0 F12000 X176.000 Y164.260
G1 F1800 X176.000 Y156.493 E196.36417
G0 F12000 X175.600 Y156.619
G1 F1800 X175.600 Y164.260 E196.61831
G0 F12000 X175.200 Y164.260
G1 F1800 X175.200 Y156.691 E196.87006
G0 F12000 X174.800 Y156.727
G1 F1800 X174.800 Y164.260 E197.12061
G0 F12000 X174.400 Y164.260
G1 F1800 X174.400 Y156.735 E197.37089
G0 F12000 X174.000 Y156.689
G1 F1800 X174.000 Y164.260 E197.62270
G0 F12000 X173.600 Y164.260
G1 F1800 X173.600 Y156.611 E197.87711
G0 F12000 X173.200 Y156.499
G1 F1800 X173.200 Y164.260 E198.13524
G0 F12000 X172.800 Y164.260
G1 F1800 X172.800 Y156.327 E198.39910
G0 F12000 X172.400 Y156.108
G1 F1800 X172.400 Y164.260 E198.67023
G0 F12000 X172.000 Y164.260
G1 F1800 X172.000 Y155.838 E198.95035
G0 F12000 X171.600 Y155.489
G1 F1800 X171.600 Y164.260 E199.24207
G0 F12000 X171.200 Y164.260
G1 F1800 X171.200 Y155.022 E199.54933
G0 F12000 X170.800 Y154.525
G1 F1800 X170.800 Y164.260 E199.87312
G0 F12000 X170.400 Y164.260
G1 F1800 X170.400 Y155.098 E200.17785
G0 F12000 X170.000 Y155.491
G1 F1800 X170.000 Y164.260 E200.46951
G0 F12000 X169.600 Y164.260
G1 F1800 X169.600 Y155.789 E200.75125
G0 F12000 X169.200 Y156.022
G1 F1800 X169.200 Y164.260 E201.02525
G0 F12000 X168.800 Y164.260
G1 F1800 X168.800 Y156.197 E201.29343
G0 F12000 X168.400 Y156.321
G1 F1800 X168.400 Y164.260 E201.55748
G0 F12000 X168.000 Y164.260
G1 F1800 X168.000 Y156.400 E201.81890
G0 F12000 X167.600 Y156.438
G1 F1800 X167.600 Y164.260 E202.07906
G0 F12000 X167.200 Y164.260
G1 F1800 X167.200 Y156.437 E202.33926
G0 F12000 X166.800 Y156.394
G1 F1800 X166.800 Y164.260 E202.60088
G0 F12000 X166.400 Y164.260
G1 F1800 X166.400 Y156.308 E202.86537
G0 F12000 X166.000 Y156.179
G1 F1800 X166.000 Y164.260 E203.13414
G0 F12000 X165.600 Y164.260
G1 F1800 X165.600 Y155.998 E203.40894
G0 F12000 X165.200 Y155.762
G1 F1800 X165.200 Y164.260 E203.69158
G0 F12000 X164.800 Y164.260
G1 F1800 X164.800 Y155.451 E203.98457
G0 F12000 X164.400 Y155.033
G1 F1800 X164.400 Y164.260 E204.29146
G0 F12000 X164.000 Y164.260
G1 F1800 X164.000 Y154.462 E204.61734
G0 F12000 X163.600 Y153.442
G1 F1800 X163.600 Y164.260 E204.97715
G1 F2100 E204.57715
G0 F12000 X166.556 Y177.719
;TYPE:WALL-INNER
G1 F2100 E204.97715
G1 F1800 X166.137 Y177.840 E204.99166
G1 X165.735 Y178.008 E205.00615
G1 X165.353 Y178.218 E205.02065
G1 X164.996 Y178.470 E205.03518
G1 X164.660 Y178.771 E205.05019
G1 X164.197 Y179.342 E205.07464
G1 X163.824 Y180.072 E205.10190
G1 X163.759 Y180.231 E205.10761
G1 X163.600 Y180.838 E205.12848
G1 X163.557 Y181.175 E205.13978
G1 X163.542 Y181.500 E205.15061
G1 X163.557 Y181.839 E205.16189
G1 X163.666 Y182.465 E205.18303
G1 X163.880 Y183.076 E205.20456
G1 X164.192 Y183.649 E205.22626
G1 X164.660 Y184.229 E205.25105
G1 X164.997 Y184.529 E205.26605
G1 X165.354 Y184.782 E205.28061
G1 X165.737 Y184.993 E205.29515
G1 X166.137 Y185.159 E205.30955
G1 X166.557 Y185.281 E205.32410
G1 X166.987 Y185.356 E205.33862
G1 X167.425 Y185.381 E205.35321
G1 X167.862 Y185.356 E205.36777
G1 X168.293 Y185.280 E205.38232
G1 X168.712 Y185.159 E205.39683
G1 X169.114 Y184.991 E205.41132
G1 X169.496 Y184.781 E205.42582
G1 X169.852 Y184.529 E205.44033
G1 X170.189 Y184.229 E205.45533
G1 X170.650 Y183.659 E205.47972
G1 X170.857 Y183.297 E205.49359
G1 X170.857 Y183.664 E205.50579
G1 X174.607 Y185.830 E205.64983
G1 X178.150 Y183.784 E205.78591
G1 X178.149 Y183.998 E205.79302
G1 X178.150 Y185.510 E205.84331
G1 X178.149 Y185.664 E205.84844
G1 X178.150 Y187.177 E205.89876
G1 X178.149 Y187.331 E205.90388
G1 X178.150 Y188.844 E205.95420
G1 X178.149 Y188.998 E205.95932
G1 X178.150 Y190.510 E206.00961
G1 X178.149 Y190.665 E206.01477
G1 X178.153 Y192.333 E206.07025
G1 X178.153 Y192.992 E206.09217
G1 X178.150 Y193.400 E206.10574
G1 X126.849 Y193.400 E207.81201
G1 X126.847 Y192.507 E207.84172
G1 X126.848 Y192.335 E207.84744
G1 X126.847 Y191.012 E207.89144
G1 X126.851 Y190.669 E207.90285
G1 X126.850 Y189.156 E207.95317
G1 X126.851 Y189.002 E207.95829
G1 X126.850 Y187.489 E208.00862
G1 X126.851 Y187.335 E208.01374
G1 X126.850 Y185.822 E208.06406
G1 X126.851 Y185.668 E208.06918
G1 X126.850 Y184.156 E208.11947
G1 X126.851 Y183.784 E208.13185
G1 X130.393 Y185.830 E208.26790
G1 X134.143 Y183.664 E208.41193
G1 X134.143 Y179.335 E208.55591
G1 X130.393 Y177.169 E208.69995
G1 X126.850 Y179.215 E208.83603
G1 X126.851 Y179.002 E208.84311
G1 X126.850 Y177.489 E208.89344
G1 X126.851 Y177.335 E208.89856
G1 X126.850 Y175.822 E208.94888
G1 X126.851 Y175.668 E208.95400
G1 X126.850 Y174.156 E209.00429
G1 X126.851 Y174.002 E209.00941
G1 X126.850 Y172.489 E209.05974
G1 X126.851 Y172.334 E209.06489
G1 X126.847 Y170.666 E209.12037
G1 X126.847 Y170.007 E209.14229
G1 X126.850 Y169.600 E209.15583
G1 X178.151 Y169.600 E210.86210
G1 X178.153 Y170.492 E210.89177
G1 X178.152 Y170.664 E210.89749
G1 X178.153 Y171.987 E210.94150
G1 X178.149 Y172.330 E210.95291
G1 X178.150 Y173.844 E211.00326
G1 X178.149 Y173.998 E211.00838
G1 X178.150 Y175.510 E211.05867
G1 X178.149 Y175.664 E211.06379
G1 X178.150 Y177.177 E211.11412
G1 X178.149 Y177.331 E211.11924
G1 X178.150 Y178.844 E211.16956
G1 X178.149 Y179.215 E211.18190
G1 X174.607 Y177.169 E211.31795
G1 X170.857 Y179.335 E211.46199
G1 X170.857 Y179.715 E211.47463
G1 X170.658 Y179.350 E211.48845
G1 X170.188 Y178.769 E211.51331
G1 X169.851 Y178.470 E211.52829
G1 X169.495 Y178.217 E211.54282
G1 X169.112 Y178.006 E211.55736
G1 X168.711 Y177.840 E211.57180
G1 X168.292 Y177.718 E211.58631
G1 X167.862 Y177.643 E211.60083
G1 X167.425 Y177.618 E211.61539
G1 X166.987 Y177.643 E211.62998
G1 X166.556 Y177.719 E211.64454
G0 F12000 X166.647 Y178.109
;TYPE:WALL-OUTER
G1 F1800 X166.270 Y178.218 E211.65759
G1 X165.909 Y178.369 E211.67060
G1 X165.566 Y178.557 E211.68361
G1 X165.246 Y178.783 E211.69664
G1 X164.951 Y179.048 E211.70983
G1 X164.527 Y179.571 E211.73223
G1 X164.434 Y179.729 E211.73832
G1 X164.189 Y180.235 E211.75702
G1 X164.139 Y180.358 E211.76144
G1 X163.993 Y180.915 E211.78059
G1 X163.956 Y181.209 E211.79045
G1 X163.943 Y181.500 E211.80013
G1 X163.956 Y181.796 E211.80999
G1 X164.055 Y182.364 E211.82917
G1 X164.247 Y182.913 E211.84851
G1 X164.526 Y183.426 E211.86793
G1 X164.951 Y183.952 E211.89042
G1 X165.246 Y184.216 E211.90359
G1 X165.567 Y184.443 E211.91667
G1 X165.910 Y184.632 E211.92969
G1 X166.270 Y184.781 E211.94265
G1 X166.648 Y184.891 E211.95575
G1 X167.033 Y184.958 E211.96874
G1 X167.425 Y184.980 E211.98180
G1 X167.816 Y184.958 E211.99483
G1 X168.202 Y184.890 E212.00786
G1 X168.579 Y184.781 E212.02092
G1 X168.940 Y184.630 E212.03393
G1 X169.283 Y184.442 E212.04694
G1 X169.603 Y184.216 E212.05997
G1 X169.898 Y183.952 E212.07314
G1 X170.321 Y183.429 E212.09551
G1 X170.476 Y183.171 E212.10552
G1 X170.710 Y182.643 E212.12473
G1 X170.856 Y182.083 E212.14398
G1 X170.893 Y181.784 E212.15400
G1 X170.890 Y181.484 E212.16398
G1 X170.893 Y181.214 E212.17296
G1 X170.856 Y180.919 E212.18285
G1 X170.794 Y180.630 E212.19268
G1 X170.603 Y180.086 E212.21185
G1 X170.324 Y179.573 E212.23128
G1 X169.898 Y179.046 E212.25381
G1 X169.602 Y178.783 E212.26698
G1 X169.282 Y178.556 E212.28003
G1 X168.939 Y178.367 E212.29306
G1 X168.578 Y178.218 E212.30605
G1 X168.201 Y178.108 E212.31911
G1 X167.816 Y178.041 E212.33211
G1 X167.425 Y178.019 E212.34513
G1 X167.033 Y178.041 E212.35819
G1 X166.647 Y178.109 E212.37123
G1 F2100 E211.97123
G0 F12000 X171.257 Y179.566
G1 F2100 E212.37123
G1 F1800 X171.257 Y183.433 E212.49984
G1 X174.607 Y185.368 E212.62852
G1 X177.957 Y183.433 E212.75719
G1 X177.957 Y179.566 E212.88581
G1 X174.607 Y177.631 E213.01448
G1 X171.257 Y179.566 E213.14315
G1 F2100 E212.74315
G0 F12000 X178.549 Y178.999
G1 F2100 E213.14315
G1 F1800 X178.550 Y180.513 E213.19351
G1 X178.549 Y180.665 E213.19857
G1 X178.550 Y182.180 E213.24895
G1 X178.549 Y182.332 E213.25401
G1 X178.550 Y183.847 E213.30440
G1 X178.549 Y183.999 E213.30945
G1 X178.550 Y185.513 E213.35981
G1 X178.549 Y185.665 E213.36487
G1 X178.550 Y187.180 E213.41526
G1 X178.549 Y187.332 E213.42031
G1 X178.550 Y188.847 E213.47070
G1 X178.549 Y188.999 E213.47576
G1 X178.550 Y190.513 E213.52611
G1 X178.549 Y190.666 E213.53120
G1 X178.553 Y192.995 E213.60866
G1 X178.547 Y193.800 E213.63544
G1 X126.453 Y193.800 E215.36809
G1 X126.447 Y193.166 E215.38918
G1 X126.447 Y192.504 E215.41120
G1 X126.448 Y192.334 E215.41685
G1 X126.447 Y191.007 E215.46099
G1 X126.451 Y190.667 E215.47230
G1 X126.450 Y189.153 E215.52265
G1 X126.451 Y189.001 E215.52771
G1 X126.450 Y187.486 E215.57810
G1 X126.451 Y187.334 E215.58315
G1 X126.450 Y185.819 E215.63354
G1 X126.451 Y185.667 E215.63860
G1 X126.450 Y184.153 E215.68895
G1 X126.451 Y184.001 E215.69401
G1 X126.450 Y182.486 E215.74440
G1 X126.451 Y182.334 E215.74946
G1 X126.450 Y180.819 E215.79984
G1 X126.451 Y180.667 E215.80490
G1 X126.450 Y179.153 E215.85526
G1 X126.451 Y179.001 E215.86031
G1 X126.450 Y177.486 E215.91070
G1 X126.451 Y177.334 E215.91576
G1 X126.450 Y175.819 E215.96615
G1 X126.451 Y175.667 E215.97120
G1 X126.450 Y174.153 E216.02156
G1 X126.451 Y174.001 E216.02661
G1 X126.450 Y172.486 E216.07700
G1 X126.451 Y172.333 E216.08209
G1 X126.447 Y170.004 E216.15955
G1 X126.453 Y169.200 E216.18630
G1 X178.547 Y169.200 E217.91895
G1 X178.553 Y169.833 E217.94000
G1 X178.553 Y170.495 E217.96202
G1 X178.552 Y170.665 E217.96768
G1 X178.553 Y171.992 E218.01181
G1 X178.549 Y172.332 E218.02312
G1 X178.550 Y173.847 E218.07351
G1 X178.549 Y173.999 E218.07857
G1 X178.550 Y175.513 E218.12892
G1 X178.549 Y175.665 E218.13398
G1 X178.550 Y177.180 E218.18437
G1 X178.549 Y177.332 E218.18942
G1 X178.550 Y178.847 E218.23981
G1 X178.549 Y178.999 E218.24487
G1 F2100 E217.84487
G0 F12000 X133.743 Y179.566
G1 F2100 E218.24487
G1 F1800 X130.393 Y177.631 E218.37354
G1 X127.043 Y179.566 E218.50221
G1 X127.043 Y183.433 E218.63083
G1 X130.393 Y185.368 E218.75950
G1 X133.743 Y183.433 E218.88818
G1 X133.743 Y179.566 E219.01679
G0 F12000 X134.000 Y179.091
;TYPE:SKIN
G1 F1800 X134.000 Y169.740 E219.32781
G0 F12000 X133.600 Y169.740
G1 F1800 X133.600 Y178.860 E219.63114
G0 F12000 X133.200 Y178.629
G1 F1800 X133.200 Y169.740 E219.92679
G0 F12000 X132.800 Y169.740
G1 F1800 X132.800 Y178.397 E220.21472
G0 F12000 X132.400 Y178.166
G1 F1800 X132.400 Y169.740 E220.49497
G0 F12000 X132.000 Y169.740
G1 F1800 X132.000 Y177.935 E220.76754
G0 F12000 X131.600 Y177.704
G1 F1800 X131.600 Y169.740 E221.03242
G0 F12000 X131.200 Y169.740
G1 F1800 X131.200 Y177.473 E221.28962
G0 F12000 X130.800 Y177.242
G1 F1800 X130.800 Y169.740 E221.53914
G0 F12000 X130.400 Y169.740
G1 F1800 X130.400 Y177.011 E221.78098
G0 F12000 X130.000 Y177.234
G1 F1800 X130.000 Y169.740 E222.03023
G0 F12000 X129.600 Y169.740
G1 F1800 X129.600 Y177.466 E222.28720
G0 F12000 X129.200 Y177.697
G1 F1800 X129.200 Y169.740 E222.55185
G0 F12000 X128.800 Y169.740
G1 F1800 X128.800 Y177.928 E222.82418
G0 F12000 X128.400 Y178.159
G1 F1800 X128.400 Y169.740 E223.10420
G0 F12000 X128.000 Y169.740
G1 F1800 X128.000 Y178.390 E223.39190
G0 F12000 X127.600 Y178.621
G1 F1800 X127.600 Y169.740 E223.68728
G0 F12000 X127.200 Y169.740
G1 F1800 X127.200 Y178.852 E223.99035
G1 F2100 E223.59035
G0 F12000 X134.400 Y169.740
G1 F2100 E223.99035
G1 F1800 X134.400 Y193.260 E224.77263
G0 F12000 X134.000 Y193.260
G1 F1800 X134.000 Y183.907 E225.08371
G0 F12000 X133.600 Y184.138
G1 F1800 X133.600 Y193.260 E225.38711
G0 F12000 X133.200 Y193.260
G1 F1800 X133.200 Y184.369 E225.68282
G0 F12000 X132.800 Y184.601
G1 F1800 X132.800 Y193.260 E225.97082
G0 F12000 X132.400 Y193.260
G1 F1800 X132.400 Y184.832 E226.25114
G0 F12000 X132.000 Y185.063
G1 F1800 X132.000 Y193.260 E226.52377
G0 F12000 X131.600 Y193.260
G1 F1800 X131.600 Y185.294 E226.78872
G0 F12000 X131.200 Y185.525
G1 F1800 X131.200 Y193.260 E227.04599
G0 F12000 X130.800 Y193.260
G1 F1800 X130.800 Y185.756 E227.29557
G0 F12000 X130.400 Y185.987
G1 F1800 X130.400 Y193.260 E227.53747
G0 F12000 X130.000 Y193.260
G1 F1800 X130.000 Y185.765 E227.78676
G0 F12000 X129.600 Y185.534
G1 F1800 X129.600 Y193.260 E228.04373
G0 F12000 X129.200 Y193.260
G1 F1800 X129.200 Y185.303 E228.30838
G0 F12000 X128.800 Y185.072
G1 F1800 X128.800 Y193.260 E228.58071
G0 F12000 X128.400 Y193.260
G1 F1800 X128.400 Y184.841 E228.86073
G0 F12000 X128.000 Y184.610
G1 F1800 X128.000 Y193.260 E229.14843
G0 F12000 X127.600 Y193.260
G1 F1800 X127.600 Y184.379 E229.44381
G0 F12000 X127.200 Y184.148
G1 F1800 X127.200 Y193.260 E229.74688
G1 F2100 E229.34688
G0 F12000 X134.800 Y193.260
G1 F2100 E229.74688
G1 F1800 X134.800 Y169.740 E230.52916
G0 F12000 X135.200 Y169.740
G1 F1800 X135.200 Y193.260 E231.31144
G0 F12000 X135.600 Y193.260
G1 F1800 X135.600 Y169.740 E232.09371
G0 F12000 X136.000 Y169.740
G1 F1800 X136.000 Y193.260 E232.87599
G0 F12000 X136.400 Y193.260
G1 F1800 X136.400 Y169.740 E233.65827
G0 F12000 X136.800 Y169.740
G1 F1800 X136.800 Y193.260 E234.44055
G0 F12000 X137.200 Y193.260
G1 F1800 X137.200 Y169.740 E235.22283
G0 F12000 X137.600 Y169.740
G1 F1800 X137.600 Y193.260 E236.00511
G0 F12000 X138.000 Y193.260
G1 F1800 X138.000 Y169.740 E236.78738
G0 F12000 X138.400 Y169.740
G1 F1800 X138.400 Y193.260 E237.56966
G0 F12000 X138.800 Y193.260
G1 F1800 X138.800 Y169.740 E238.35194
G0 F12000 X139.200 Y169.740
G1 F1800 X139.200 Y193.260 E239.13422
G0 F12000 X139.600 Y193.260
G1 F1800 X139.600 Y169.740 E239.91650
G0 F12000 X140.000 Y169.740
G1 F1800 X140.000 Y193.260 E240.69878
G0 F12000 X140.400 Y193.260
G1 F1800 X140.400 Y169.740 E241.48105
G0 F12000 X140.800 Y169.740
G1 F1800 X140.800 Y193.260 E242.26333
G0 F12000 X141.200 Y193.260
G1 F1800 X141.200 Y169.740 E243.04561
G0 F12000 X141.600 Y169.740
G1 F1800 X141.600 Y193.260 E243.82789
G0 F12000 X142.000 Y193.260
G1 F1800 X142.000 Y169.740 E244.61017
G0 F12000 X142.400 Y169.740
G1 F1800 X142.400 Y193.260 E245.39245
G0 F12000 X142.800 Y193.260
G1 F1800 X142.800 Y169.740 E246.17472
G0 F12000 X143.200 Y169.740
G1 F1800 X143.200 Y193.260 E246.95700
G0 F12000 X143.600 Y193.260
G1 F1800 X143.600 Y169.740 E247.73928
G0 F12000 X144.000 Y169.740
G1 F1800 X144.000 Y193.260 E248.52156
G0 F12000 X144.400 Y193.260
G1 F1800 X144.400 Y169.740 E249.30384
G0 F12000 X144.800 Y169.740
G1 F1800 X144.800 Y193.260 E250.08612
G0 F12000 X145.200 Y193.260
G1 F1800 X145.200 Y169.740 E250.86839
G0 F12000 X145.600 Y169.740
G1 F1800 X145.600 Y193.260 E251.65067
G0 F12000 X146.000 Y193.260
G1 F1800 X146.000 Y169.740 E252.43295
G0 F12000 X146.400 Y169.740
G1 F1800 X146.400 Y193.260 E253.21523
G0 F12000 X146.800 Y193.260
G1 F1800 X146.800 Y169.740 E253.99751
G0 F12000 X147.200 Y169.740
G1 F1800 X147.200 Y193.260 E254.77979
G0 F12000 X147.600 Y193.260
G1 F1800 X147.600 Y169.740 E255.56206
G0 F12000 X148.000 Y169.740
G1 F1800 X148.000 Y193.260 E256.34434
G0 F12000 X148.400 Y193.260
G1 F1800 X148.400 Y169.740 E257.12662
G0 F12000 X148.800 Y169.740
G1 F1800 X148.800 Y193.260 E257.90890
G0 F12000 X149.200 Y193.260
G1 F1800 X149.200 Y169.740 E258.69118
G0 F12000 X149.600 Y169.740
G1 F1800 X149.600 Y193.260 E259.47346
G0 F12000 X150.000 Y193.260
G1 F1800 X150.000 Y169.740 E260.25574
G0 F12000 X150.400 Y169.740
G1 F1800 X150.400 Y193.260 E261.03801
G0 F12000 X150.800 Y193.260
G1 F1800 X150.800 Y169.740 E261.82029
G0 F12000 X151.200 Y169.740
G1 F1800 X151.200 Y193.260 E262.60257
G0 F12000 X151.600 Y193.260
G1 F1800 X151.600 Y169.740 E263.38485
G0 F12000 X152.000 Y169.740
G1 F1800 X152.000 Y193.260 E264.16713
G0 F12000 X152.400 Y193.260
G1 F1800 X152.400 Y169.740 E264.94941
G0 F12000 X152.800 Y169.740
G1 F1800 X152.800 Y193.260 E265.73168
G0 F12000 X153.200 Y193.260
G1 F1800 X153.200 Y169.740 E266.51396
G0 F12000 X153.600 Y169.740
G1 F1800 X153.600 Y193.260 E267.29624
G0 F12000 X154.000 Y193.260
G1 F1800 X154.000 Y169.740 E268.07852
G0 F12000 X154.400 Y169.740
G1 F1800 X154.400 Y193.260 E268.86080
G0 F12000 X154.800 Y193.260
G1 F1800 X154.800 Y169.740 E269.64308
G0 F12000 X155.200 Y169.740
G1 F1800 X155.200 Y193.260 E270.42535
G0 F12000 X155.600 Y193.260
G1 F1800 X155.600 Y169.740 E271.20763
G0 F12000 X156.000 Y169.740
G1 F1800 X156.000 Y193.260 E271.98991
G0 F12000 X156.400 Y193.260
G1 F1800 X156.400 Y169.740 E272.77219
G0 F12000 X156.800 Y169.740
G1 F1800 X156.800 Y193.260 E273.55447
G0 F12000 X157.200 Y193.260
G1 F1800 X157.200 Y169.740 E274.33675
G0 F12000 X157.600 Y169.740
G1 F1800 X157.600 Y193.260 E275.11902
G0 F12000 X158.000 Y193.260
G1 F1800 X158.000 Y169.740 E275.90130
G0 F12000 X158.400 Y169.740
G1 F1800 X158.400 Y193.260 E276.68358
G0 F12000 X158.800 Y193.260
G1 F1800 X158.800 Y169.740 E277.46586
G0 F12000 X159.200 Y169.740
G1 F1800 X159.200 Y193.260 E278.24814
G0 F12000 X159.600 Y193.260
G1 F1800 X159.600 Y169.740 E279.03042
G0 F12000 X160.000 Y169.740
G1 F1800 X160.000 Y193.260 E279.81269
G0 F12000 X160.400 Y193.260
G1 F1800 X160.400 Y169.740 E280.59497
G0 F12000 X160.800 Y169.740
G1 F1800 X160.800 Y193.260 E281.37725
G0 F12000 X161.200 Y193.260
G1 F1800 X161.200 Y169.740 E282.15953
G0 F12000 X161.600 Y169.740
G1 F1800 X161.600 Y193.260 E282.94181
G0 F12000 X162.000 Y193.260
G1 F1800 X162.000 Y169.740 E283.72409
G0 F12000 X162.400 Y169.740
G1 F1800 X162.400 Y193.260 E284.50636
G0 F12000 X162.800 Y193.260
G1 F1800 X162.800 Y169.740 E285.28864
G0 F12000 X163.200 Y169.740
G1 F1800 X163.200 Y193.260 E286.07092
G0 F12000 X163.600 Y193.260
G1 F1800 X163.600 Y182.699 E286.42218
G0 F12000 X164.000 Y183.589
G1 F1800 X164.000 Y193.260 E286.74384
G0 F12000 X164.400 Y193.260
G1 F1800 X164.400 Y184.129 E287.04754
G0 F12000 X164.800 Y184.541
G1 F1800 X164.800 Y193.260 E287.33753
G0 F12000 X165.200 Y193.260
G1 F1800 X165.200 Y184.845 E287.61742
G0 F12000 X165.600 Y185.077
G1 F1800 X165.600 Y193.260 E287.88959
G0 F12000 X166.000 Y193.260
G1 F1800 X166.000 Y185.254 E288.15587
G0 F12000 X166.400 Y185.381
G1 F1800 X166.400 Y193.260 E288.41792
G0 F12000 X166.800 Y193.260
G1 F1800 X166.800 Y185.466 E288.67715
G0 F12000 X167.200 Y185.509
G1 F1800 X167.200 Y193.260 E288.93495
G0 F12000 X167.600 Y193.260
G1 F1800 X167.600 Y185.511 E289.19268
G0 F12000 X168.000 Y185.473
G1 F1800 X168.000 Y193.260 E289.45168
G0 F12000 X168.400 Y193.260
G1 F1800 X168.400 Y185.394 E289.71331
G0 F12000 X168.800 Y185.274
G1 F1800 X168.800 Y193.260 E289.97892
G0 F12000 X169.200 Y193.260
G1 F1800 X169.200 Y185.102 E290.25026
G0 F12000 X169.600 Y184.878
G1 F1800 X169.600 Y193.260 E290.52904
G0 F12000 X170.000 Y193.260
G1 F1800 X170.000 Y184.584 E290.81761
G0 F12000 X170.400 Y184.189
G1 F1800 X170.400 Y193.260 E291.11931
G0 F12000 X170.800 Y193.260
G1 F1800 X170.800 Y183.792 E291.43422
G0 F12000 X171.200 Y184.023
G1 F1800 X171.200 Y193.260 E291.74144
G0 F12000 X171.600 Y193.260
G1 F1800 X171.600 Y184.255 E292.04095
G0 F12000 X172.000 Y184.486
G1 F1800 X172.000 Y193.260 E292.33277
G0 F12000 X172.400 Y193.260
G1 F1800 X172.400 Y184.717 E292.61692
G0 F12000 X172.800 Y184.948
G1 F1800 X172.800 Y193.260 E292.89337
G0 F12000 X173.200 Y193.260
G1 F1800 X173.200 Y185.179 E293.16215
G0 F12000 X173.600 Y185.410
G1 F1800 X173.600 Y193.260 E293.42324
G0 F12000 X174.000 Y193.260
G1 F1800 X174.000 Y185.642 E293.67662
G0 F12000 X174.400 Y185.873
G1 F1800 X174.400 Y193.260 E293.92231
G0 F12000 X174.800 Y193.260
G1 F1800 X174.800 Y185.880 E294.16777
G0 F12000 X175.200 Y185.649
G1 F1800 X175.200 Y193.260 E294.42091
G0 F12000 X175.600 Y193.260
G1 F1800 X175.600 Y185.418 E294.68174
G0 F12000 X176.000 Y185.187
G1 F1800 X176.000 Y193.260 E294.95025
G0 F12000 X176.400 Y193.260
G1 F1800 X176.400 Y184.956 E295.22644
G0 F12000 X176.800 Y184.725
G1 F1800 X176.800 Y193.260 E295.51031
G0 F12000 X177.200 Y193.260
G1 F1800 X177.200 Y184.494 E295.80187
G0 F12000 X177.600 Y184.263
